/* XPM */
static char *E_soft[] = {
/* columns rows colors chars-per-pixel */
"128 128 7 1 ",
"  c black",
". c #0F1316",
"X c #263139",
"o c #658196",
"O c #8FB7D4",
"+ c #A6D5F7",
"@ c gainsboro",
/* pixels */
"@@@@@@@@@@@@@@@@@@@@@@@@@@@@@@@@@@@@@@@@@@@@@@@@@@@@@@@@@@@@@@@@@@@@@@@@@@@@@@@@@@@@@@@@@@@@@@@@@@@@@@@@@@@@@@@@@@@@@@@@@@@@@@@@",
"++++++++++++++++@@@@@@@@@@@@@+++@@@+++++++@@+++++++@@++++++++@+++++++++@+++++++++@++++++++@+++++++++@+++++++++@+++++++++@+++++++",
"++++++++++++++++++++++++++++@@@@@@@@@@@@++++@@+++++++@++++++++@+++++++++@++++++++@+++++++++@+++++++++@++++++++@+++++++++@+++++++",
"++++++++++++++++++++++++++++++++++@@@@@@@@@@@@@@@@@@++@@+++++++@++++++++@+++++++++@++++++++@+++++++++@++++++++@+++++++++@+++++++",
"+++++++++++++++++++++++++++++++++++++++@@@@@@+++@@++@@@@@@@@@@@@@@+++++++@++++++++@+++++++++@++++++++@+++++++++@++++++++@+++++++",
"+++++++++++++++++++++++++++++++++++++++++++++@@@@@@@@+++++@+++++@@@@@@@@@@@++++++++@++++++++@++++++++@+++++++++@++++++++@+++++++",
"++++++++++++++++++++++++++++++++++++++++++++++++@@@@@@@@+++@@++++++@+++++++@@@@@@@@@@@@++++++@++++++++@++++++++@++++++++@+++++++",
"++++++++++++++++++++++++++++++++++++++++++++++++++++@@@@@@@@@@++++++@+++++++@+++++++@++@@@@@@@@@@@@+++@++++++++@++++++++@+++++++",
"+++++++++++++++++++++++++++++++++++++++++++++++++++++++@@@@++@@@@@+++@+++++++@+++++++@+++++++@+++++@@@@@@@@@@@@@+++++++++@++++++",
"++++++++++++++++++++++++++++++++++++++++++++++++++++++++++@@@@++@+@@@@@@+++++@+++++++@++++++++@++++++++@+++++++@@@@@@@@@@@@+++++",
"+++++++++++++++++++++++++++++++++++++++++++++++++++++++++++++@@@@@@++++@@@@@@+@+++++++@+++++++@++++++++@++++++++@++++++++@+@@@@@",
"++++++++++++++++++++++++++++++++++++++++++++++++++++++++++++++++@@@@++++@@+++@@@@@@++++@+++++++@+++++++@++++++++@++++++++@++++++",
"++++++++++++++++++++++++++++++++++++++++++++++++++++++++++++++++++@@@@@+++@+++++@++@@@@@+++++++@+++++++@++++++++@++++++++@++++++",
"++++++++++++++++++++++++++++++++++++++++++++++++++++++++++++++++++++@@@@@@@@+++++@++++++@@@@@++@++++++++@+++++++@++++++++@++++++",
"++++++++++++++++++++++++++++++++++++++++++++++++++++++++++++++++++++++@@@++@@@++++@+++++@++++@@@@@@+++++@+++++++@++++++++@++++++",
"++++++++++++++++++++++++++++++++++++++++++++++++++++++++++++++++++++++++@@@++@@@@+@++++++@++++++@++@@@@@@+++++++@++++++++@++++++",
"+++++++++++++++++++++++++++++++++++++++++++++++++++++++++++++++++++++++++++@@+@++@@@++++++@++++++@++++++@@@@@@+++@+++++++@++++++",
"++++++++++++++++++++++++++++++++++++++++++++++++++++++++++++++++++++++++++++@@@@++++@@@@++@++++++@+++++++@++++@@@@@++++++@++++++",
"++++++++++++++++++++++++++++++++++++++++++++++++++++++++++++++++++++++++++++++@@@++++@++@@@@++++++@++++++@+++++++@+@@@@@+@++++++",
"+++++++++++++++++++++++++++++++++++++++++++++++++++++++++++++++++++++++++++++++@@@@+++@++++@@@++++@++++++@+++++++@++++++@@@@@@++",
"+++++++++++++++++++++++++++++++++++++++++++++++++++++++++++++++++++++++++++++++++@+@@@+@++++@+@@@+@+++++++@++++++@+++++++@++++@@",
"++++++++++++++++++++++++++++++++++++++++++++++++++++++++++++++++++++++++++++++++++@@@+@@+++++@+++@@@@+++++@++++++@+++++++@++++++",
"++++++++++++++++++++++++++++++++++++++++++++++++++++++++++++++++++++++++++++++++++++@@++@@+++@+++++@+@@@++@+++++++@++++++@++++++",
"++++++++++++++++++++++++++++++++++++++++++++++++++++++++++++++++++++++++++++++++++++++@++@@@++@+++++@+++@@@+++++++@+++++++@+++++",
"+++++++++++++++++++++++++++++++++++++++++++++++++++++++++++++++++++++++++++++++++++++++@@+@+@@@+++++@++++++@@@@+++@+++++++@+++++",
"++++++++++++++++++++++++++++++++++++++++++++++++++++++++++++++++++++++++++++++++++++++++@@+@++@@@++++@+++++@+++@@@@+++++++@+++++",
"+++++++++++++++++++++++++++++++++++++++++++++++++++++++++++++++++++++++++++++++++++++++++@@@@+++@@@++@+++++@++++++@@@+++++@+++++",
"+++++++++++++++++++++++++++++++++++++++++++++++++++++++++++++++++++++++++++++++++++++++++++@@+++@++@@@++++++@+++++@++@@@++@+++++",
"++++++++++++++++++++++++++++++++++++++++++++++++++++++++++++++++++++++++++++++++++++++++++++@@@++@+++@@+++++@++++++@++++@@@@++++",
"+++++++++++++++++++++++++++++++++++++++++++++++++++++++++++++++++++++++++++++++++++++++++++++@@@@@++++@@@+++@++++++@++++++@+@@@+",
"++++++++++++++++++++++++++++++++++++++++++++++++++++++++++++++++++++++++++++++++++++++++++++++@@+@@++++@+@@@@++++++@++++++@++++@",
"+++++++++++++++++++++++++++++++++++++++++++++++++++++++++++++++++++++++++++++++++++++++++++++++@@+@@+++@++++@@+++++@++++++@+++++",
"++++++++++++++++++++++++++++++++++++++++++++++++++++++++++++++++++++++++++++++++++++++++++++++++@@+@@+++@++++@@@+++@++++++@+++++",
"+++++++++++++++++++++++++++++++++++++++++++++++++++++++++++++++++++++++++++++++++++++++++++++++++@++@@@+@++++@++@@+@++++++@+++++",
"++++++++++++++++++++++++++++++++++++++++++++++++++++++++++++++++++++++++++++++++++++++++++++++++++@@@++@@+++++@+++@@@+++++@+++++",
"+++++++++++++++++++++++++++++++++++++++++++++++++++++++++++++++++++++++++++++++++++++++++++++++++++@@@++@@++++@+++++@@@+++@+++++",
"++++++++++++++++++++++++++++++++++++++++++++++++++++++++++++++++++++++++++++++++++++++++++++++++++++@@@++@@+++@+++++@++@@+@+++++",
"+++++++++++++++++++++++++++++++++++++++++++++++++++++++++++++++++++++++++++++++++++++++++++++++++++++@@+++@@@+@+++++@++++@@+++++",
"+++++++++++++++++++++++++++++++++++++++++++++++++++++++++++++++++++++++++++++++++++++++++++++++++++++@+@++@++@@@++++@++++++@@+++",
"++++++++++++++++++++++++++++++++++++++++++++++++++++++++++++++++++++++++++++++++++++++++++++++++++++++@@@+@++++@++++@++++++@+@@+",
"+++++++++++++++++++++++++++++++++++++++++++++++++++++++++++++++++++++++++++++++++++++++++++++++++++++++@@@+@+++@@@+++@+++++@+++@",
"++++++++++++++++++++++++++++++++++++++++++++++++++++++++++++++++++++++++++++++++++++++++++++++++++++++++@@@@+++@++@++@+++++@++++",
"+++++++++++++++++++++++++++++++++++++++++++++++++++++++++++++++++++++++++++++++++++++++++++++++++++++++++@++@+++@++@@@+++++@++++",
"++++++++++++++++++++++++++++++++++++++++++++++++++++++++++++++++++++++++++++++++++++++++++++++++++++++++++@+@@++@++++@+++++@++++",
"++++++++++++++++++++++++++++++++++++++++++++++++++++++++++++++++++++++++++++++++++++++++++++++++++++++++++@++@@+@++++@@@+++@++++",
"+++++++++++++++++++++++++++++++++++++++++++++++++++++++++++++++++++++++++++++++++++++++++++++++++++++++++++@+@+@+@+++@++@++@++++",
"++++++++++++++++++++++++++++++++++++++++++++++++++++++++++++++++++++++++++++++++++++++++++++++++++++++++++++@@++@@++++@++@@@++++",
"++++++++++++++++++++++++++++++++++++++++++++++++++++++++++++++++++++++++++++++++++++++++++++++++++++++++++++@@@++@++++@++++@@+++",
"+++++++++++++++++++++++++++++++++++++++++++++++++++++++++++++++++++++++++++++++++++++++++++++++++++++++++++++@@++@@+++@++++@+@++",
"+++++++++++++++++++++++++++++++++++++++++++++++++++++++++++++++++++++++++++++++++++++++++++++++++++++++++++++@+@++@@@+@++++@++@@",
"++++++++++++++++++++++++++++++++++++++++++++++++++++++++++++++++++++++++++++++++++++++++++++++++++++++++++++++@@++@++@@++++@++++",
"+++++++++++++++++++++++++++++++++++++++++++++++++++++++++++++++++++++++++++++++++++++++++++++++++++++++++++++++@@+@+++@++++@++++",
"+++++++++++++++++++++++++++++++++++++++++++++++++++++++++++++++++++++++++++++++++++++++++++++++++++++++++++++++@@@+@+++@+++@++++",
"+++++++++++++++++++++++++++++++++++++++++++++o                                    O+++++++++++++++++++++++++++++@+@@+++@@+++@+++",
"+++++++++++++++++++++++++++++++++++++++++++++o                                    O+++++++++++++++++++++++++++++@@+@+++@+@++@+++",
"+++++++++++++++++++++++++++++++++++++++++++++o                                    O++++++++++++++++++++++++++++++@+@@++@++@+@+++",
"+++++++++++++++++++++++++++++++++++++++++++++o                                    O+++++++++++++++++++++++++++++++@+@++@+++@@+++",
"+++++++++++++++++++++++++++++++++++++++++++++o                                    O+++++++++++++++++++++++++++++++@+@@+@++++@@++",
"+++++++++++++++++++++++++++++++++++++++++++++o                                    O+++++++++++++++++++++++++++++++@@@+@@++++@+@+",
"+++++++++++++++++++++++++++++++++++++++++++++o                                    O++++++++++++++++++++++++++++++++@+@+@@+++@++@",
"+++++++++++++++++++++++++++++++++++++++++++++o                                    O++++++++++++++++++++++++++++++++@@@++@+++@+++",
"+++++++++++++++++++++++++++++++++++++++++++++o                                    O+++++++++++++++++++++++++++++++++@@++@@++@+++",
"+++++++++++++++++++++++++++++++++++++++++++++o                                    O+++++++++++++++++++++++++++++++++@@++@@++@+++",
"+++++++++++++++++++++++++++++++++++++++++++++o             O+++++++++++++++++++++++++++++++++++++++++++++++++++++++++@@+@+@+@+++",
"+++++++++++++++++++++++++++++++++++++++++++++o             O+++++++++++++++++++++++++++++++++++++++++++++++++++++++++@@+@++@@+++",
"+++++++++++++++++++++++++++++++++++++++++++++o             O+++++++++++++++++++++++++++++++++++++++++++++++++++++++++@@@+@++@+++",
"+++++++++++++++++++++++++++++++++++++++++++++o             O++++++++++++++++++++++++++++++++++++++++++++++++++++++++++@+@@++@@++",
"+++++++++++++++++++++++++++++++++++++++++++++o             O++++++++++++++++++++++++++++++++++++++++++++++++++++++++++@@@@++@+@+",
"+++++++++++++++++++++++++++++++++++++++++++++o             O+++++++++++++++++++++++++++++++++++++++++++++++++++++++++++@+@+++@@+",
"+++++++++++++++++++++++++++++++++++++++++++++o             O+++++++++++++++++++++++++++++++++++++++++++++++++++++++++++@+@+++@+@",
"+++++++++++++++++++++++++++++++++++++++++++++o             O++++++++++++++++++++++++++++++++++++++++++++++++++++++++++++@@@++@++",
"+++++++++++++++++++++++++++++++++++++++++++++o             O++++++++++++++++++++++++++++++++++++++++++++++++++++++++++++@+@@+@++",
"+++++++++++++++++++++++++++++++++++++++++++++o             O++++++++++++++++++++++++++++++++++++++++++++++++++++++++++++@+@@+@++",
"+++++++++++++++++++++++++++++++++++++++++++++o                                  X+++++++++++++++++++++++++++++++++++++++@@@+@@++",
"+++++++++++++++++++++++++++++++++++++++++++++o                                  X++++++++++++++++++++++++++++++++++++++++@@+@@++",
"+++++++++++++++++++++++++++++++++++++++++++++o                                  X++++++++++++++++++++++++++++++++++++++++@@++@++",
"+++++++++++++++++++++++++++++++++++++++++++++o                                  X++++++++++++++++++++++++++++++++++++++++@@++@@+",
"+++++++++++++++++++++++++++++++++++++++++++++o                                  X+++++++++++++++++++++++++++++++++++++++++@@+@@+",
"+++++++++++++++++++++++++++++++++++++++++++++o                                  X+++++++++++++++++++++++++++++++++++++++++@@+@+@",
"+++++++++++++++++++++++++++++++++++++++++++++o                                  X+++++++++++++++++++++++++++++++++++++++++@@+@+@",
"+++++++++++++++++++++++++++++++++++++++++++++o                                  X+++++++++++++++++++++++++++++++++++++++++@@@@++",
"+++++++++++++++++++++++++++++++++++++++++++++o                                  X++++++++++++++++++++++++++++++++++++++++++@@@++",
"+++++++++++++++++++++++++++++++++++++++++++++o                                  X++++++++++++++++++++++++++++++++++++++++++@+@++",
"+++++++++++++++++++++++++++++++++++++++++++++o             O+++++++++++++++++++++++++++++++++++++++++++++++++++++++++++++++@@@@+",
"+++++++++++++++++++++++++++++++++++++++++++++o             O++++++++++++++++++++++++++++++++++++++++++++++++++++++++++++++++@@@+",
"+++++++++++++++++++++++++++++++++++++++++++++o             O++++++++++++++++++++++++++++++++++++++++++++++++++++++++++++++++@+@+",
"+++++++++++++++++++++++++++++++++++++++++++++o             O++++++++++++++++++++++++++++++++++++++++++++++++++++++++++++++++@+@+",
"+++++++++++++++++++++++++++++++++++++++++++++o             O++++++++++++++++++++++++++++++++++++++++++++++++++++++++++++++++@+@@",
"+++++++++++++++++++++++++++++++++++++++++++++o             O++++++++++++++++++++++++++++++++++++++++++++++++++++++++++++++++@@@@",
"+++++++++++++++++++++++++++++++++++++++++++++o             O+++++++++++++++++++++++++++++++++++++++++++++++++++++++++++++++++@@+",
"+++++++++++++++++++++++++++++++++++++++++++++o             O+++++++++++++++++++++++++++++++++++++++++++++++++++++++++++++++++@@+",
"+++++++++++++++++++++++++++++++++++++++++++++o             O+++++++++++++++++++++++++++++++++++++++++++++++++++++++++++++++++@@+",
"+++++++++++++++++++++++++++++++++++++++++++++o             O+++++++++++++++++++++++++++++++++++++++++++++++++++++++++++++++++@@+",
"+++++++++++++++++++++++++++++++++++++++++++++o             O+++++++++++++++++++++++++++++++++++++++++++++++++++++++++++++++++@@+",
"+++++++++++++++++++++++++++++++++++++++++++++o             O+++++++++++++++++++++++++++++++++++++++++++++++++++++++++++++++++@@+",
"+++++++++++++++++++++++++++++++++++++++++++++o                                    .+++++++++++++++++++++++++++++++++++++++++++@@",
"+++++++++++++++++++++++++++++++++++++++++++++o                                    .+++++++++++++++++++++++++++++++++++++++++++@@",
"+++++++++++++++++++++++++++++++++++++++++++++o                                    .+++++++++++++++++++++++++++++++++++++++++++@@",
"+++++++++++++++++++++++++++++++++++++++++++++o                                    .+++++++++++++++++++++++++++++++++++++++++++@@",
"+++++++++++++++++++++++++++++++++++++++++++++o                                    .+++++++++++++++++++++++++++++++++++++++++++@@",
"+++++++++++++++++++++++++++++++++++++++++++++o                                    .+++++++++++++++++++++++++++++++++++++++++++@@",
"+++++++++++++++++++++++++++++++++++++++++++++o                                    .++++++++++++++++++++++++++++++++++++++++++++@",
"+++++++++++++++++++++++++++++++++++++++++++++o                                    .++++++++++++++++++++++++++++++++++++++++++++@",
"+++++++++++++++++++++++++++++++++++++++++++++o                                    .++++++++++++++++++++++++++++++++++++++++++++@",
"+++++++++++++++++++++++++++++++++++++++++++++o                                    .++++++++++++++++++++++++++++++++++++++++++++@",
"+++++++++++++++++++++++++++++++++++++++++++++++++++++++++++++++++++++++++++++++++++++++++++++++++++++++++++++++++++++++++++++++@",
"+++++++++++++++++++++++++++++++++++++++++++++++++++++++++++++++++++++++++++++++++++++++++++++++++++++++++++++++++++++++++++++++@",
"+++++++++++++++++++++++++++++++++++++++++++++++++++++++++++++++++++++++++++++++++++++++++++++++++++++++++++++++++++++++++++++++@",
"+++++++++++++++++++++++++++++++++++++++++++++++++++++++++++++++++++++++++++++++++++++++++++++++++++++++++++++++++++++++++++++++@",
"+++++++++++++++++++++++++++++++++++++++++++++++++++++++++++++++++++++++++++++++++++++++++++++++++++++++++++++++++++++++++++++++@",
"+++++++++++++++++++++++++++++++++++++++++++++++++++++++++++++++++++++++++++++++++++++++++++++++++++++++++++++++++++++++++++++++@",
"+++++++++++++++++++++++++++++++++++++++++++++++++++++++++++++++++++++++++++++++++++++++++++++++++++++++++++++++++++++++++++++++@",
"+++++++++++++++++++++++++++++++++++++++++++++++++++++++++++++++++++++++++++++++++++++++++++++++++++++++++++++++++++++++++++++++@",
"++++++++++++++++++++++++++++++++++++++++++++++++++++++++++++++++++++++++++++++++++++++++++++++++++++++++++++++++++++++++++++++++",
"++++++++++++++++++++++++++++++++++++++++++++++++++++++++++++++++++++++++++++++++++++++++++++++++++++++++++++++++++++++++++++++++",
"++++++++++++++++++++++++++++++++++++++++++++++++++++++++++++++++++++++++++++++++++++++++++++++++++++++++++++++++++++++++++++++++",
"++++++++++++++++++++++++++++++++++++++++++++++++++++++++++++++++++++++++++++++++++++++++++++++++++++++++++++++++++++++++++++++++",
"++++++++++++++++++++++++++++++++++++++++++++++++++++++++++++++++++++++++++++++++++++++++++++++++++++++++++++++++++++++++++++++++",
"++++++++++++++++++++++++++++++++++++++++++++++++++++++++++++++++++++++++++++++++++++++++++++++++++++++++++++++++++++++++++++++++",
"++++++++++++++++++++++++++++++++++++++++++++++++++++++++++++++++++++++++++++++++++++++++++++++++++++++++++++++++++++++++++++++++",
"++++++++++++++++++++++++++++++++++++++++++++++++++++++++++++++++++++++++++++++++++++++++++++++++++++++++++++++++++++++++++++++++",
"++++++++++++++++++++++++++++++++++++++++++++++++++++++++++++++++++++++++++++++++++++++++++++++++++++++++++++++++++++++++++++++++",
"++++++++++++++++++++++++++++++++++++++++++++++++++++++++++++++++++++++++++++++++++++++++++++++++++++++++++++++++++++++++++++++++",
"++++++++++++++++++++++++++++++++++++++++++++++++++++++++++++++++++++++++++++++++++++++++++++++++++++++++++++++++++++++++++++++++",
"++++++++++++++++++++++++++++++++++++++++++++++++++++++++++++++++++++++++++++++++++++++++++++++++++++++++++++++++++++++++++++++++",
"++++++++++++++++++++++++++++++++++++++++++++++++++++++++++++++++++++++++++++++++++++++++++++++++++++++++++++++++++++++++++++++++",
"++++++++++++++++++++++++++++++++++++++++++++++++++++++++++++++++++++++++++++++++++++++++++++++++++++++++++++++++++++++++++++++++",
"++++++++++++++++++++++++++++++++++++++++++++++++++++++++++++++++++++++++++++++++++++++++++++++++++++++++++++++++++++++++++++++++"
};
