/* XPM */
static char * space_xpm[] = {
"120 120 9528 3",
"   	c #0A3640",
".  	c #123A41",
"+  	c #1F4146",
"@  	c #294448",
"#  	c #334A4C",
"$  	c #3E4D4C",
"%  	c #49524E",
"&  	c #535850",
"*  	c #5A5D53",
"=  	c #636254",
"-  	c #6D6556",
";  	c #756857",
">  	c #7D6D5A",
",  	c #86725C",
"'  	c #8E755D",
")  	c #94795F",
"!  	c #9C7D5F",
"~  	c #A08160",
"{  	c #BB9F7B",
"]  	c #AC8864",
"^  	c #B88A66",
"/  	c #BD8C65",
"(  	c #C59168",
"_  	c #C99469",
":  	c #CD9769",
"<  	c #D39A6B",
"[  	c #D89B6A",
"}  	c #DC9E6B",
"|  	c #E1A06C",
"1  	c #E7A36E",
"2  	c #EBA46F",
"3  	c #EDA56F",
"4  	c #F1A86F",
"5  	c #F5AA71",
"6  	c #FBB075",
"7  	c #FCAE72",
"8  	c #FFAF72",
"9  	c #FFB173",
"0  	c #FBB171",
"a  	c #FDB573",
"b  	c #FFB572",
"c  	c #FDB672",
"d  	c #FCB672",
"e  	c #FDB574",
"f  	c #FEB773",
"g  	c #FEB974",
"h  	c #FEBA74",
"i  	c #FDBA73",
"j  	c #FBBD76",
"k  	c #FBBE76",
"l  	c #FCBF77",
"m  	c #FDC077",
"n  	c #FEC075",
"o  	c #FDBF78",
"p  	c #FEBE78",
"q  	c #FCBE77",
"r  	c #FDBC75",
"s  	c #F8C079",
"t  	c #F8C17B",
"u  	c #FDBE73",
"v  	c #FEBE74",
"w  	c #FFBE74",
"x  	c #FFBD73",
"y  	c #FEBC73",
"z  	c #FDBB74",
"A  	c #FABB73",
"B  	c #FBBC74",
"C  	c #FFB873",
"D  	c #FCB870",
"E  	c #FBB76E",
"F  	c #FCB56F",
"G  	c #FDB370",
"H  	c #FCB572",
"I  	c #FDBB78",
"J  	c #FFB979",
"K  	c #FFB677",
"L  	c #FFB073",
"M  	c #FDA76C",
"N  	c #FEA46B",
"O  	c #FFA267",
"P  	c #FDA065",
"Q  	c #FD9D64",
"R  	c #FC9A64",
"S  	c #FC9862",
"T  	c #FC9564",
"U  	c #FC9264",
"V  	c #F98E60",
"W  	c #FD8B61",
"X  	c #FC885F",
"Y  	c #FC845C",
"Z  	c #FF805A",
"`  	c #FF7D5C",
" . 	c #FE785B",
".. 	c #FA775C",
"+. 	c #F4795E",
"@. 	c #EA6F58",
"#. 	c #E26B56",
"$. 	c #D86855",
"%. 	c #CD6554",
"&. 	c #C36252",
"*. 	c #BE6357",
"=. 	c #B15B51",
"-. 	c #A7584E",
";. 	c #9E544D",
">. 	c #96524C",
",. 	c #8F524D",
"'. 	c #844D49",
"). 	c #7C4947",
"!. 	c #754748",
"~. 	c #70464B",
"{. 	c #684048",
"]. 	c #5E3C44",
"^. 	c #563A42",
"/. 	c #503942",
"(. 	c #4A3641",
"_. 	c #40333D",
":. 	c #39313D",
"<. 	c #322F3C",
"[. 	c #2C2C39",
"}. 	c #09353F",
"|. 	c #113940",
"1. 	c #1E4045",
"2. 	c #284348",
"3. 	c #32494B",
"4. 	c #48524D",
"5. 	c #51564F",
"6. 	c #585B51",
"7. 	c #616053",
"8. 	c #6B6454",
"9. 	c #736756",
"0. 	c #7A6B58",
"a. 	c #83705B",
"b. 	c #8B745C",
"c. 	c #92775E",
"d. 	c #997B5D",
"e. 	c #9D7F5E",
"f. 	c #9F805D",
"g. 	c #A98661",
"h. 	c #B38764",
"i. 	c #B98A64",
"j. 	c #BF8E66",
"k. 	c #C89467",
"l. 	c #CD9768",
"m. 	c #D3996A",
"n. 	c #D79B69",
"o. 	c #DA9C6A",
"p. 	c #E2A06C",
"q. 	c #E6A26E",
"r. 	c #E9A36E",
"s. 	c #ECA56D",
"t. 	c #EEA56D",
"u. 	c #F4A970",
"v. 	c #F8AC71",
"w. 	c #FBAD71",
"x. 	c #FDAE73",
"y. 	c #FBB073",
"z. 	c #FDB274",
"A. 	c #FEB273",
"B. 	c #FDB372",
"C. 	c #FDB373",
"D. 	c #FDB473",
"E. 	c #FDB571",
"F. 	c #FDB772",
"G. 	c #FBB975",
"H. 	c #FCBA74",
"I. 	c #FCBB74",
"J. 	c #FCBB73",
"K. 	c #FDB974",
"L. 	c #FABB76",
"M. 	c #F6C580",
"N. 	c #F7B975",
"O. 	c #F8BC79",
"P. 	c #F9BC79",
"Q. 	c #FCB971",
"R. 	c #FDBA72",
"S. 	c #FEBA72",
"T. 	c #FEB971",
"U. 	c #FDB871",
"V. 	c #FCB673",
"W. 	c #FCBA76",
"X. 	c #FBBB77",
"Y. 	c #FBB371",
"Z. 	c #FEB170",
"`. 	c #FDB16F",
" + 	c #FDB16E",
".+ 	c #FEAF6F",
"++ 	c #FEAD6D",
"@+ 	c #FBAC6C",
"#+ 	c #FBAE6F",
"$+ 	c #FEB073",
"%+ 	c #FDAC70",
"&+ 	c #FDA66D",
"*+ 	c #FCA169",
"=+ 	c #FD9E67",
"-+ 	c #FD9D65",
";+ 	c #FC9B63",
">+ 	c #FC9963",
",+ 	c #FD9762",
"'+ 	c #FC9462",
")+ 	c #FA8F61",
"!+ 	c #F98D61",
"~+ 	c #F8885E",
"{+ 	c #FE855F",
"]+ 	c #FF825E",
"^+ 	c #FF7F5C",
"/+ 	c #FF7D5A",
"(+ 	c #FD7A5A",
"_+ 	c #F87558",
":+ 	c #F27359",
"<+ 	c #E97158",
"[+ 	c #DE6C56",
"}+ 	c #D66854",
"|+ 	c #CC6554",
"1+ 	c #C36353",
"2+ 	c #B95F51",
"3+ 	c #BA665B",
"4+ 	c #A9594E",
"5+ 	c #A1564E",
"6+ 	c #97524C",
"7+ 	c #8F504A",
"8+ 	c #864D49",
"9+ 	c #7E4A47",
"0+ 	c #784747",
"a+ 	c #704345",
"b+ 	c #6C4349",
"c+ 	c #643E46",
"d+ 	c #5B3B43",
"e+ 	c #543941",
"f+ 	c #4D3742",
"g+ 	c #473540",
"h+ 	c #3E323D",
"i+ 	c #37303D",
"j+ 	c #312F3D",
"k+ 	c #2C2D3D",
"l+ 	c #09343F",
"m+ 	c #1E3F44",
"n+ 	c #274247",
"o+ 	c #3D4D4C",
"p+ 	c #47514D",
"q+ 	c #4F554E",
"r+ 	c #575A50",
"s+ 	c #5F5F52",
"t+ 	c #696354",
"u+ 	c #716756",
"v+ 	c #776957",
"w+ 	c #816F5A",
"x+ 	c #88735B",
"y+ 	c #8F765D",
"z+ 	c #94785B",
"A+ 	c #9B7C5E",
"B+ 	c #A18160",
"C+ 	c #A78461",
"D+ 	c #AF8663",
"E+ 	c #B48964",
"F+ 	c #B88B64",
"G+ 	c #C08F66",
"H+ 	c #C29266",
"I+ 	c #C89468",
"J+ 	c #D09969",
"K+ 	c #D59C6C",
"L+ 	c #D99C6B",
"M+ 	c #DD9F6C",
"N+ 	c #E0A06D",
"O+ 	c #EAA56F",
"P+ 	c #EDA66F",
"Q+ 	c #F1A870",
"R+ 	c #F3AA70",
"S+ 	c #F8AC73",
"T+ 	c #FCB076",
"U+ 	c #FBB176",
"V+ 	c #FCB275",
"W+ 	c #FCB174",
"X+ 	c #FDB173",
"Y+ 	c #FDB171",
"Z+ 	c #FEB271",
"`+ 	c #FEB372",
" @ 	c #FCB573",
".@ 	c #FBB572",
"+@ 	c #FCB571",
"@@ 	c #F8B674",
"#@ 	c #F9CB89",
"$@ 	c #FAB575",
"%@ 	c #FBB472",
"&@ 	c #FCB471",
"*@ 	c #FDB471",
"=@ 	c #FCB16F",
"-@ 	c #FDB271",
";@ 	c #FBB06F",
">@ 	c #FCAE6E",
",@ 	c #FDAC6D",
"'@ 	c #FDAB6D",
")@ 	c #FCAB6C",
"!@ 	c #FFA86B",
"~@ 	c #FDA669",
"{@ 	c #FBA667",
"]@ 	c #FCA468",
"^@ 	c #FBA36C",
"/@ 	c #FCA16B",
"(@ 	c #FD9E69",
"_@ 	c #FD9C68",
":@ 	c #FD9966",
"<@ 	c #FE9765",
"[@ 	c #FD9663",
"}@ 	c #FD9362",
"|@ 	c #FC9061",
"1@ 	c #FC8F60",
"2@ 	c #F88C61",
"3@ 	c #F89169",
"4@ 	c #F78660",
"5@ 	c #FC815F",
"6@ 	c #FF7F5F",
"7@ 	c #FE7C5C",
"8@ 	c #FC785A",
"9@ 	c #F57558",
"0@ 	c #EF7258",
"a@ 	c #E66F57",
"b@ 	c #DC6D55",
"c@ 	c #D36A55",
"d@ 	c #CB6753",
"e@ 	c #C26352",
"f@ 	c #BF685A",
"g@ 	c #B05D51",
"h@ 	c #A95A50",
"i@ 	c #99544D",
"j@ 	c #914F4C",
"k@ 	c #9B6260",
"l@ 	c #824D4B",
"m@ 	c #794847",
"n@ 	c #734546",
"o@ 	c #6C4247",
"p@ 	c #714D54",
"q@ 	c #5F3C44",
"r@ 	c #583944",
"s@ 	c #503842",
"t@ 	c #493641",
"u@ 	c #433340",
"v@ 	c #3B313D",
"w@ 	c #35313B",
"x@ 	c #2F2D3A",
"y@ 	c #292A38",
"z@ 	c #08343E",
"A@ 	c #123940",
"B@ 	c #1D3F44",
"C@ 	c #31484A",
"D@ 	c #3B4C4B",
"E@ 	c #444F4C",
"F@ 	c #4E554F",
"G@ 	c #545951",
"H@ 	c #5D5E52",
"I@ 	c #676254",
"J@ 	c #6C6554",
"K@ 	c #8A7F6E",
"L@ 	c #7C6C57",
"M@ 	c #857159",
"N@ 	c #8C755D",
"O@ 	c #91765B",
"P@ 	c #987A5D",
"Q@ 	c #9E7F61",
"R@ 	c #A38261",
"S@ 	c #AA8562",
"T@ 	c #AF8863",
"U@ 	c #B48965",
"V@ 	c #BB8D67",
"W@ 	c #BE9067",
"X@ 	c #C29267",
"Y@ 	c #C59267",
"Z@ 	c #D5A578",
"`@ 	c #E2B88B",
" # 	c #D69F71",
".# 	c #D79E6E",
"+# 	c #D99E6D",
"@# 	c #E1A16D",
"## 	c #E4A46F",
"$# 	c #E8A66F",
"%# 	c #EBA770",
"&# 	c #ECA871",
"*# 	c #F1A872",
"=# 	c #F3AA72",
"-# 	c #F2AE74",
";# 	c #F6B075",
"># 	c #F8AD73",
",# 	c #FBAF73",
"'# 	c #FDB073",
")# 	c #FDAF72",
"!# 	c #FEB071",
"~# 	c #FFB172",
"{# 	c #FEB171",
"]# 	c #FEB172",
"^# 	c #FCB172",
"/# 	c #F9B173",
"(# 	c #FAB170",
"_# 	c #FDB273",
":# 	c #F9B172",
"<# 	c #FFAF70",
"[# 	c #FEB06F",
"}# 	c #FEB070",
"|# 	c #FDB071",
"1# 	c #FCAF70",
"2# 	c #FEAE70",
"3# 	c #FDAD70",
"4# 	c #FCAC6E",
"5# 	c #FDAD6E",
"6# 	c #FDAA6C",
"7# 	c #FEA96B",
"8# 	c #FEA76A",
"9# 	c #FDA66A",
"0# 	c #FBA66A",
"a# 	c #FEA369",
"b# 	c #FAA369",
"c# 	c #F5A266",
"d# 	c #FD9F68",
"e# 	c #FE9C6A",
"f# 	c #FD9967",
"g# 	c #FD9867",
"h# 	c #FD9666",
"i# 	c #FD9565",
"j# 	c #FE9163",
"k# 	c #FE9062",
"l# 	c #FE8E62",
"m# 	c #FE8A61",
"n# 	c #FD8960",
"o# 	c #FB8560",
"p# 	c #FA8360",
"q# 	c #F9815E",
"r# 	c #FD7F60",
"s# 	c #FC7C5E",
"t# 	c #F7765A",
"u# 	c #F1735A",
"v# 	c #E87058",
"w# 	c #E16F58",
"x# 	c #DA6D58",
"y# 	c #D16A55",
"z# 	c #C86652",
"A# 	c #C06350",
"B# 	c #B7604F",
"C# 	c #AF5D50",
"D# 	c #AA5C51",
"E# 	c #A25750",
"F# 	c #92514D",
"G# 	c #8D4F4E",
"H# 	c #864D4D",
"I# 	c #7D4A4C",
"J# 	c #75474A",
"K# 	c #6E4348",
"L# 	c #684248",
"M# 	c #624249",
"N# 	c #5B3C44",
"O# 	c #543943",
"P# 	c #4C3742",
"Q# 	c #453540",
"R# 	c #3F3340",
"S# 	c #39323F",
"T# 	c #33303D",
"U# 	c #2D2C3B",
"V# 	c #26293A",
"W# 	c #07333D",
"X# 	c #11383F",
"Y# 	c #1D3E43",
"Z# 	c #274246",
"`# 	c #304748",
" $ 	c #394B4A",
".$ 	c #434E4C",
"+$ 	c #4D544E",
"@$ 	c #5C5D52",
"#$ 	c #656254",
"$$ 	c #6A6453",
"%$ 	c #877D6D",
"&$ 	c #796A56",
"*$ 	c #826F59",
"=$ 	c #89745B",
"-$ 	c #8F765B",
";$ 	c #95785C",
">$ 	c #9B7C5F",
",$ 	c #A0805F",
"'$ 	c #A58361",
")$ 	c #A98562",
"!$ 	c #B18965",
"~$ 	c #B58A65",
"{$ 	c #B98E65",
"]$ 	c #BD9066",
"^$ 	c #C19268",
"/$ 	c #C19468",
"($ 	c #C59669",
"_$ 	c #D09E70",
":$ 	c #D09C6D",
"<$ 	c #D29C6C",
"[$ 	c #D59D6B",
"}$ 	c #D99F6D",
"|$ 	c #DCA26D",
"1$ 	c #DFA36D",
"2$ 	c #E2A46E",
"3$ 	c #E3A66F",
"4$ 	c #E9A671",
"5$ 	c #EDA872",
"6$ 	c #EDB37B",
"7$ 	c #EEB178",
"8$ 	c #F4AB72",
"9$ 	c #F6AA70",
"0$ 	c #F7AB70",
"a$ 	c #FAAC71",
"b$ 	c #FDAF71",
"c$ 	c #F8AE72",
"d$ 	c #FAB67A",
"e$ 	c #F9AF73",
"f$ 	c #FFAC74",
"g$ 	c #FEAC71",
"h$ 	c #FCAD6E",
"i$ 	c #FEAA71",
"j$ 	c #FCAB71",
"k$ 	c #FCAA70",
"l$ 	c #FCA96F",
"m$ 	c #FDA86F",
"n$ 	c #FCA86D",
"o$ 	c #FEA56C",
"p$ 	c #FFA46B",
"q$ 	c #FEA26A",
"r$ 	c #FEA16B",
"s$ 	c #FCA16A",
"t$ 	c #FE9F6B",
"u$ 	c #F59F6A",
"v$ 	c #F8B27E",
"w$ 	c #FA9969",
"x$ 	c #FF9768",
"y$ 	c #FE9566",
"z$ 	c #FD9465",
"A$ 	c #FB9163",
"B$ 	c #FD8C61",
"C$ 	c #FD8A61",
"D$ 	c #FE8861",
"E$ 	c #FB845E",
"F$ 	c #FC835F",
"G$ 	c #FE8160",
"H$ 	c #FC7F60",
"I$ 	c #F97D5F",
"J$ 	c #F6795C",
"K$ 	c #F17559",
"L$ 	c #EC7358",
"M$ 	c #E57059",
"N$ 	c #DB6E57",
"O$ 	c #D46B57",
"P$ 	c #CE6857",
"Q$ 	c #C56654",
"R$ 	c #BC6351",
"S$ 	c #B76050",
"T$ 	c #A75A50",
"U$ 	c #A15850",
"V$ 	c #99554F",
"W$ 	c #91524D",
"X$ 	c #8A4F4C",
"Y$ 	c #854C4C",
"Z$ 	c #7E4A4C",
"`$ 	c #7D4E52",
" % 	c #72474C",
".% 	c #6A4148",
"+% 	c #644047",
"@% 	c #5C3D45",
"#% 	c #583C45",
"$% 	c #503743",
"%% 	c #423440",
"&% 	c #3C313F",
"*% 	c #35303F",
"=% 	c #302E3C",
"-% 	c #2A2A3A",
";% 	c #242639",
">% 	c #08323D",
",% 	c #12373F",
"'% 	c #264246",
")% 	c #3A4A4A",
"!% 	c #434F4B",
"~% 	c #4C544D",
"{% 	c #535650",
"]% 	c #5B5B52",
"^% 	c #646154",
"/% 	c #6F6655",
"(% 	c #786B58",
"_% 	c #7E6E58",
":% 	c #86735C",
"<% 	c #8B7459",
"[% 	c #91775B",
"}% 	c #9A7E62",
"|% 	c #9C7E5F",
"1% 	c #A38363",
"2% 	c #A58362",
"3% 	c #AA8563",
"4% 	c #B6906A",
"5% 	c #B38B63",
"6% 	c #B78E65",
"7% 	c #BA9067",
"8% 	c #BB9168",
"9% 	c #CBA47A",
"0% 	c #C3966A",
"a% 	c #C8986B",
"b% 	c #CD996C",
"c% 	c #CF9B6B",
"d% 	c #D29D6C",
"e% 	c #D6A06E",
"f% 	c #D8A06D",
"g% 	c #D9A16E",
"h% 	c #DBA270",
"i% 	c #DFA370",
"j% 	c #E3A570",
"k% 	c #E6A76F",
"l% 	c #EDA76F",
"m% 	c #EFA76F",
"n% 	c #F9AA6E",
"o% 	c #FBAB6F",
"p% 	c #FCAB70",
"q% 	c #FDAA71",
"r% 	c #FCA970",
"s% 	c #F9AA71",
"t% 	c #FCA871",
"u% 	c #FDA96F",
"v% 	c #FBA86D",
"w% 	c #FBAA6E",
"x% 	c #FEA96E",
"y% 	c #FEA86E",
"z% 	c #FEA76D",
"A% 	c #FCA56B",
"B% 	c #FDA56B",
"C% 	c #FDA56C",
"D% 	c #FCA36D",
"E% 	c #FCA26C",
"F% 	c #FDA06C",
"G% 	c #FD9D6B",
"H% 	c #FE9C69",
"I% 	c #FE9A68",
"J% 	c #F99867",
"K% 	c #F79867",
"L% 	c #FB9567",
"M% 	c #FD9166",
"N% 	c #FD9265",
"O% 	c #FD8F63",
"P% 	c #FB8D61",
"Q% 	c #FB8F63",
"R% 	c #FA8962",
"S% 	c #FD8662",
"T% 	c #F88460",
"U% 	c #F79F7A",
"V% 	c #F38160",
"W% 	c #F97C5D",
"X% 	c #F67B5D",
"Y% 	c #EF795D",
"Z% 	c #E8765D",
"`% 	c #E2755E",
" & 	c #E17660",
".& 	c #D86D57",
"+& 	c #CF6A57",
"@& 	c #CA6957",
"#& 	c #C16454",
"$& 	c #B96153",
"%& 	c #B96357",
"&& 	c #AE5C50",
"*& 	c #A75B50",
"=& 	c #9F5850",
"-& 	c #98554D",
";& 	c #92534F",
">& 	c #8B504D",
",& 	c #844D4C",
"'& 	c #7E4A4B",
")& 	c #79494B",
"!& 	c #74494C",
"~& 	c #6A4348",
"{& 	c #664148",
"]& 	c #5F3E46",
"^& 	c #593C45",
"/& 	c #523842",
"(& 	c #4D3642",
"_& 	c #473440",
":& 	c #3F323D",
"<& 	c #39313E",
"[& 	c #312F3B",
"}& 	c #272A3B",
"|& 	c #212638",
"1& 	c #09323D",
"2& 	c #13373F",
"3& 	c #1D3D43",
"4& 	c #244145",
"5& 	c #2F4648",
"6& 	c #394949",
"7& 	c #424E4B",
"8& 	c #4B534D",
"9& 	c #52554F",
"0& 	c #5A5A51",
"a& 	c #625F52",
"b& 	c #696353",
"c& 	c #6E6654",
"d& 	c #756A57",
"e& 	c #7D6D58",
"f& 	c #83715A",
"g& 	c #89755C",
"h& 	c #8E785D",
"i& 	c #A38B6F",
"j& 	c #957A5C",
"k& 	c #9E8060",
"l& 	c #A38160",
"m& 	c #A78562",
"n& 	c #A78560",
"o& 	c #AD8A64",
"p& 	c #B48F68",
"q& 	c #B48E67",
"r& 	c #B69067",
"s& 	c #C5A27A",
"t& 	c #BE946A",
"u& 	c #C2956A",
"v& 	c #C5976B",
"w& 	c #C79768",
"x& 	c #C99969",
"y& 	c #CC9B6B",
"z& 	c #CF9D6D",
"A& 	c #D09D6C",
"B& 	c #D8AC7F",
"C& 	c #D3A373",
"D& 	c #D8A371",
"E& 	c #DCA26E",
"F& 	c #E0A26E",
"G& 	c #E2A26E",
"H& 	c #E3A46E",
"I& 	c #E5A46F",
"J& 	c #E8A56E",
"K& 	c #ECA66F",
"L& 	c #EEA66F",
"M& 	c #F0A66F",
"N& 	c #F5A671",
"O& 	c #F8A66F",
"P& 	c #FAA670",
"Q& 	c #F8A972",
"R& 	c #FBAC76",
"S& 	c #FBA46F",
"T& 	c #FDA36E",
"U& 	c #FEA46E",
"V& 	c #FFA46E",
"W& 	c #FDA36D",
"X& 	c #FEA26C",
"Y& 	c #FDA16C",
"Z& 	c #FEA06B",
"`& 	c #FC9D69",
" * 	c #FC9C69",
".* 	c #FD9B69",
"+* 	c #FE9A69",
"@* 	c #FE9869",
"#* 	c #FF9868",
"$* 	c #FE9766",
"%* 	c #FD9566",
"&* 	c #FC9365",
"** 	c #FB9064",
"=* 	c #FE8E64",
"-* 	c #FE8D63",
";* 	c #FF8B63",
">* 	c #FC8560",
",* 	c #FD8361",
"'* 	c #FA8260",
")* 	c #F88061",
"!* 	c #EF7F5F",
"~* 	c #EF7A5E",
"{* 	c #EE785B",
"]* 	c #E8765B",
"^* 	c #E2735B",
"/* 	c #DA7059",
"(* 	c #D4705B",
"_* 	c #D3705C",
":* 	c #CC6A55",
"<* 	c #C46755",
"[* 	c #BE6553",
"}* 	c #B96454",
"|* 	c #BB6B5E",
"1* 	c #AB5B52",
"2* 	c #A75A52",
"3* 	c #9E5850",
"4* 	c #97564F",
"5* 	c #91534D",
"6* 	c #8C524F",
"7* 	c #864E4D",
"8* 	c #804C4B",
"9* 	c #7A494B",
"0* 	c #734548",
"a* 	c #6C4246",
"b* 	c #684348",
"c* 	c #613F45",
"d* 	c #493441",
"e* 	c #453441",
"f* 	c #3E313F",
"g* 	c #37313E",
"h* 	c #302E3B",
"i* 	c #2A2B3C",
"j* 	c #26293C",
"k* 	c #202639",
"l* 	c #1C3D42",
"m* 	c #244044",
"n* 	c #2E4547",
"o* 	c #384847",
"p* 	c #414E4A",
"q* 	c #49534C",
"r* 	c #51544E",
"s* 	c #595951",
"t* 	c #605F52",
"u* 	c #666352",
"v* 	c #6C6654",
"w* 	c #736A57",
"x* 	c #7A6C58",
"y* 	c #7F6F59",
"z* 	c #84725A",
"A* 	c #89755B",
"B* 	c #90795D",
"C* 	c #947A5D",
"D* 	c #9C8062",
"E* 	c #A58563",
"F* 	c #A3825F",
"G* 	c #A18462",
"H* 	c #C5AC8B",
"I* 	c #AB8A65",
"J* 	c #AE8C65",
"K* 	c #B08D66",
"L* 	c #B59068",
"M* 	c #B79067",
"N* 	c #BB9268",
"O* 	c #BE9369",
"P* 	c #C19568",
"Q* 	c #C29769",
"R* 	c #C59869",
"S* 	c #C69A6A",
"T* 	c #C99B6B",
"U* 	c #CFA97E",
"V* 	c #CBA174",
"W* 	c #E1BA8C",
"X* 	c #D39F6F",
"Y* 	c #D69F6F",
"Z* 	c #D89F6F",
"`* 	c #D9A06C",
" = 	c #DBA16D",
".= 	c #DDA16C",
"+= 	c #DFA16C",
"@= 	c #E0A26D",
"#= 	c #E3A774",
"$= 	c #EAAE7C",
"%= 	c #EAA470",
"&= 	c #ECA16D",
"*= 	c #F0A16D",
"== 	c #F1A36F",
"-= 	c #F8A672",
";= 	c #F7A06C",
">= 	c #FAA06C",
",= 	c #FBA06C",
"'= 	c #FB9F6C",
")= 	c #FC9E6B",
"!= 	c #FDA06E",
"~= 	c #FC9B69",
"{= 	c #FC9B6A",
"]= 	c #FE9968",
"^= 	c #FE9769",
"/= 	c #FF9568",
"(= 	c #FF9369",
"_= 	c #FF9368",
":= 	c #FE9266",
"<= 	c #FE9166",
"[= 	c #FD8E65",
"}= 	c #FD8D65",
"|= 	c #FF8A62",
"1= 	c #FD8862",
"2= 	c #FD8562",
"3= 	c #F98462",
"4= 	c #F78262",
"5= 	c #F67D5F",
"6= 	c #EF7E5D",
"7= 	c #EE7B5D",
"8= 	c #EC785D",
"9= 	c #E6765B",
"0= 	c #E0755B",
"a= 	c #D9735C",
"b= 	c #D4705A",
"c= 	c #D06F58",
"d= 	c #C96B56",
"e= 	c #C56855",
"f= 	c #BF6654",
"g= 	c #B86453",
"h= 	c #B46354",
"i= 	c #AD5E50",
"j= 	c #A85D52",
"k= 	c #A35952",
"l= 	c #9D574F",
"m= 	c #8F534E",
"n= 	c #8A524E",
"o= 	c #844F4D",
"p= 	c #7E4B4A",
"q= 	c #7A4A4B",
"r= 	c #734649",
"s= 	c #6D4347",
"t= 	c #674146",
"u= 	c #614045",
"v= 	c #5C3D43",
"w= 	c #563B43",
"x= 	c #523A45",
"y= 	c #56414C",
"z= 	c #463343",
"A= 	c #413242",
"B= 	c #392F3F",
"C= 	c #352F3F",
"D= 	c #302E3D",
"E= 	c #292B3D",
"F= 	c #24293B",
"G= 	c #1F2538",
"H= 	c #09313D",
"I= 	c #13363F",
"J= 	c #214046",
"K= 	c #2F4A4E",
"L= 	c #2F4547",
"M= 	c #405150",
"N= 	c #404E49",
"O= 	c #48534B",
"P= 	c #50554E",
"Q= 	c #57594F",
"R= 	c #5D5D50",
"S= 	c #636152",
"T= 	c #696554",
"U= 	c #706856",
"V= 	c #766A56",
"W= 	c #7B6D58",
"X= 	c #81715A",
"Y= 	c #84745B",
"Z= 	c #89765B",
"`= 	c #907A5D",
" - 	c #91795A",
".- 	c #B39A79",
"+- 	c #987E5D",
"@- 	c #B39A7C",
"#- 	c #9E8564",
"$- 	c #A58864",
"%- 	c #A78964",
"&- 	c #AB8C66",
"*- 	c #AE8D67",
"=- 	c #B18F67",
"-- 	c #B49167",
";- 	c #B69268",
">- 	c #BA9268",
",- 	c #BD9569",
"'- 	c #C0976B",
")- 	c #C1986B",
"!- 	c #C3996C",
"~- 	c #C4996D",
"{- 	c #C6996E",
"]- 	c #C89C6E",
"^- 	c #CB9D6D",
"/- 	c #CC9E6E",
"(- 	c #CE9E6E",
"_- 	c #D09E6D",
":- 	c #D29E6D",
"<- 	c #D49F6D",
"[- 	c #D69F6E",
"}- 	c #D8A06E",
"|- 	c #D8A06F",
"1- 	c #DCA16F",
"2- 	c #E1A16E",
"3- 	c #E59F6D",
"4- 	c #EAA16F",
"5- 	c #F0A271",
"6- 	c #F2A574",
"7- 	c #F1A472",
"8- 	c #F2A06E",
"9- 	c #F19D6A",
"0- 	c #EF9C69",
"a- 	c #F29A69",
"b- 	c #F59A6A",
"c- 	c #F69A6A",
"d- 	c #F7986A",
"e- 	c #F79768",
"f- 	c #F99669",
"g- 	c #F99569",
"h- 	c #FA9369",
"i- 	c #FA9269",
"j- 	c #FA9069",
"k- 	c #FA8F66",
"l- 	c #FA8D65",
"m- 	c #FA8C65",
"n- 	c #FA8B65",
"o- 	c #F98964",
"p- 	c #F78762",
"q- 	c #F78560",
"r- 	c #F28460",
"s- 	c #EF8262",
"t- 	c #F39F81",
"u- 	c #EB9375",
"v- 	c #E37B5D",
"w- 	c #E2785C",
"x- 	c #DE785B",
"y- 	c #DA755B",
"z- 	c #D77359",
"A- 	c #D1715B",
"B- 	c #CC6F5C",
"C- 	c #C86D5A",
"D- 	c #C36A56",
"E- 	c #BD6753",
"F- 	c #BB6555",
"G- 	c #B46355",
"H- 	c #AF6156",
"I- 	c #AA5F54",
"J- 	c #A55C52",
"K- 	c #9F5951",
"L- 	c #99574E",
"M- 	c #95544D",
"N- 	c #89514E",
"O- 	c #834F4C",
"P- 	c #7D4C4C",
"Q- 	c #784A4B",
"R- 	c #73474A",
"S- 	c #6C4449",
"T- 	c #78565B",
"U- 	c #74545A",
"V- 	c #5D3F45",
"W- 	c #583D45",
"X- 	c #513A43",
"Y- 	c #4E3945",
"Z- 	c #483642",
"`- 	c #423344",
" ; 	c #3E3142",
".; 	c #4D4454",
"+; 	c #312D3F",
"@; 	c #2C2B3D",
"#; 	c #27293C",
"$; 	c #22273B",
"%; 	c #1D2538",
"&; 	c #062F3A",
"*; 	c #1E3D42",
"=; 	c #284448",
"-; 	c #2D4345",
";; 	c #354645",
">; 	c #3E4C48",
",; 	c #455049",
"'; 	c #4F554D",
"); 	c #56584E",
"!; 	c #5B5C4F",
"~; 	c #606051",
"{; 	c #676453",
"]; 	c #6D6754",
"^; 	c #736956",
"/; 	c #786C58",
"(; 	c #7E705A",
"_; 	c #82735A",
":; 	c #86755B",
"<; 	c #8A775A",
"[; 	c #8F795B",
"}; 	c #D0C3A6",
"|; 	c #8D7C5C",
"1; 	c #9F8768",
"2; 	c #9D8361",
"3; 	c #9F8462",
"4; 	c #A38865",
"5; 	c #A68965",
"6; 	c #A88B65",
"7; 	c #AB8D66",
"8; 	c #AD8F66",
"9; 	c #AF9066",
"0; 	c #B29067",
"a; 	c #B49267",
"b; 	c #B79368",
"c; 	c #B99569",
"d; 	c #BA9669",
"e; 	c #BF976C",
"f; 	c #C1986C",
"g; 	c #C2996B",
"h; 	c #C4996B",
"i; 	c #C59A6C",
"j; 	c #C79A6D",
"k; 	c #C99A6C",
"l; 	c #CB9B6C",
"m; 	c #CD9B6D",
"n; 	c #CF9B6C",
"o; 	c #D29D6B",
"p; 	c #D59D6C",
"q; 	c #D79C6B",
"r; 	c #DD9E6D",
"s; 	c #E6A474",
"t; 	c #ECA577",
"u; 	c #EDA87A",
"v; 	c #F2B283",
"w; 	c #ECA072",
"x; 	c #E99B6C",
"y; 	c #E59869",
"z; 	c #E69668",
"A; 	c #E99669",
"B; 	c #EB9569",
"C; 	c #EC9368",
"D; 	c #EC9167",
"E; 	c #ED9267",
"F; 	c #ED9167",
"G; 	c #EE8F66",
"H; 	c #EE8D67",
"I; 	c #EE8C66",
"J; 	c #EE8A64",
"K; 	c #ED8963",
"L; 	c #ED8764",
"M; 	c #EC8563",
"N; 	c #EB8362",
"O; 	c #EA8261",
"P; 	c #E98060",
"Q; 	c #E58060",
"R; 	c #E27D62",
"S; 	c #DC7E63",
"T; 	c #D87B60",
"U; 	c #D6785D",
"V; 	c #D8745C",
"W; 	c #D2745B",
"X; 	c #CE715A",
"Y; 	c #CA6F59",
"Z; 	c #C36E58",
"`; 	c #C06B59",
" > 	c #BB6958",
".> 	c #B66755",
"+> 	c #B26656",
"@> 	c #AE6355",
"#> 	c #A96055",
"$> 	c #A45E55",
"%> 	c #A05D53",
"&> 	c #9D5A51",
"*> 	c #965751",
"=> 	c #90554E",
"-> 	c #8C534D",
";> 	c #87524D",
">> 	c #82504E",
",> 	c #7D4D4C",
"'> 	c #774A4B",
")> 	c #724749",
"!> 	c #6C4547",
"~> 	c #674348",
"{> 	c #624248",
"]> 	c #5E4047",
"^> 	c #583D44",
"/> 	c #523A43",
"(> 	c #4F3B45",
"_> 	c #594853",
":> 	c #443542",
"<> 	c #403343",
"[> 	c #3C3141",
"}> 	c #342D3E",
"|> 	c #302C3E",
"1> 	c #2B2A3C",
"2> 	c #25283B",
"3> 	c #20273A",
"4> 	c #1C2437",
"5> 	c #0A313C",
"6> 	c #12353D",
"7> 	c #1C3B41",
"8> 	c #243F44",
"9> 	c #2E4445",
"0> 	c #354746",
"a> 	c #3E4C49",
"b> 	c #445049",
"c> 	c #4D534C",
"d> 	c #54574E",
"e> 	c #595B4E",
"f> 	c #5E5E50",
"g> 	c #656253",
"h> 	c #6B6554",
"i> 	c #716855",
"j> 	c #7B6F59",
"k> 	c #7E7058",
"l> 	c #88795F",
"m> 	c #A4947B",
"n> 	c #BBAF99",
"o> 	c #E7E1CC",
"p> 	c #BCB59D",
"q> 	c #B8A484",
"r> 	c #A38A67",
"s> 	c #9C8462",
"t> 	c #9D8765",
"u> 	c #A08765",
"v> 	c #A38965",
"w> 	c #A48A65",
"x> 	c #A68C64",
"y> 	c #A88E66",
"z> 	c #AB8F66",
"A> 	c #AC8F66",
"B> 	c #AE9067",
"C> 	c #B19368",
"D> 	c #B39369",
"E> 	c #B5946A",
"F> 	c #B79569",
"G> 	c #B9966A",
"H> 	c #BD966B",
"I> 	c #BF966C",
"J> 	c #C0976C",
"K> 	c #C1976B",
"L> 	c #C4976C",
"M> 	c #C5976A",
"N> 	c #C7976A",
"O> 	c #C9986A",
"P> 	c #CB9969",
"Q> 	c #CB9868",
"R> 	c #D09B6C",
"S> 	c #D69E70",
"T> 	c #DEA477",
"U> 	c #E2A97B",
"V> 	c #E2B88E",
"W> 	c #F2D2AB",
"X> 	c #E5AC84",
"Y> 	c #E09C72",
"Z> 	c #DA956B",
"`> 	c #DC936A",
" , 	c #DB9269",
"., 	c #E0926B",
"+, 	c #E19069",
"@, 	c #E28E68",
"#, 	c #E18E66",
"$, 	c #E18D65",
"%, 	c #E18B65",
"&, 	c #E18A65",
"*, 	c #E08864",
"=, 	c #E08664",
"-, 	c #E08564",
";, 	c #E18363",
">, 	c #DF8363",
",, 	c #DE8062",
"', 	c #DC7E61",
"), 	c #DC7C60",
"!, 	c #D97A5F",
"~, 	c #D8785F",
"{, 	c #D4775E",
"], 	c #D2765D",
"^, 	c #CA745B",
"/, 	c #C9715A",
"(, 	c #C4725B",
"_, 	c #C26D5A",
":, 	c #BE6B5A",
"<, 	c #B86B57",
"[, 	c #B66958",
"}, 	c #AE6555",
"|, 	c #AA6354",
"1, 	c #A76355",
"2, 	c #A36054",
"3, 	c #9F5D54",
"4, 	c #9A5B52",
"5, 	c #975A51",
"6, 	c #935750",
"7, 	c #8E554F",
"8, 	c #89544F",
"9, 	c #83514E",
"0, 	c #804F4E",
"a, 	c #7B4D4E",
"b, 	c #754A4C",
"c, 	c #71474A",
"d, 	c #6C4548",
"e, 	c #634248",
"f, 	c #593D44",
"g, 	c #675057",
"h, 	c #4F3942",
"i, 	c #4C3A44",
"j, 	c #443540",
"k, 	c #423441",
"l, 	c #3D3241",
"m, 	c #38303F",
"n, 	c #332E3E",
"o, 	c #2E2C3D",
"p, 	c #2A2A3D",
"q, 	c #24283B",
"r, 	c #1F273A",
"s, 	c #1A2437",
"t, 	c #0B2F3C",
"u, 	c #13353E",
"v, 	c #1C3A40",
"w, 	c #243E43",
"x, 	c #2E4345",
"y, 	c #364847",
"z, 	c #3C4A49",
"A, 	c #434F4A",
"B, 	c #4B534B",
"C, 	c #52554D",
"D, 	c #585A4E",
"E, 	c #5E5D50",
"F, 	c #646153",
"G, 	c #696454",
"H, 	c #6E6754",
"I, 	c #736957",
"J, 	c #7A6F55",
"K, 	c #807358",
"L, 	c #8A7C63",
"M, 	c #948572",
"N, 	c #E1DCCA",
"O, 	c #938B73",
"P, 	c #988666",
"Q, 	c #958161",
"R, 	c #968363",
"S, 	c #958362",
"T, 	c #9A8565",
"U, 	c #9D8766",
"V, 	c #9F8865",
"W, 	c #A18A65",
"X, 	c #A38C65",
"Y, 	c #A48C66",
"Z, 	c #A58D66",
"`, 	c #A68E65",
" ' 	c #A98F67",
".' 	c #AA9067",
"+' 	c #AE9269",
"@' 	c #B1936A",
"#' 	c #B2936A",
"$' 	c #B4946A",
"%' 	c #B5956A",
"&' 	c #B6956A",
"*' 	c #B79469",
"=' 	c #BA9469",
"-' 	c #BC9569",
";' 	c #BE956A",
">' 	c #C0966A",
",' 	c #C1966B",
"'' 	c #C39469",
")' 	c #CD9C70",
"!' 	c #D5A277",
"~' 	c #DBA97B",
"{' 	c #DBB791",
"]' 	c #EDD1AF",
"^' 	c #DEAD88",
"/' 	c #DE9F77",
"(' 	c #D3946F",
"_' 	c #CE8F67",
":' 	c #DBA37C",
"<' 	c #CE8D66",
"[' 	c #D38C67",
"}' 	c #D48A66",
"|' 	c #D68A65",
"1' 	c #D68964",
"2' 	c #D58864",
"3' 	c #D58664",
"4' 	c #D38462",
"5' 	c #D48262",
"6' 	c #D68062",
"7' 	c #D57F62",
"8' 	c #D27E62",
"9' 	c #D17D61",
"0' 	c #D07A5F",
"a' 	c #CE785F",
"b' 	c #CB765E",
"c' 	c #CB765F",
"d' 	c #CC7863",
"e' 	c #CB7863",
"f' 	c #CE8473",
"g' 	c #BF6E5E",
"h' 	c #B86B59",
"i' 	c #B66B5A",
"j' 	c #B4695B",
"k' 	c #AF6859",
"l' 	c #A86455",
"m' 	c #C18174",
"n' 	c #A15F53",
"o' 	c #9E5F53",
"p' 	c #9B5D53",
"q' 	c #975B51",
"r' 	c #935950",
"s' 	c #905750",
"t' 	c #8C554F",
"u' 	c #875956",
"v' 	c #7D4F4E",
"w' 	c #7A4E4E",
"x' 	c #744A4C",
"y' 	c #704749",
"z' 	c #6C4649",
"A' 	c #684449",
"B' 	c #5A3E45",
"C' 	c #553C43",
"D' 	c #4F3A41",
"E' 	c #4D3944",
"F' 	c #473641",
"G' 	c #433540",
"H' 	c #403342",
"I' 	c #393240",
"J' 	c #342F3E",
"K' 	c #2F2C3D",
"L' 	c #2E2F41",
"M' 	c #25273C",
"N' 	c #22263B",
"O' 	c #1D263A",
"P' 	c #182437",
"Q' 	c #0A2E3B",
"R' 	c #12343D",
"S' 	c #1B393F",
"T' 	c #233D42",
"U' 	c #2D4244",
"V' 	c #3B4948",
"W' 	c #424E49",
"X' 	c #49524A",
"Y' 	c #4F554C",
"Z' 	c #56594D",
"`' 	c #5B5B4F",
" ) 	c #616052",
".) 	c #676353",
"+) 	c #6C6553",
"@) 	c #706855",
"#) 	c #746A56",
"$) 	c #776D58",
"%) 	c #7D715B",
"&) 	c #7E735B",
"*) 	c #7F7359",
"=) 	c #BCB498",
"-) 	c #847858",
";) 	c #8A7B5E",
">) 	c #AC9C83",
",) 	c #918063",
"') 	c #948262",
")) 	c #948363",
"!) 	c #968464",
"~) 	c #988664",
"{) 	c #9A8764",
"]) 	c #9C8965",
"^) 	c #9F8B66",
"/) 	c #A08B66",
"() 	c #A18C65",
"_) 	c #A48E66",
":) 	c #A58F66",
"<) 	c #A89068",
"[) 	c #AA9069",
"}) 	c #AB9168",
"|) 	c #AC9168",
"1) 	c #AD9168",
"2) 	c #AF9168",
"3) 	c #B09269",
"4) 	c #B39269",
"5) 	c #B49269",
"6) 	c #B79268",
"7) 	c #B8926B",
"8) 	c #BC956D",
"9) 	c #C29C75",
"0) 	c #C2966E",
"a) 	c #C99D74",
"b) 	c #D1A078",
"c) 	c #D09E77",
"d) 	c #E0AD85",
"e) 	c #D39B71",
"f) 	c #CC936A",
"g) 	c #C58D67",
"h) 	c #C78E6A",
"i) 	c #C38B67",
"j) 	c #C78B67",
"k) 	c #C98866",
"l) 	c #C98765",
"m) 	c #CC8563",
"n) 	c #CB8462",
"o) 	c #CB8362",
"p) 	c #CB8262",
"q) 	c #C98061",
"r) 	c #C97F60",
"s) 	c #CA7D60",
"t) 	c #C97C60",
"u) 	c #C5795E",
"v) 	c #C5775E",
"w) 	c #C2765D",
"x) 	c #BF745C",
"y) 	c #C07561",
"z) 	c #C57B6A",
"A) 	c #D09182",
"B) 	c #E2BEB2",
"C) 	c #BF8277",
"D) 	c #AD6958",
"E) 	c #AB6857",
"F) 	c #A96558",
"G) 	c #A46356",
"H) 	c #A36357",
"I) 	c #9F6155",
"J) 	c #9A5D54",
"K) 	c #965C52",
"L) 	c #935951",
"M) 	c #8F5850",
"N) 	c #8B554F",
"O) 	c #88534F",
"P) 	c #84524E",
"Q) 	c #80504D",
"R) 	c #7A4F4E",
"S) 	c #774C4D",
"T) 	c #72494B",
"U) 	c #70484C",
"V) 	c #6B4549",
"W) 	c #674449",
"X) 	c #5F4046",
"Y) 	c #563C44",
"Z) 	c #523B43",
"`) 	c #4E3A44",
" ! 	c #4A3745",
".! 	c #443442",
"+! 	c #403341",
"@! 	c #3B2F41",
"#! 	c #363041",
"$! 	c #312D40",
"%! 	c #2D2B3F",
"&! 	c #3B3C4F",
"*! 	c #24273E",
"=! 	c #20253B",
"-! 	c #1B2539",
";! 	c #162336",
">! 	c #1B383F",
",! 	c #233C42",
"'! 	c #2C4144",
")! 	c #334645",
"!! 	c #3A4A48",
"~! 	c #404E48",
"{! 	c #55584D",
"]! 	c #5A5B4F",
"^! 	c #5E5E51",
"/! 	c #646152",
"(! 	c #6E6957",
"_! 	c #6F6855",
":! 	c #716A56",
"<! 	c #756D5B",
"[! 	c #776D5B",
"}! 	c #7B725C",
"|! 	c #81775C",
"1! 	c #93876B",
"2! 	c #85775B",
"3! 	c #867A5E",
"4! 	c #887E60",
"5! 	c #8B7F5F",
"6! 	c #8E8061",
"7! 	c #8E8262",
"8! 	c #908363",
"9! 	c #928464",
"0! 	c #948564",
"a! 	c #958665",
"b! 	c #978764",
"c! 	c #988865",
"d! 	c #9B8A66",
"e! 	c #9D8B66",
"f! 	c #9E8C67",
"g! 	c #A08C67",
"h! 	c #A28D67",
"i! 	c #A38E67",
"j! 	c #A48E67",
"k! 	c #A58F67",
"l! 	c #A68F68",
"m! 	c #A78E68",
"n! 	c #A98F69",
"o! 	c #AB8F68",
"p! 	c #AD8F68",
"q! 	c #AF8F69",
"r! 	c #AF8E68",
"s! 	c #B18E68",
"t! 	c #B5916B",
"u! 	c #B8916B",
"v! 	c #BE966F",
"w! 	c #C29A75",
"x! 	c #C69B74",
"y! 	c #C59970",
"z! 	c #C39470",
"A! 	c #BE8E6B",
"B! 	c #BD8B67",
"C! 	c #BB8965",
"D! 	c #BC8966",
"E! 	c #BD8664",
"F! 	c #C08565",
"G! 	c #BF8464",
"H! 	c #C18363",
"I! 	c #BF8061",
"J! 	c #C88B6E",
"K! 	c #BF7F62",
"L! 	c #BE7D61",
"M! 	c #BD7C61",
"N! 	c #BD7A60",
"O! 	c #BB785E",
"P! 	c #C98D75",
"Q! 	c #BB7A62",
"R! 	c #B8745C",
"S! 	c #B6735A",
"T! 	c #B3715B",
"U! 	c #B57361",
"V! 	c #B87666",
"W! 	c #B07264",
"X! 	c #C99A90",
"Y! 	c #A96B61",
"Z! 	c #A36657",
"`! 	c #9F6556",
" ~ 	c #A06258",
".~ 	c #9D6157",
"+~ 	c #975E54",
"@~ 	c #945C53",
"#~ 	c #915B53",
"$~ 	c #8E5953",
"%~ 	c #8A5752",
"&~ 	c #865651",
"*~ 	c #835450",
"=~ 	c #7F514F",
"-~ 	c #7B4F4E",
";~ 	c #774D4D",
">~ 	c #734C4E",
",~ 	c #704A4C",
"'~ 	c #6C484C",
")~ 	c #69484D",
"!~ 	c #654349",
"~~ 	c #624348",
"{~ 	c #5E4046",
"]~ 	c #593E45",
"^~ 	c #553D45",
"/~ 	c #513C44",
"(~ 	c #4E3B44",
"_~ 	c #483743",
":~ 	c #453444",
"<~ 	c #3E3444",
"[~ 	c #746E7A",
"}~ 	c #4D4958",
"|~ 	c #2E2C3F",
"1~ 	c #2A2A3E",
"2~ 	c #272A3E",
"3~ 	c #22283C",
"4~ 	c #1E243B",
"5~ 	c #1A243A",
"6~ 	c #152337",
"7~ 	c #12333D",
"8~ 	c #1A383E",
"9~ 	c #223C41",
"0~ 	c #2B4143",
"a~ 	c #324644",
"b~ 	c #394947",
"c~ 	c #404D48",
"d~ 	c #465148",
"e~ 	c #4C554B",
"f~ 	c #52574C",
"g~ 	c #575A4F",
"h~ 	c #5B5D50",
"i~ 	c #676351",
"j~ 	c #6C6754",
"k~ 	c #6E6A56",
"l~ 	c #868270",
"m~ 	c #736D5A",
"n~ 	c #766F5B",
"o~ 	c #79715B",
"p~ 	c #7E775E",
"q~ 	c #7F765F",
"r~ 	c #81785D",
"s~ 	c #837C5C",
"t~ 	c #857D5E",
"u~ 	c #887E61",
"v~ 	c #888061",
"w~ 	c #898162",
"x~ 	c #8C8264",
"y~ 	c #8E8365",
"z~ 	c #8F8466",
"A~ 	c #918565",
"B~ 	c #928664",
"C~ 	c #948766",
"D~ 	c #968866",
"E~ 	c #978967",
"F~ 	c #988A67",
"G~ 	c #9A8B68",
"H~ 	c #9B8B68",
"I~ 	c #9C8B67",
"J~ 	c #9D8C67",
"K~ 	c #9E8C69",
"L~ 	c #A18C69",
"M~ 	c #A28C68",
"N~ 	c #A38C68",
"O~ 	c #A68C67",
"P~ 	c #A88C68",
"Q~ 	c #A98C67",
"R~ 	c #AB8B67",
"S~ 	c #AB8B65",
"T~ 	c #AE8C67",
"U~ 	c #B5926A",
"V~ 	c #B5936A",
"W~ 	c #B4906A",
"X~ 	c #B38A69",
"Y~ 	c #B28865",
"Z~ 	c #B28763",
"`~ 	c #B58A6A",
" { 	c #BE9577",
".{ 	c #B58264",
"+{ 	c #B68063",
"@{ 	c #B48062",
"#{ 	c #B68062",
"${ 	c #B47D60",
"%{ 	c #BB8469",
"&{ 	c #B37A5F",
"*{ 	c #B27960",
"={ 	c #B37760",
"-{ 	c #B1755F",
";{ 	c #AD735E",
">{ 	c #AD725D",
",{ 	c #AC6F5C",
"'{ 	c #AB6E5A",
"){ 	c #A86C5A",
"!{ 	c #A76C5B",
"~{ 	c #A86D5F",
"{{ 	c #A96F61",
"]{ 	c #A76F62",
"^{ 	c #9C665A",
"/{ 	c #AC7F73",
"({ 	c #976157",
"_{ 	c #975E56",
":{ 	c #925D55",
"<{ 	c #8F5C54",
"[{ 	c #8C5954",
"}{ 	c #885954",
"|{ 	c #855653",
"1{ 	c #815451",
"2{ 	c #7D5351",
"3{ 	c #7B5150",
"4{ 	c #774F50",
"5{ 	c #744D4F",
"6{ 	c #704B4E",
"7{ 	c #6C4A4E",
"8{ 	c #6A484E",
"9{ 	c #715359",
"0{ 	c #7A5E64",
"a{ 	c #60434B",
"b{ 	c #5B3F46",
"c{ 	c #583E45",
"d{ 	c #543D44",
"e{ 	c #503C45",
"f{ 	c #4C3B45",
"g{ 	c #4A3944",
"h{ 	c #453742",
"i{ 	c #423544",
"j{ 	c #403545",
"k{ 	c #393242",
"l{ 	c #352F42",
"m{ 	c #2F2D40",
"n{ 	c #2C2B40",
"o{ 	c #27293D",
"p{ 	c #23283C",
"q{ 	c #21283C",
"r{ 	c #1D253B",
"s{ 	c #18243A",
"t{ 	c #142237",
"u{ 	c #092D3A",
"v{ 	c #11333C",
"w{ 	c #19373D",
"x{ 	c #223B40",
"y{ 	c #2A4042",
"z{ 	c #314543",
"A{ 	c #374947",
"B{ 	c #3D4C47",
"C{ 	c #444F47",
"D{ 	c #4B5349",
"E{ 	c #50564A",
"F{ 	c #55594D",
"G{ 	c #595C4E",
"H{ 	c #5F5F50",
"I{ 	c #656352",
"J{ 	c #676451",
"K{ 	c #6A6853",
"L{ 	c #8D8A77",
"M{ 	c #706D58",
"N{ 	c #716C58",
"O{ 	c #8D8775",
"P{ 	c #75735A",
"Q{ 	c #7A765E",
"R{ 	c #7D7660",
"S{ 	c #7E785D",
"T{ 	c #807A5E",
"U{ 	c #827C61",
"V{ 	c #837D5F",
"W{ 	c #847E60",
"X{ 	c #868062",
"Y{ 	c #888164",
"Z{ 	c #898164",
"`{ 	c #8C8364",
" ] 	c #8C8363",
".] 	c #8D8463",
"+] 	c #8F8564",
"@] 	c #908664",
"#] 	c #918664",
"$] 	c #948765",
"%] 	c #958865",
"&] 	c #968865",
"*] 	c #978965",
"=] 	c #978867",
"-] 	c #998A67",
";] 	c #9B8967",
">] 	c #9C8966",
",] 	c #9E8A67",
"'] 	c #A08968",
")] 	c #A18968",
"!] 	c #A28867",
"~] 	c #A28765",
"{] 	c #B59877",
"]] 	c #A68764",
"^] 	c #A88664",
"/] 	c #A98463",
"(] 	c #A78565",
"_] 	c #B19579",
":] 	c #A58165",
"<] 	c #A98266",
"[] 	c #AC7F65",
"}] 	c #AD7E65",
"|] 	c #AB7E63",
"1] 	c #AB7B60",
"2] 	c #AD7C61",
"3] 	c #AB7960",
"4] 	c #AC7860",
"5] 	c #AB7760",
"6] 	c #AA765F",
"7] 	c #AA735E",
"8] 	c #A9715D",
"9] 	c #A7715D",
"0] 	c #A46D5B",
"a] 	c #A66E5D",
"b] 	c #A26B5C",
"c] 	c #A0695B",
"d] 	c #9D685B",
"e] 	c #9C675A",
"f] 	c #996558",
"g] 	c #986257",
"h] 	c #916057",
"i] 	c #9F736B",
"j] 	c #915D57",
"k] 	c #8C5D52",
"l] 	c #8A5C53",
"m] 	c #885953",
"n] 	c #845652",
"o] 	c #805451",
"p] 	c #7F5654",
"q] 	c #795150",
"r] 	c #765050",
"s] 	c #744E4F",
"t] 	c #714E4F",
"u] 	c #6E4C4F",
"v] 	c #6A494E",
"w] 	c #67484D",
"x] 	c #64454A",
"y] 	c #63454C",
"z] 	c #5D424A",
"A] 	c #5A404A",
"B] 	c #583F46",
"C] 	c #553E45",
"D] 	c #533D46",
"E] 	c #4C3A43",
"F] 	c #483943",
"G] 	c #41353F",
"H] 	c #3F3442",
"I] 	c #3C3442",
"J] 	c #3A3442",
"K] 	c #322E41",
"L] 	c #3A384D",
"M] 	c #2B2B41",
"N] 	c #25283E",
"O] 	c #242940",
"P] 	c #272E44",
"Q] 	c #1A2339",
"R] 	c #162238",
"S] 	c #112135",
"T] 	c #0B2D39",
"U] 	c #12333C",
"V] 	c #1A373E",
"W] 	c #223C40",
"X] 	c #283F41",
"Y] 	c #2F4343",
"Z] 	c #374745",
"`] 	c #3C4B46",
" ^ 	c #434F48",
".^ 	c #48524A",
"+^ 	c #4E564C",
"@^ 	c #51574C",
"#^ 	c #565B4F",
"$^ 	c #5B5E51",
"%^ 	c #606153",
"&^ 	c #626353",
"*^ 	c #656553",
"=^ 	c #696956",
"-^ 	c #6B6A57",
";^ 	c #7F7F6C",
">^ 	c #858571",
",^ 	c #73725C",
"'^ 	c #898771",
")^ 	c #77745D",
"!^ 	c #7A775E",
"~^ 	c #7A785E",
"{^ 	c #7C795F",
"]^ 	c #7F7A60",
"^^ 	c #817C61",
"/^ 	c #827D61",
"(^ 	c #837E61",
"_^ 	c #847F62",
":^ 	c #868063",
"<^ 	c #868163",
"[^ 	c #888365",
"}^ 	c #8A8567",
"|^ 	c #8B8566",
"1^ 	c #8C8565",
"2^ 	c #8D8666",
"3^ 	c #8F8665",
"4^ 	c #8F8664",
"5^ 	c #928865",
"6^ 	c #948665",
"7^ 	c #968766",
"8^ 	c #978766",
"9^ 	c #998665",
"0^ 	c #9A8766",
"a^ 	c #9A8666",
"b^ 	c #9C8566",
"c^ 	c #9E8466",
"d^ 	c #9D8365",
"e^ 	c #9C8264",
"f^ 	c #9D8063",
"g^ 	c #A08165",
"h^ 	c #A07F64",
"i^ 	c #AA8F74",
"j^ 	c #A08065",
"k^ 	c #A17E63",
"l^ 	c #A27E63",
"m^ 	c #A17C62",
"n^ 	c #A27A61",
"o^ 	c #A37860",
"p^ 	c #A3775F",
"q^ 	c #A3765E",
"r^ 	c #A2745D",
"s^ 	c #A1735C",
"t^ 	c #A2735D",
"u^ 	c #A0715D",
"v^ 	c #9E6F5C",
"w^ 	c #9D6E5B",
"x^ 	c #9C6C5B",
"y^ 	c #9B6B5B",
"z^ 	c #9A685A",
"A^ 	c #976759",
"B^ 	c #956658",
"C^ 	c #926457",
"D^ 	c #906256",
"E^ 	c #8F6058",
"F^ 	c #8D5E58",
"G^ 	c #8B5D57",
"H^ 	c #885B56",
"I^ 	c #865A54",
"J^ 	c #815853",
"K^ 	c #7E5653",
"L^ 	c #7A5553",
"M^ 	c #775352",
"N^ 	c #9A807F",
"O^ 	c #7C5D5E",
"P^ 	c #6F4E50",
"Q^ 	c #6D4D4F",
"R^ 	c #6A4B4E",
"S^ 	c #67494D",
"T^ 	c #66484C",
"U^ 	c #62464B",
"V^ 	c #614549",
"W^ 	c #5D4247",
"X^ 	c #594146",
"Y^ 	c #564046",
"Z^ 	c #523E46",
"`^ 	c #4F3D47",
" / 	c #4B3A45",
"./ 	c #473845",
"+/ 	c #443744",
"@/ 	c #413544",
"#/ 	c #3F3443",
"$/ 	c #3B3342",
"%/ 	c #393241",
"&/ 	c #312E3E",
"*/ 	c #2C2C3F",
"=/ 	c #282A3E",
"-/ 	c #22293E",
";/ 	c #1C253B",
">/ 	c #18253D",
",/ 	c #17273F",
"'/ 	c #12243B",
")/ 	c #092B37",
"!/ 	c #10313A",
"~/ 	c #18363C",
"{/ 	c #213B3F",
"]/ 	c #273F41",
"^/ 	c #2E4242",
"// 	c #354644",
"(/ 	c #3B4A47",
"_/ 	c #414D48",
":/ 	c #465049",
"</ 	c #4A534A",
"[/ 	c #51594E",
"}/ 	c #53594D",
"|/ 	c #575C4E",
"1/ 	c #5D6052",
"2/ 	c #606254",
"3/ 	c #767768",
"4/ 	c #676857",
"5/ 	c #6A6B59",
"6/ 	c #6C6E5A",
"7/ 	c #6E705B",
"8/ 	c #6F6F5A",
"9/ 	c #71705B",
"0/ 	c #72705B",
"a/ 	c #76755E",
"b/ 	c #77765E",
"c/ 	c #78775E",
"d/ 	c #79775E",
"e/ 	c #7B795F",
"f/ 	c #7D7B60",
"g/ 	c #7E7D60",
"h/ 	c #7F7D61",
"i/ 	c #807E60",
"j/ 	c #817F62",
"k/ 	c #818062",
"l/ 	c #828063",
"m/ 	c #828163",
"n/ 	c #868466",
"o/ 	c #898667",
"p/ 	c #8B8868",
"q/ 	c #8D8868",
"r/ 	c #8B8665",
"s/ 	c #8A8463",
"t/ 	c #8E8463",
"u/ 	c #8F8463",
"v/ 	c #918364",
"w/ 	c #908364",
"x/ 	c #928667",
"y/ 	c #9A8C6E",
"z/ 	c #938264",
"A/ 	c #968266",
"B/ 	c #978265",
"C/ 	c #988164",
"D/ 	c #987F63",
"E/ 	c #997E62",
"F/ 	c #9A7D63",
"G/ 	c #997C63",
"H/ 	c #977A62",
"I/ 	c #9B7B63",
"J/ 	c #9B7962",
"K/ 	c #9C7861",
"L/ 	c #9B755F",
"M/ 	c #9A745E",
"N/ 	c #9A735D",
"O/ 	c #99715B",
"P/ 	c #98705B",
"Q/ 	c #9A6F5C",
"R/ 	c #996D5C",
"S/ 	c #976B59",
"T/ 	c #966A5A",
"U/ 	c #956959",
"V/ 	c #946759",
"W/ 	c #916557",
"X/ 	c #8F6356",
"Y/ 	c #8C6256",
"Z/ 	c #8B6155",
"`/ 	c #885F55",
" ( 	c #855D56",
".( 	c #835B54",
"+( 	c #825A54",
"@( 	c #805954",
"#( 	c #7E5852",
"$( 	c #7B5753",
"%( 	c #785553",
"&( 	c #755452",
"*( 	c #705150",
"=( 	c #6D4E4F",
"-( 	c #6B4D4F",
";( 	c #6A4C4F",
">( 	c #684B4E",
",( 	c #66494D",
"'( 	c #63474C",
")( 	c #62474C",
"!( 	c #5E444C",
"~( 	c #594149",
"{( 	c #5A444C",
"]( 	c #554048",
"^( 	c #533F47",
"/( 	c #4E3C46",
"(( 	c #473844",
"_( 	c #413644",
":( 	c #3F3444",
"<( 	c #3C3343",
"[( 	c #383241",
"}( 	c #373443",
"|( 	c #343242",
"1( 	c #1F263B",
"2( 	c #1A243B",
"3( 	c #17233C",
"4( 	c #13213B",
"5( 	c #10213A",
"6( 	c #0A2C37",
"7( 	c #11323B",
"8( 	c #19363D",
"9( 	c #203A3E",
"0( 	c #263E40",
"a( 	c #2D4142",
"b( 	c #334444",
"c( 	c #394946",
"d( 	c #3F4C47",
"e( 	c #454F48",
"f( 	c #49534B",
"g( 	c #646D65",
"h( 	c #525A4F",
"i( 	c #545A4D",
"j( 	c #5A5E50",
"k( 	c #5E6153",
"l( 	c #616454",
"m( 	c #626555",
"n( 	c #646756",
"o( 	c #656856",
"p( 	c #696C59",
"q( 	c #6A6D59",
"r( 	c #6E705C",
"s( 	c #70725D",
"t( 	c #71735D",
"u( 	c #71745E",
"v( 	c #73755E",
"w( 	c #75775F",
"x( 	c #75785F",
"y( 	c #76795F",
"z( 	c #777A5F",
"A( 	c #787A5F",
"B( 	c #797C60",
"C( 	c #7B7D61",
"D( 	c #7B7E62",
"E( 	c #7C7F63",
"F( 	c #818468",
"G( 	c #85886B",
"H( 	c #87896B",
"I( 	c #898A6C",
"J( 	c #8A8A6C",
"K( 	c #888667",
"L( 	c #868264",
"M( 	c #8A8366",
"N( 	c #A59F83",
"O( 	c #C3BEA2",
"P( 	c #8A8063",
"Q( 	c #8E8065",
"R( 	c #8F7F64",
"S( 	c #8F7D63",
"T( 	c #8F7B62",
"U( 	c #917B63",
"V( 	c #917A62",
"W( 	c #927A63",
"X( 	c #917961",
"Y( 	c #927761",
"Z( 	c #927560",
"`( 	c #94745F",
" _ 	c #93735F",
"._ 	c #92725E",
"+_ 	c #92705D",
"@_ 	c #916E5B",
"#_ 	c #916D5B",
"$_ 	c #906B5A",
"%_ 	c #8F6A5A",
"&_ 	c #8F695A",
"*_ 	c #8E685A",
"=_ 	c #8D675A",
"-_ 	c #8C655A",
";_ 	c #8A6359",
">_ 	c #876258",
",_ 	c #856157",
"'_ 	c #87635B",
")_ 	c #7F5C54",
"!_ 	c #7E5B55",
"~_ 	c #7C5A55",
"{_ 	c #7A5854",
"]_ 	c #785753",
"^_ 	c #765552",
"/_ 	c #735351",
"(_ 	c #705250",
"__ 	c #6E5050",
":_ 	c #6A4E4F",
"<_ 	c #684E51",
"[_ 	c #644B4E",
"}_ 	c #62494C",
"|_ 	c #62484D",
"1_ 	c #5F464B",
"2_ 	c #5B444A",
"3_ 	c #584248",
"4_ 	c #59444C",
"5_ 	c #5E4A54",
"6_ 	c #5F4D58",
"7_ 	c #4F3F49",
"8_ 	c #4D3B46",
"9_ 	c #4A3A45",
"0_ 	c #473A45",
"a_ 	c #443845",
"b_ 	c #413645",
"c_ 	c #3D3544",
"d_ 	c #3B3343",
"e_ 	c #393243",
"f_ 	c #363141",
"g_ 	c #322E3F",
"h_ 	c #2F2C3E",
"i_ 	c #2D2B3E",
"j_ 	c #292A3E",
"k_ 	c #25283D",
"l_ 	c #21273C",
"m_ 	c #1B263D",
"n_ 	c #16233A",
"o_ 	c #132239",
"p_ 	c #102238",
"q_ 	c #10323B",
"r_ 	c #1F393D",
"s_ 	c #2C4142",
"t_ 	c #304343",
"u_ 	c #374846",
"v_ 	c #3C4A46",
"w_ 	c #424E48",
"x_ 	c #465149",
"y_ 	c #515C53",
"z_ 	c #4D574C",
"A_ 	c #51594D",
"B_ 	c #565C4F",
"C_ 	c #5B6052",
"D_ 	c #606355",
"E_ 	c #7E8175",
"F_ 	c #616555",
"G_ 	c #646757",
"H_ 	c #666A58",
"I_ 	c #666A59",
"J_ 	c #696C5B",
"K_ 	c #6A6E5C",
"L_ 	c #6C715D",
"M_ 	c #6D725D",
"N_ 	c #6E735E",
"O_ 	c #6E755E",
"P_ 	c #6F755F",
"Q_ 	c #70765F",
"R_ 	c #71775F",
"S_ 	c #727960",
"T_ 	c #737A5F",
"U_ 	c #737B60",
"V_ 	c #747B60",
"W_ 	c #7A8166",
"X_ 	c #7E866B",
"Y_ 	c #828B6F",
"Z_ 	c #AAB097",
"`_ 	c #BDC2A8",
" : 	c #858B6E",
".: 	c #84876B",
"+: 	c #818265",
"@: 	c #7E7F62",
"#: 	c #807F62",
"$: 	c #817F63",
"%: 	c #827F63",
"&: 	c #827F62",
"*: 	c #838062",
"=: 	c #827E61",
"-: 	c #847D61",
";: 	c #867C61",
">: 	c #877C63",
",: 	c #887B63",
"': 	c #887A62",
"): 	c #897961",
"!: 	c #897861",
"~: 	c #897760",
"{: 	c #8B7860",
"]: 	c #8B755F",
"^: 	c #8B765F",
"/: 	c #8A735D",
"(: 	c #8C725D",
"_: 	c #8B6F5E",
":: 	c #8A6F5E",
"<: 	c #8A6D5D",
"[: 	c #8A6C5C",
"}: 	c #896B5B",
"|: 	c #886A5B",
"1: 	c #87685B",
"2: 	c #85665A",
"3: 	c #84645A",
"4: 	c #836459",
"5: 	c #826359",
"6: 	c #816159",
"7: 	c #7F5F58",
"8: 	c #7D5F58",
"9: 	c #856761",
"0: 	c #785B56",
"a: 	c #765854",
"b: 	c #755654",
"c: 	c #725553",
"d: 	c #705352",
"e: 	c #6E5251",
"f: 	c #6C5150",
"g: 	c #6A5050",
"h: 	c #674E50",
"i: 	c #654E50",
"j: 	c #614C50",
"k: 	c #7F6C6F",
"l: 	c #5D494D",
"m: 	c #5B474D",
"n: 	c #56434B",
"o: 	c #54424A",
"p: 	c #52404B",
"q: 	c #493B48",
"r: 	c #7C7280",
"s: 	c #443746",
"t: 	c #473846",
"u: 	c #463845",
"v: 	c #433845",
"w: 	c #403745",
"x: 	c #3E3646",
"y: 	c #393343",
"z: 	c #383344",
"A: 	c #363142",
"B: 	c #403E4F",
"C: 	c #323144",
"D: 	c #23273B",
"E: 	c #1F263C",
"F: 	c #1C263C",
"G: 	c #19243D",
"H: 	c #15233C",
"I: 	c #12223C",
"J: 	c #142640",
"K: 	c #0A2C38",
"L: 	c #0F303A",
"M: 	c #17343B",
"N: 	c #1E383C",
"O: 	c #253D3F",
"P: 	c #2B4041",
"Q: 	c #2F4243",
"R: 	c #364746",
"S: 	c #3B4946",
"T: 	c #414D47",
"U: 	c #48544B",
"V: 	c #4B574C",
"W: 	c #4F5A4D",
"X: 	c #535B4E",
"Y: 	c #575D4F",
"Z: 	c #5B5F51",
"`: 	c #65695C",
" < 	c #5E6354",
".< 	c #5F6455",
"+< 	c #616656",
"@< 	c #646A5A",
"#< 	c #656C5B",
"$< 	c #686F5D",
"%< 	c #69715D",
"&< 	c #6A725E",
"*< 	c #69725D",
"=< 	c #69735E",
"-< 	c #6B755E",
";< 	c #6C765E",
">< 	c #6C775F",
",< 	c #6D785F",
"'< 	c #6E7960",
")< 	c #6F7A61",
"!< 	c #768167",
"~< 	c #7A866D",
"{< 	c #7E8B72",
"]< 	c #848F75",
"^< 	c #869176",
"/< 	c #828C71",
"(< 	c #82896E",
"_< 	c #7E8368",
":< 	c #787D62",
"<< 	c #787C62",
"[< 	c #797C62",
"}< 	c #7A7C62",
"|< 	c #7B7B62",
"1< 	c #7C7C62",
"2< 	c #7E7A62",
"3< 	c #7F7962",
"4< 	c #807962",
"5< 	c #7F7861",
"6< 	c #807660",
"7< 	c #827661",
"8< 	c #837560",
"9< 	c #82745F",
"0< 	c #8B7C68",
"a< 	c #82715E",
"b< 	c #83715E",
"c< 	c #84715F",
"d< 	c #877160",
"e< 	c #846F60",
"f< 	c #816B5D",
"g< 	c #826B5D",
"h< 	c #81695B",
"i< 	c #81685A",
"j< 	c #80665A",
"k< 	c #7F6459",
"l< 	c #7D6358",
"m< 	c #7C6259",
"n< 	c #7C6159",
"o< 	c #7B6058",
"p< 	c #795E58",
"q< 	c #775C57",
"r< 	c #745A55",
"s< 	c #745A56",
"t< 	c #725955",
"u< 	c #705756",
"v< 	c #6D5553",
"w< 	c #6A5452",
"x< 	c #685352",
"y< 	c #665151",
"z< 	c #654F4F",
"A< 	c #644D4E",
"B< 	c #614C4E",
"C< 	c #5D4A4D",
"D< 	c #5A484C",
"E< 	c #68585D",
"F< 	c #58474D",
"G< 	c #56464D",
"H< 	c #54444C",
"I< 	c #52434B",
"J< 	c #53454E",
"K< 	c #584D5B",
"L< 	c #767081",
"M< 	c #C6C2D0",
"N< 	c #787286",
"O< 	c #544A5E",
"P< 	c #453A49",
"Q< 	c #403644",
"R< 	c #3E3745",
"S< 	c #423C4C",
"T< 	c #383444",
"U< 	c #332F41",
"V< 	c #332F42",
"W< 	c #2F2C40",
"X< 	c #2B2C3F",
"Y< 	c #292B3E",
"Z< 	c #24273C",
"`< 	c #22273C",
" [ 	c #1B253D",
".[ 	c #18243C",
"+[ 	c #15223B",
"@[ 	c #102038",
"#[ 	c #0F1F39",
"$[ 	c #0B2B36",
"%[ 	c #10303A",
"&[ 	c #18343C",
"*[ 	c #1E383D",
"=[ 	c #243C40",
"-[ 	c #2A3F40",
";[ 	c #5A6765",
">[ 	c #4F5C59",
",[ 	c #43504B",
"'[ 	c #465249",
")[ 	c #48544A",
"![ 	c #4D594E",
"~[ 	c #505B50",
"{[ 	c #535D50",
"][ 	c #566052",
"^[ 	c #586153",
"/[ 	c #596254",
"([ 	c #5F695A",
"_[ 	c #8D9588",
":[ 	c #606859",
"<[ 	c #606A59",
"[[ 	c #626C5B",
"}[ 	c #636E5C",
"|[ 	c #64705D",
"1[ 	c #64705C",
"2[ 	c #65715D",
"3[ 	c #65725D",
"4[ 	c #66735E",
"5[ 	c #67745E",
"6[ 	c #68755E",
"7[ 	c #68755F",
"8[ 	c #697660",
"9[ 	c #6A7761",
"0[ 	c #707E67",
"a[ 	c #75856C",
"b[ 	c #798970",
"c[ 	c #78886E",
"d[ 	c #7A8A70",
"e[ 	c #7A896F",
"f[ 	c #79876D",
"g[ 	c #778169",
"h[ 	c #737A64",
"i[ 	c #727963",
"j[ 	c #727862",
"k[ 	c #737963",
"l[ 	c #767A63",
"m[ 	c #757961",
"n[ 	c #757861",
"o[ 	c #777862",
"p[ 	c #797862",
"q[ 	c #7A7762",
"r[ 	c #7B7762",
"s[ 	c #7A7460",
"t[ 	c #7B7360",
"u[ 	c #7B735F",
"v[ 	c #7C725F",
"w[ 	c #7B715E",
"x[ 	c #7D7160",
"y[ 	c #7C6E5F",
"z[ 	c #827467",
"A[ 	c #87776B",
"B[ 	c #837366",
"C[ 	c #7B6B5D",
"D[ 	c #7A695B",
"E[ 	c #79685B",
"F[ 	c #79675A",
"G[ 	c #79645A",
"H[ 	c #78635A",
"I[ 	c #77615A",
"J[ 	c #76605A",
"K[ 	c #755F5A",
"L[ 	c #735D58",
"M[ 	c #715C56",
"N[ 	c #6F5A55",
"O[ 	c #6E5956",
"P[ 	c #6E5A58",
"Q[ 	c #6D5B59",
"R[ 	c #6C5A59",
"S[ 	c #695857",
"T[ 	c #665454",
"U[ 	c #635251",
"V[ 	c #604F4F",
"W[ 	c #5E4D4E",
"X[ 	c #5C4B4D",
"Y[ 	c #5A494D",
"Z[ 	c #59494E",
"`[ 	c #57474D",
" } 	c #54454C",
".} 	c #53454D",
"+} 	c #52444C",
"@} 	c #4F424B",
"#} 	c #4C404A",
"$} 	c #4A3E48",
"%} 	c #473D48",
"&} 	c #413949",
"*} 	c #7A7587",
"=} 	c #3A3344",
"-} 	c #3E3747",
";} 	c #3F3846",
">} 	c #3B3544",
",} 	c #393443",
"'} 	c #353242",
")} 	c #343142",
"!} 	c #312F41",
"~} 	c #303040",
"{} 	c #2D2D40",
"]} 	c #2B2C40",
"^} 	c #292B3F",
"/} 	c #25293D",
"(} 	c #20273F",
"_} 	c #1D253F",
":} 	c #19253D",
"<} 	c #16233D",
"[} 	c #12213A",
"}} 	c #112139",
"|} 	c #0D1E37",
"1} 	c #102F39",
"2} 	c #17333B",
"3} 	c #1E373D",
"4} 	c #233A40",
"5} 	c #283E40",
"6} 	c #314443",
"7} 	c #6B7877",
"8} 	c #596764",
"9} 	c #445048",
"0} 	c #47534A",
"a} 	c #49554B",
"b} 	c #4C594F",
"c} 	c #5C685D",
"d} 	c #515D4F",
"e} 	c #546052",
"f} 	c #566153",
"g} 	c #626C5F",
"h} 	c #6C766A",
"i} 	c #596555",
"j} 	c #5D6858",
"k} 	c #616D5D",
"l} 	c #727F6F",
"m} 	c #616F5E",
"n} 	c #5F6D5B",
"o} 	c #606E5C",
"p} 	c #616F5D",
"q} 	c #63705E",
"r} 	c #64715F",
"s} 	c #647260",
"t} 	c #63735F",
"u} 	c #64745F",
"v} 	c #657561",
"w} 	c #667661",
"x} 	c #6B7A66",
"y} 	c #6F826B",
"z} 	c #72866F",
"A} 	c #72876F",
"B} 	c #738770",
"C} 	c #71836C",
"D} 	c #6F7E67",
"E} 	c #6A7862",
"F} 	c #7A8672",
"G} 	c #6E7965",
"H} 	c #6D7762",
"I} 	c #6E7761",
"J} 	c #6F7660",
"K} 	c #777D67",
"L} 	c #797D68",
"M} 	c #777A65",
"N} 	c #71725E",
"O} 	c #71715D",
"P} 	c #73705E",
"Q} 	c #74705E",
"R} 	c #756F5D",
"S} 	c #746F5C",
"T} 	c #746D5C",
"U} 	c #756E5E",
"V} 	c #7D7469",
"W} 	c #7E756A",
"X} 	c #7D7267",
"Y} 	c #75685E",
"Z} 	c #73655B",
"`} 	c #786960",
" | 	c #86776F",
".| 	c #716059",
"+| 	c #715F58",
"@| 	c #705E58",
"#| 	c #6E5C57",
"$| 	c #6B5A56",
"%| 	c #6E5C58",
"&| 	c #695855",
"*| 	c #6A5959",
"=| 	c #69595A",
"-| 	c #6A5A5C",
";| 	c #68595D",
">| 	c #66585C",
",| 	c #625458",
"'| 	c #5F5154",
")| 	c #5B4D51",
"!| 	c #584B4E",
"~| 	c #554A4E",
"{| 	c #54484C",
"]| 	c #53474C",
"^| 	c #51444C",
"/| 	c #4F434B",
"(| 	c #4D424B",
"_| 	c #4B404A",
":| 	c #493F49",
"<| 	c #463D48",
"[| 	c #463D46",
"}| 	c #403746",
"|| 	c #50485A",
"1| 	c #3E3847",
"2| 	c #3B3643",
"3| 	c #3A3645",
"4| 	c #363243",
"5| 	c #333142",
"6| 	c #322F42",
"7| 	c #2F2F40",
"8| 	c #2D2F3F",
"9| 	c #2B2D3E",
"0| 	c #282C3E",
"a| 	c #262A3E",
"b| 	c #23283E",
"c| 	c #20273D",
"d| 	c #343B53",
"e| 	c #1C2540",
"f| 	c #17243C",
"g| 	c #11203A",
"h| 	c #10213B",
"i| 	c #0D1E38",
"j| 	c #0F2E38",
"k| 	c #153239",
"l| 	c #1D363C",
"m| 	c #223A3F",
"n| 	c #273D40",
"o| 	c #2C4041",
"p| 	c #3F4D49",
"q| 	c #414F48",
"r| 	c #43524A",
"s| 	c #47564D",
"t| 	c #48574D",
"u| 	c #56645A",
"v| 	c #4D5B4E",
"w| 	c #515E51",
"x| 	c #525F52",
"y| 	c #9DA89D",
"z| 	c #838F83",
"A| 	c #687467",
"B| 	c #586656",
"C| 	c #596757",
"D| 	c #5A6A5A",
"E| 	c #5B6B5B",
"F| 	c #5D6D5C",
"G| 	c #5C6C5A",
"H| 	c #5D6E5C",
"I| 	c #5E6E5D",
"J| 	c #5F6F5E",
"K| 	c #5E705D",
"L| 	c #5F715E",
"M| 	c #5F725F",
"N| 	c #60725F",
"O| 	c #647663",
"P| 	c #677D68",
"Q| 	c #6B826C",
"R| 	c #6C846E",
"S| 	c #6E856F",
"T| 	c #6C836E",
"U| 	c #697F69",
"V| 	c #677965",
"W| 	c #657562",
"X| 	c #697966",
"Y| 	c #667461",
"Z| 	c #677562",
"`| 	c #687460",
" 1 	c #697460",
".1 	c #707B67",
"+1 	c #747F6B",
"@1 	c #767F6B",
"#1 	c #757C69",
"$1 	c #767B69",
"%1 	c #6B6E5D",
"&1 	c #6D6E5D",
"*1 	c #6E6D5D",
"=1 	c #6D6B5B",
"-1 	c #6D6A5B",
";1 	c #6E6B5D",
">1 	c #726D61",
",1 	c #757065",
"'1 	c #726960",
")1 	c #9C948C",
"!1 	c #6D635A",
"~1 	c #6C6259",
"{1 	c #6A5F56",
"]1 	c #6C5F58",
"^1 	c #6B5D57",
"/1 	c #6A5C58",
"(1 	c #695B57",
"_1 	c #867976",
":1 	c #665856",
"<1 	c #655756",
"[1 	c #635656",
"}1 	c #645859",
"|1 	c #65595C",
"11 	c #65595E",
"21 	c #62565E",
"31 	c #5F535B",
"41 	c #5A4F57",
"51 	c #574C53",
"61 	c #53494F",
"71 	c #51484D",
"81 	c #4F464C",
"91 	c #4E444B",
"01 	c #4C424B",
"a1 	c #4A414A",
"b1 	c #493F4A",
"c1 	c #473F49",
"d1 	c #453E49",
"e1 	c #433D48",
"f1 	c #423C47",
"g1 	c #413A46",
"h1 	c #3F3848",
"i1 	c #413C4C",
"j1 	c #373442",
"k1 	c #373444",
"l1 	c #343344",
"m1 	c #333244",
"n1 	c #303042",
"o1 	c #2E2E41",
"p1 	c #2C2D40",
"q1 	c #2A2D3E",
"r1 	c #272B3E",
"s1 	c #252A3E",
"t1 	c #21273D",
"u1 	c #1F273C",
"v1 	c #1D263F",
"w1 	c #18233E",
"x1 	c #16243C",
"y1 	c #13223B",
"z1 	c #0F2039",
"A1 	c #0E1F39",
"B1 	c #0B1D37",
"C1 	c #092934",
"D1 	c #16333A",
"E1 	c #1B353B",
"F1 	c #21383D",
"G1 	c #263D40",
"H1 	c #2A3F41",
"I1 	c #2E4243",
"J1 	c #324544",
"K1 	c #3B4B49",
"L1 	c #3E4E49",
"M1 	c #40504A",
"N1 	c #43524C",
"O1 	c #45554D",
"P1 	c #48584E",
"Q1 	c #4B5B50",
"R1 	c #4C5C51",
"S1 	c #4D5D52",
"T1 	c #4F5F54",
"U1 	c #506055",
"V1 	c #526254",
"W1 	c #536455",
"X1 	c #536556",
"Y1 	c #566859",
"Z1 	c #56695A",
"`1 	c #566A5A",
" 2 	c #556B5B",
".2 	c #566B5C",
"+2 	c #566C5C",
"@2 	c #576C5D",
"#2 	c #586D5E",
"$2 	c #586E5D",
"%2 	c #596F5E",
"&2 	c #596F5F",
"*2 	c #5B7161",
"=2 	c #5F7662",
"-2 	c #627A65",
";2 	c #657D67",
">2 	c #657D68",
",2 	c #627B65",
"'2 	c #617863",
")2 	c #607461",
"!2 	c #5F7260",
"~2 	c #617260",
"{2 	c #617160",
"]2 	c #627160",
"^2 	c #637260",
"/2 	c #6C7A68",
"(2 	c #707C6B",
"_2 	c #717C6B",
":2 	c #707A6A",
"<2 	c #6A7262",
"[2 	c #676D5E",
"}2 	c #676B5C",
"|2 	c #676A5C",
"12 	c #696A5C",
"22 	c #67685B",
"32 	c #66675A",
"42 	c #67665B",
"52 	c #67655A",
"62 	c #747368",
"72 	c #666358",
"82 	c #959188",
"92 	c #656056",
"02 	c #655E55",
"a2 	c #665D57",
"b2 	c #665B58",
"c2 	c #645957",
"d2 	c #635856",
"e2 	c #615655",
"f2 	c #605555",
"g2 	c #5D5455",
"h2 	c #686062",
"i2 	c #60585B",
"j2 	c #5F585E",
"k2 	c #837E84",
"l2 	c #5D565D",
"m2 	c #5B555C",
"n2 	c #595259",
"o2 	c #565057",
"p2 	c #524C52",
"q2 	c #4C474E",
"r2 	c #4B464D",
"s2 	c #49444C",
"t2 	c #48434B",
"u2 	c #47414B",
"v2 	c #47424D",
"w2 	c #45404C",
"x2 	c #423E4A",
"y2 	c #403C4A",
"z2 	c #3E3B49",
"A2 	c #3D3B48",
"B2 	c #3D3A47",
"C2 	c #3B3747",
"D2 	c #393646",
"E2 	c #363543",
"F2 	c #353444",
"G2 	c #333445",
"H2 	c #313345",
"I2 	c #343648",
"J2 	c #2B2F42",
"K2 	c #2B2E42",
"L2 	c #2A2D41",
"M2 	c #272C3F",
"N2 	c #282E41",
"O2 	c #252B41",
"P2 	c #222840",
"Q2 	c #1F263E",
"R2 	c #1C263B",
"S2 	c #1B253E",
"T2 	c #18243F",
"U2 	c #14233B",
"V2 	c #12223B",
"W2 	c #0B1E37",
"X2 	c #0B1F38",
"Y2 	c #16323A",
"Z2 	c #1B343A",
"`2 	c #20373C",
" 3 	c #283E41",
".3 	c #2D4143",
"+3 	c #304344",
"@3 	c #3B4C48",
"#3 	c #3F504B",
"$3 	c #41524C",
"%3 	c #43544D",
"&3 	c #46574F",
"*3 	c #4B5C52",
"=3 	c #4B5C51",
"-3 	c #7C8A82",
";3 	c #495B50",
">3 	c #4E5F54",
",3 	c #506255",
"'3 	c #506354",
")3 	c #506455",
"!3 	c #506657",
"~3 	c #516758",
"{3 	c #526859",
"]3 	c #526A5B",
"^3 	c #536B5C",
"/3 	c #546C5D",
"(3 	c #556D5E",
"_3 	c #566D5F",
":3 	c #546D5E",
"<3 	c #556F5F",
"[3 	c #556F60",
"}3 	c #56705E",
"|3 	c #57725E",
"13 	c #597360",
"23 	c #5A7561",
"33 	c #58715E",
"43 	c #586F5D",
"53 	c #5A705F",
"63 	c #5B705F",
"73 	c #5B6F5E",
"83 	c #5C6F5E",
"93 	c #5C6E5D",
"03 	c #627362",
"a3 	c #677767",
"b3 	c #697969",
"c3 	c #677566",
"d3 	c #626E5F",
"e3 	c #616B5D",
"f3 	c #616A5C",
"g3 	c #62695C",
"h3 	c #63685C",
"i3 	c #62675A",
"j3 	c #61665A",
"k3 	c #62665B",
"l3 	c #63655A",
"m3 	c #606258",
"n3 	c #5E5F56",
"o3 	c #5F6058",
"p3 	c #5F5E56",
"q3 	c #5E5D55",
"r3 	c #5F5C55",
"s3 	c #5E5955",
"t3 	c #5F5856",
"u3 	c #5C5653",
"v3 	c #5C5454",
"w3 	c #5D5656",
"x3 	c #5A5454",
"y3 	c #585453",
"z3 	c #595556",
"A3 	c #585558",
"B3 	c #5A575C",
"C3 	c #626065",
"D3 	c #55545A",
"E3 	c #545258",
"F3 	c #535258",
"G3 	c #504E54",
"H3 	c #4B4A50",
"I3 	c #48464D",
"J3 	c #47454D",
"K3 	c #45434C",
"L3 	c #44424C",
"M3 	c #423F4A",
"N3 	c #423F4C",
"O3 	c #413E4B",
"P3 	c #3E3D4A",
"Q3 	c #3D3C4A",
"R3 	c #3B3B4A",
"S3 	c #3A3B49",
"T3 	c #3A3847",
"U3 	c #383647",
"V3 	c #353545",
"W3 	c #333443",
"X3 	c #313244",
"Y3 	c #303245",
"Z3 	c #2E3144",
"`3 	c #2C3044",
" 4 	c #2A2F43",
".4 	c #272C41",
"+4 	c #242A3F",
"@4 	c #262C3F",
"#4 	c #232A3F",
"$4 	c #20283F",
"%4 	c #202841",
"&4 	c #1F2840",
"*4 	c #1A253A",
"=4 	c #18243D",
"-4 	c #16233E",
";4 	c #13223A",
">4 	c #0E2039",
",4 	c #0C1F38",
"'4 	c #0A1E37",
")4 	c #0A2934",
"!4 	c #102E38",
"~4 	c #1A3339",
"{4 	c #1F373C",
"]4 	c #2C4143",
"^4 	c #364946",
"/4 	c #384B48",
"(4 	c #3A4D49",
"_4 	c #3D504B",
":4 	c #3F534D",
"<4 	c #41554E",
"[4 	c #4E6158",
"}4 	c #485B51",
"|4 	c #44584E",
"14 	c #475C51",
"24 	c #4B6155",
"34 	c #4B6054",
"44 	c #4C6155",
"54 	c #4D6256",
"64 	c #4E6458",
"74 	c #4E6559",
"84 	c #4F665A",
"94 	c #4E675A",
"04 	c #4E685B",
"a4 	c #4F695C",
"b4 	c #4F6A5C",
"c4 	c #506A5D",
"d4 	c #4F6B5C",
"e4 	c #506C5D",
"f4 	c #516D5E",
"g4 	c #506E5D",
"h4 	c #516E5D",
"i4 	c #53705F",
"j4 	c #52705F",
"k4 	c #546F5F",
"l4 	c #566F5F",
"m4 	c #576E5F",
"n4 	c #586F60",
"o4 	c #596F60",
"p4 	c #586E5F",
"q4 	c #5A6F60",
"r4 	c #5B6D60",
"s4 	c #58695C",
"t4 	c #59685C",
"u4 	c #5B685C",
"v4 	c #89938A",
"w4 	c #677167",
"x4 	c #5C655B",
"y4 	c #5A6459",
"z4 	c #5E675D",
"A4 	c #656D64",
"B4 	c #5B6158",
"C4 	c #5D605B",
"D4 	c #595C57",
"E4 	c #5B5D58",
"F4 	c #5A5B57",
"G4 	c #5A5956",
"H4 	c #585854",
"I4 	c #787876",
"J4 	c #595756",
"K4 	c #555354",
"L4 	c #545354",
"M4 	c #515052",
"N4 	c #59585C",
"O4 	c #535358",
"P4 	c #535259",
"Q4 	c #51525A",
"R4 	c #505159",
"S4 	c #4C4D55",
"T4 	c #494A52",
"U4 	c #474850",
"V4 	c #45464E",
"W4 	c #44444E",
"X4 	c #42424D",
"Y4 	c #41404C",
"Z4 	c #3E3E4B",
"`4 	c #3E3D4B",
" 5 	c #3C3C4A",
".5 	c #393947",
"+5 	c #393A49",
"@5 	c #383A49",
"#5 	c #353746",
"$5 	c #363747",
"%5 	c #343547",
"&5 	c #323445",
"*5 	c #303343",
"=5 	c #2E3244",
"-5 	c #2D3145",
";5 	c #2B3045",
">5 	c #2A2F44",
",5 	c #272D41",
"'5 	c #252B40",
")5 	c #242B3F",
"!5 	c #232B40",
"~5 	c #212A40",
"{5 	c #1E273F",
"]5 	c #1C2841",
"^5 	c #222D47",
"/5 	c #1A253C",
"(5 	c #15223C",
"_5 	c #0D2039",
":5 	c #0C2039",
"<5 	c #091E37",
"[5 	c #0B2934",
"}5 	c #102C37",
"|5 	c #153139",
"15 	c #193339",
"25 	c #1E373B",
"35 	c #253C41",
"45 	c #6D8083",
"55 	c #273E41",
"65 	c #2D4242",
"75 	c #344845",
"85 	c #364A48",
"95 	c #384C49",
"05 	c #3A4F4A",
"a5 	c #60726D",
"b5 	c #495D56",
"c5 	c #41564F",
"d5 	c #425850",
"e5 	c #7B8F86",
"f5 	c #475E53",
"g5 	c #445D51",
"h5 	c #465E53",
"i5 	c #485F55",
"j5 	c #496056",
"k5 	c #496257",
"l5 	c #496358",
"m5 	c #4A6459",
"n5 	c #4A6557",
"o5 	c #4A6658",
"p5 	c #4B6759",
"q5 	c #4A695A",
"r5 	c #4B695B",
"s5 	c #4A6A5B",
"t5 	c #4B6B5B",
"u5 	c #4C6C5C",
"v5 	c #4C6C5D",
"w5 	c #4D6C5D",
"x5 	c #4E6D5E",
"y5 	c #506D5F",
"z5 	c #506C5E",
"A5 	c #506B5D",
"B5 	c #516B5D",
"C5 	c #516A5D",
"D5 	c #526A5D",
"E5 	c #536B5D",
"F5 	c #566C60",
"G5 	c #607569",
"H5 	c #54685D",
"I5 	c #56675D",
"J5 	c #55665C",
"K5 	c #54655A",
"L5 	c #6B7970",
"M5 	c #5B685E",
"N5 	c #566159",
"O5 	c #546158",
"P5 	c #66736C",
"Q5 	c #7E8A84",
"R5 	c #555F5A",
"S5 	c #545A57",
"T5 	c #555A58",
"U5 	c #555857",
"V5 	c #555856",
"W5 	c #555755",
"X5 	c #535655",
"Y5 	c #515554",
"Z5 	c #505354",
"`5 	c #515254",
" 6 	c #505154",
".6 	c #4F4F53",
"+6 	c #4D4E52",
"@6 	c #4C4D52",
"#6 	c #53535A",
"$6 	c #4D4D57",
"%6 	c #4A4D56",
"&6 	c #494C55",
"*6 	c #474A53",
"=6 	c #454851",
"-6 	c #42454E",
";6 	c #40434E",
">6 	c #3E414C",
",6 	c #3C3E4A",
"'6 	c #3C3E4B",
")6 	c #3B3D4A",
"!6 	c #3A3C4A",
"~6 	c #373C4A",
"{6 	c #383C4B",
"]6 	c #343848",
"^6 	c #323647",
"/6 	c #333749",
"(6 	c #2F3448",
"_6 	c #2E3347",
":6 	c #2D3246",
"<6 	c #2C3145",
"[6 	c #2B3044",
"}6 	c #292F43",
"|6 	c #272E42",
"16 	c #252C3F",
"26 	c #232B3E",
"36 	c #222A3E",
"46 	c #212940",
"56 	c #1E2940",
"66 	c #1B2740",
"76 	c #192842",
"86 	c #23324B",
"96 	c #16243D",
"06 	c #17243F",
"a6 	c #14223B",
"b6 	c #11223A",
"c6 	c #0E203B",
"d6 	c #0C203A",
"e6 	c #091D38",
"f6 	c #0A2833",
"g6 	c #0F2C37",
"h6 	c #143038",
"i6 	c #193338",
"j6 	c #1C353A",
"k6 	c #223B3F",
"l6 	c #3B5054",
"m6 	c #2C4141",
"n6 	c #2F4442",
"o6 	c #334745",
"p6 	c #344846",
"q6 	c #384D49",
"r6 	c #425652",
"s6 	c #3D524D",
"t6 	c #3E554E",
"u6 	c #405750",
"v6 	c #415950",
"w6 	c #3F594F",
"x6 	c #445E53",
"y6 	c #425B52",
"z6 	c #435D54",
"A6 	c #445E55",
"B6 	c #456056",
"C6 	c #456157",
"D6 	c #456257",
"E6 	c #446357",
"F6 	c #456458",
"G6 	c #456559",
"H6 	c #45665A",
"I6 	c #46675B",
"J6 	c #45685A",
"K6 	c #46695B",
"L6 	c #476A5C",
"M6 	c #486B5D",
"N6 	c #496B5D",
"O6 	c #4A6A5D",
"P6 	c #4A695C",
"Q6 	c #4B695C",
"R6 	c #4C695D",
"S6 	c #4D685D",
"T6 	c #4F685D",
"U6 	c #4E665C",
"V6 	c #50685E",
"W6 	c #4F655B",
"X6 	c #50645B",
"Y6 	c #4F635A",
"Z6 	c #50625A",
"`6 	c #52635B",
" 7 	c #51625A",
".7 	c #586963",
"+7 	c #71837E",
"@7 	c #A1B2AE",
"#7 	c #B2C2BF",
"$7 	c #788785",
"%7 	c #5A6464",
"&7 	c #525B5B",
"*7 	c #505758",
"=7 	c #4F5657",
"-7 	c #4F5556",
";7 	c #4E5455",
">7 	c #4C5254",
",7 	c #4A5053",
"'7 	c #4A4F53",
")7 	c #4A4D53",
"!7 	c #484C51",
"~7 	c #474C51",
"{7 	c #474B50",
"]7 	c #464A51",
"^7 	c #464A53",
"/7 	c #464A54",
"(7 	c #444954",
"_7 	c #424752",
":7 	c #404550",
"<7 	c #3E424D",
"[7 	c #3D414C",
"}7 	c #3B414C",
"|7 	c #39404B",
"17 	c #383E4B",
"27 	c #363C49",
"37 	c #353B49",
"47 	c #333949",
"57 	c #464D5C",
"67 	c #343B4D",
"77 	c #3F4658",
"87 	c #31384B",
"97 	c #2D3448",
"07 	c #2C3346",
"a7 	c #2B3245",
"b7 	c #2A3245",
"c7 	c #293043",
"d7 	c #282F42",
"e7 	c #272E40",
"f7 	c #262D40",
"g7 	c #252D40",
"h7 	c #222C3F",
"i7 	c #202C3E",
"j7 	c #1F2B3E",
"k7 	c #1E293F",
"l7 	c #1D2940",
"m7 	c #1A2740",
"n7 	c #17253F",
"o7 	c #16253E",
"p7 	c #152540",
"q7 	c #26354F",
"r7 	c #10213C",
"s7 	c #12253F",
"t7 	c #1E334F",
"u7 	c #0A203B",
"v7 	c #081E37",
"w7 	c #071C36",
"x7 	c #0F2C36",
"y7 	c #193238",
"z7 	c #20393D",
"A7 	c #233B40",
"B7 	c #263E41",
"C7 	c #294041",
"D7 	c #506363",
"E7 	c #5E6F6F",
"F7 	c #324745",
"G7 	c #354A48",
"H7 	c #374C4A",
"I7 	c #374D49",
"J7 	c #3B524C",
"K7 	c #3A524E",
"L7 	c #3D5650",
"M7 	c #3D5850",
"N7 	c #3E5B51",
"O7 	c #405B53",
"P7 	c #3F5C54",
"Q7 	c #405D55",
"R7 	c #415F56",
"S7 	c #416057",
"T7 	c #426158",
"U7 	c #436259",
"V7 	c #426259",
"W7 	c #42635A",
"X7 	c #43655B",
"Y7 	c #42675B",
"Z7 	c #41675B",
"`7 	c #43685C",
" 8 	c #43695D",
".8 	c #45695E",
"+8 	c #46695D",
"@8 	c #46685D",
"#8 	c #46675C",
"$8 	c #46665C",
"%8 	c #47665C",
"&8 	c #48665D",
"*8 	c #48655C",
"=8 	c #48645B",
"-8 	c #49635B",
";8 	c #49645C",
">8 	c #4A645C",
",8 	c #4A625B",
"'8 	c #4A615A",
")8 	c #495E57",
"!8 	c #4A605A",
"~8 	c #4B605C",
"{8 	c #546A65",
"]8 	c #7C918E",
"^8 	c #9CAFAD",
"/8 	c #546765",
"(8 	c #4D5B5B",
"_8 	c #4A5757",
":8 	c #495556",
"<8 	c #495555",
"[8 	c #495354",
"}8 	c #485354",
"|8 	c #475253",
"18 	c #465052",
"28 	c #454E51",
"38 	c #454C51",
"48 	c #444B51",
"58 	c #424A51",
"68 	c #414A50",
"78 	c #404850",
"88 	c #3F4750",
"98 	c #3E464F",
"08 	c #3D4450",
"a8 	c #3C434E",
"b8 	c #3A424D",
"c8 	c #39404C",
"d8 	c #383F4B",
"e8 	c #363F4A",
"f8 	c #36404B",
"g8 	c #343D49",
"h8 	c #333C4A",
"i8 	c #323A49",
"j8 	c #313949",
"k8 	c #323B4B",
"l8 	c #2D3648",
"m8 	c #2C3446",
"n8 	c #2C3448",
"o8 	c #2A3246",
"p8 	c #293245",
"q8 	c #283244",
"r8 	c #273143",
"s8 	c #252F42",
"t8 	c #242E41",
"u8 	c #232D40",
"v8 	c #232D41",
"w8 	c #212C41",
"x8 	c #202C42",
"y8 	c #1D2B41",
"z8 	c #1D2A41",
"A8 	c #1C2840",
"B8 	c #1A283F",
"C8 	c #1E2C43",
"D8 	c #182640",
"E8 	c #18273F",
"F8 	c #13233E",
"G8 	c #13233F",
"H8 	c #0E223B",
"I8 	c #081F3B",
"J8 	c #0A203D",
"K8 	c #081D38",
"L8 	c #071C37",
"M8 	c #0B2833",
"N8 	c #0E2B36",
"O8 	c #132F37",
"P8 	c #183137",
"Q8 	c #1F383C",
"R8 	c #223A3E",
"S8 	c #253D41",
"T8 	c #334A4B",
"U8 	c #3D5151",
"V8 	c #304644",
"W8 	c #324846",
"X8 	c #344A48",
"Y8 	c #364C49",
"Z8 	c #374E4A",
"`8 	c #38514D",
" 9 	c #3F5955",
".9 	c #395650",
"+9 	c #3A5750",
"@9 	c #3B5951",
"#9 	c #3B5953",
"$9 	c #3C5A54",
"%9 	c #3C5B55",
"&9 	c #3C5C55",
"*9 	c #3C5D56",
"=9 	c #3C5E57",
"-9 	c #3E5E58",
";9 	c #3E6059",
">9 	c #3D615A",
",9 	c #3E625B",
"'9 	c #3C645A",
")9 	c #3D655A",
"!9 	c #3C655A",
"~9 	c #3D665B",
"{9 	c #3E665C",
"]9 	c #3F675D",
"^9 	c #3E675C",
"/9 	c #3F675C",
"(9 	c #40665C",
"_9 	c #41675D",
":9 	c #41665D",
"<9 	c #44685F",
"[9 	c #476A61",
"}9 	c #44635C",
"|9 	c #43635B",
"19 	c #43625B",
"29 	c #44625B",
"39 	c #45615A",
"49 	c #44605A",
"59 	c #445F59",
"69 	c #455E59",
"79 	c #465E5A",
"89 	c #475E5B",
"99 	c #6A807D",
"09 	c #4E6663",
"a9 	c #647A7A",
"b9 	c #425858",
"c9 	c #465958",
"d9 	c #576867",
"e9 	c #435353",
"f9 	c #435253",
"g9 	c #435153",
"h9 	c #425152",
"i9 	c #414E52",
"j9 	c #404C51",
"k9 	c #404B51",
"l9 	c #3F4951",
"m9 	c #3E4952",
"n9 	c #39444D",
"o9 	c #3A454D",
"p9 	c #38434F",
"q9 	c #37424E",
"r9 	c #36414D",
"s9 	c #35404C",
"t9 	c #343F4B",
"u9 	c #323D4A",
"v9 	c #303C49",
"w9 	c #2F3B49",
"x9 	c #2E3A49",
"y9 	c #2D3949",
"z9 	c #2C3847",
"A9 	c #2C3745",
"B9 	c #2B3645",
"C9 	c #2A3445",
"D9 	c #293344",
"E9 	c #253245",
"F9 	c #243144",
"G9 	c #233043",
"H9 	c #222F42",
"I9 	c #212E42",
"J9 	c #1D2A40",
"K9 	c #27354A",
"L9 	c #1B2A43",
"M9 	c #2E3C54",
"N9 	c #1D2C45",
"O9 	c #18283F",
"P9 	c #17273E",
"Q9 	c #19283F",
"R9 	c #15243B",
"S9 	c #15243D",
"T9 	c #11213B",
"U9 	c #0D2139",
"V9 	c #091F3A",
"W9 	c #071F3B",
"X9 	c #061E38",
"Y9 	c #041C36",
"Z9 	c #0A2733",
"`9 	c #0D2A35",
" 0 	c #122E36",
".0 	c #173137",
"+0 	c #1B3439",
"@0 	c #1F373B",
"#0 	c #213A3E",
"$0 	c #233C40",
"%0 	c #274043",
"&0 	c #284143",
"*0 	c #2C4445",
"=0 	c #2F4543",
"-0 	c #334947",
";0 	c #344B48",
">0 	c #364D4A",
",0 	c #3D5653",
"'0 	c #34504C",
")0 	c #37544F",
"!0 	c #375550",
"~0 	c #395751",
"{0 	c #385851",
"]0 	c #375852",
"^0 	c #385952",
"/0 	c #375A53",
"(0 	c #375B53",
"_0 	c #385C55",
":0 	c #395E57",
"<0 	c #3A5F58",
"[0 	c #3A6159",
"}0 	c #386159",
"|0 	c #376259",
"10 	c #39645A",
"20 	c #3A645B",
"30 	c #3A655B",
"40 	c #3B655C",
"50 	c #3C645C",
"60 	c #3A635B",
"70 	c #547770",
"80 	c #40665E",
"90 	c #476A63",
"00 	c #3F625B",
"a0 	c #3F605B",
"b0 	c #3F605A",
"c0 	c #405F5A",
"d0 	c #405E59",
"e0 	c #3F5D58",
"f0 	c #3E5C57",
"g0 	c #3F5B57",
"h0 	c #415A57",
"i0 	c #425855",
"j0 	c #425B58",
"k0 	c #435C59",
"l0 	c #475E5E",
"m0 	c #405556",
"n0 	c #3F5456",
"o0 	c #5A6B6E",
"p0 	c #415356",
"q0 	c #3E5053",
"r0 	c #3D4F52",
"s0 	c #3D4E53",
"t0 	c #3D4D54",
"u0 	c #435258",
"v0 	c #3B4951",
"w0 	c #3A4750",
"x0 	c #394750",
"y0 	c #37454E",
"z0 	c #37454D",
"A0 	c #36444C",
"B0 	c #35434B",
"C0 	c #34414E",
"D0 	c #33404D",
"E0 	c #333F4C",
"F0 	c #323E4C",
"G0 	c #313D4B",
"H0 	c #303C4A",
"I0 	c #354150",
"J0 	c #2C3849",
"K0 	c #2A3748",
"L0 	c #273645",
"M0 	c #263545",
"N0 	c #253445",
"O0 	c #243345",
"P0 	c #233145",
"Q0 	c #223044",
"R0 	c #212F43",
"S0 	c #1F2E41",
"T0 	c #1F2D40",
"U0 	c #1D2C3F",
"V0 	c #1D2C40",
"W0 	c #2B3A4E",
"X0 	c #192A41",
"Y0 	c #1A2A43",
"Z0 	c #162740",
"`0 	c #16263F",
" a 	c #15253D",
".a 	c #13233A",
"+a 	c #11223B",
"@a 	c #10203A",
"#a 	c #0B2038",
"$a 	c #081F3A",
"%a 	c #061E3B",
"&a 	c #051D38",
"*a 	c #041C37",
"=a 	c #0E2A36",
"-a 	c #112D37",
";a 	c #163138",
">a 	c #19333A",
",a 	c #1C383C",
"'a 	c #263E42",
")a 	c #274042",
"!a 	c #2B4344",
"~a 	c #2D4546",
"{a 	c #2F4949",
"]a 	c #334C4C",
"^a 	c #314C4B",
"/a 	c #3C5653",
"(a 	c #324F4B",
"_a 	c #34514E",
":a 	c #35534F",
"<a 	c #355450",
"[a 	c #345651",
"}a 	c #31564F",
"|a 	c #345A53",
"1a 	c #325953",
"2a 	c #335A53",
"3a 	c #335B54",
"4a 	c #345C55",
"5a 	c #345D56",
"6a 	c #355E57",
"7a 	c #355F58",
"8a 	c #366158",
"9a 	c #36615A",
"0a 	c #37625B",
"aa 	c #38635C",
"ba 	c #37635C",
"ca 	c #4E736D",
"da 	c #3C645E",
"ea 	c #38615B",
"fa 	c #39615C",
"ga 	c #3A615C",
"ha 	c #3A605B",
"ia 	c #3A5F5B",
"ja 	c #3A5E5A",
"ka 	c #3B5D58",
"la 	c #3C5C57",
"ma 	c #3B5B56",
"na 	c #3B5A55",
"oa 	c #3B5955",
"pa 	c #3C5856",
"qa 	c #3B5755",
"ra 	c #3B5554",
"sa 	c #3C5555",
"ta 	c #3B5353",
"ua 	c #3B5156",
"va 	c #3B5055",
"wa 	c #3A4F54",
"xa 	c #3A4D53",
"ya 	c #394D52",
"za 	c #384C52",
"Aa 	c #374B51",
"Ba 	c #364950",
"Ca 	c #86979F",
"Da 	c #33464F",
"Ea 	c #34454E",
"Fa 	c #334450",
"Ga 	c #33444F",
"Ha 	c #31424C",
"Ia 	c #30414E",
"Ja 	c #2F3F4E",
"Ka 	c #2F3E4E",
"La 	c #2D3D4C",
"Ma 	c #2D3C4B",
"Na 	c #2C3B4A",
"Oa 	c #2C3A4A",
"Pa 	c #2B3949",
"Qa 	c #283848",
"Ra 	c #263649",
"Sa 	c #233547",
"Ta 	c #233445",
"Ua 	c #223344",
"Va 	c #213243",
"Wa 	c #203045",
"Xa 	c #213147",
"Ya 	c #1E2E44",
"Za 	c #1D2D43",
"`a 	c #1C2C42",
" b 	c #1C2A43",
".b 	c #1B2942",
"+b 	c #17283C",
"@b 	c #203148",
"#b 	c #5B6B81",
"$b 	c #15253F",
"%b 	c #14243E",
"&b 	c #13243E",
"*b 	c #13233D",
"=b 	c #0F223D",
"-b 	c #0D213C",
";b 	c #0C203C",
">b 	c #0B1F3C",
",b 	c #0A1F3C",
"'b 	c #0A1F3E",
")b 	c #112643",
"!b 	c #051C37",
"~b 	c #0A2632",
"{b 	c #0F2B36",
"]b 	c #153038",
"^b 	c #173239",
"/b 	c #1A363B",
"(b 	c #1C393D",
"_b 	c #1F3B3F",
":b 	c #344C4F",
"<b 	c #294245",
"[b 	c #284144",
"}b 	c #294244",
"|b 	c #2B4446",
"1b 	c #2F494A",
"2b 	c #2C4748",
"3b 	c #314C4D",
"4b 	c #314E4C",
"5b 	c #304D4B",
"6b 	c #314F4D",
"7b 	c #32514F",
"8b 	c #335250",
"9b 	c #2F524E",
"0b 	c #638580",
"ab 	c #2D5550",
"bb 	c #305752",
"cb 	c #305953",
"db 	c #305A54",
"eb 	c #315A54",
"fb 	c #325C55",
"gb 	c #325D56",
"hb 	c #315D56",
"ib 	c #325E57",
"jb 	c #335F59",
"kb 	c #325F59",
"lb 	c #33605A",
"mb 	c #34615B",
"nb 	c #38645F",
"ob 	c #47716B",
"pb 	c #36625D",
"qb 	c #35615C",
"rb 	c #35605B",
"sb 	c #37615C",
"tb 	c #345E59",
"ub 	c #355E59",
"vb 	c #365E5A",
"wb 	c #365D59",
"xb 	c #365C58",
"yb 	c #375B57",
"zb 	c #385B56",
"Ab 	c #385A55",
"Bb 	c #385854",
"Cb 	c #385754",
"Db 	c #385655",
"Eb 	c #375554",
"Fb 	c #385354",
"Gb 	c #395454",
"Hb 	c #385253",
"Ib 	c #385055",
"Jb 	c #384F54",
"Kb 	c #384E53",
"Lb 	c #394D53",
"Mb 	c #384B52",
"Nb 	c #364B50",
"Ob 	c #354950",
"Pb 	c #34474E",
"Qb 	c #374A52",
"Rb 	c #32454E",
"Sb 	c #31434F",
"Tb 	c #2F414D",
"Ub 	c #30424E",
"Vb 	c #3F4E5C",
"Wb 	c #334351",
"Xb 	c #2D3F4D",
"Yb 	c #2C3D4B",
"Zb 	c #2B3C4A",
"`b 	c #2A3B49",
" c 	c #293A49",
".c 	c #273848",
"+c 	c #253546",
"@c 	c #243547",
"#c 	c #233447",
"$c 	c #233446",
"%c 	c #223345",
"&c 	c #213244",
"*c 	c #1E2F42",
"=c 	c #364358",
"-c 	c #1F2E45",
";c 	c #1D2D44",
">c 	c #1C2C43",
",c 	c #1B2B42",
"'c 	c #1A2942",
")c 	c #1A2A40",
"!c 	c #445269",
"~c 	c #162741",
"{c 	c #14253F",
"]c 	c #12233D",
"^c 	c #0E213C",
"/c 	c #0B203B",
"(c 	c #081E3B",
"_c 	c #081F3D",
":c 	c #081E3C",
"<c 	c #0C2834",
"[c 	c #0D2935",
"}c 	c #3E5559",
"|c 	c #576B6D",
"1c 	c #1E3C40",
"2c 	c #354E51",
"3c 	c #284345",
"4c 	c #254044",
"5c 	c #264144",
"6c 	c #274346",
"7c 	c #485F62",
"8c 	c #2E4A4C",
"9c 	c #3E595B",
"0c 	c #2C4B4A",
"ac 	c #2B4C4B",
"bc 	c #2E4F4E",
"cc 	c #2D4F4E",
"dc 	c #2F5250",
"ec 	c #2D5350",
"fc 	c #2C5451",
"gc 	c #2C5652",
"hc 	c #2E5753",
"ic 	c #2D5753",
"jc 	c #2C5854",
"kc 	c #2E5954",
"lc 	c #2E5A55",
"mc 	c #2D5B55",
"nc 	c #2D5B56",
"oc 	c #2D5D57",
"pc 	c #2E5D58",
"qc 	c #2E5E58",
"rc 	c #2F5E59",
"sc 	c #2F5F5A",
"tc 	c #30605A",
"uc 	c #2F5F59",
"vc 	c #30605B",
"wc 	c #305F5A",
"xc 	c #32605B",
"yc 	c #315E5A",
"zc 	c #315E59",
"Ac 	c #456E6A",
"Bc 	c #38625E",
"Cc 	c #315C59",
"Dc 	c #325C58",
"Ec 	c #315B57",
"Fc 	c #335957",
"Gc 	c #345957",
"Hc 	c #335856",
"Ic 	c #345756",
"Jc 	c #335655",
"Kc 	c #335555",
"Lc 	c #345456",
"Mc 	c #335355",
"Nc 	c #335254",
"Oc 	c #335154",
"Pc 	c #334F52",
"Qc 	c #354F54",
"Rc 	c #344D53",
"Sc 	c #344B52",
"Tc 	c #324A50",
"Uc 	c #32484F",
"Vc 	c #32474E",
"Wc 	c #31464D",
"Xc 	c #31454F",
"Yc 	c #30454F",
"Zc 	c #30444E",
"`c 	c #2D424D",
" d 	c #2D414F",
".d 	c #2C404D",
"+d 	c #2A3F4B",
"@d 	c #374956",
"#d 	c #314351",
"$d 	c #2A3D4B",
"%d 	c #293B49",
"&d 	c #283B49",
"*d 	c #273A48",
"=d 	c #263848",
"-d 	c #253748",
";d 	c #243749",
">d 	c #233749",
",d 	c #223546",
"'d 	c #203347",
")d 	c #1F3246",
"!d 	c #1F3145",
"~d 	c #1E3144",
"{d 	c #1F2F46",
"]d 	c #1E2E45",
"^d 	c #1B2C43",
"/d 	c #1A2B42",
"(d 	c #1A2A42",
"_d 	c #192942",
":d 	c #172941",
"<d 	c #182A42",
"[d 	c #172A43",
"}d 	c #11223C",
"|d 	c #0C203B",
"1d 	c #0A1F3B",
"2d 	c #061E3A",
"3d 	c #061D3A",
"4d 	c #051D39",
"5d 	c #041C38",
"6d 	c #0B2733",
"7d 	c #0E2A35",
"8d 	c #112C37",
"9d 	c #153037",
"0d 	c #253F44",
"ad 	c #385155",
"bd 	c #1B393E",
"cd 	c #1F3C40",
"dd 	c #213E41",
"ed 	c #233F42",
"fd 	c #254244",
"gd 	c #264346",
"hd 	c #284648",
"id 	c #284649",
"jd 	c #3D595B",
"kd 	c #274949",
"ld 	c #274A4A",
"md 	c #4C6A69",
"nd 	c #3C5E5C",
"od 	c #294F4E",
"pd 	c #2A5150",
"qd 	c #2B5451",
"rd 	c #6E9492",
"sd 	c #295350",
"td 	c #2A5753",
"ud 	c #2A5854",
"vd 	c #2A5754",
"wd 	c #2A5955",
"xd 	c #2A5B56",
"yd 	c #295A56",
"zd 	c #275A54",
"Ad 	c #295B57",
"Bd 	c #295B58",
"Cd 	c #2A5B58",
"Dd 	c #2B5C59",
"Ed 	c #2A5C59",
"Fd 	c #2B5D59",
"Gd 	c #2B5D5A",
"Hd 	c #2C5D5A",
"Id 	c #2D5D5A",
"Jd 	c #2C5C59",
"Kd 	c #305E5B",
"Ld 	c #2F5C5A",
"Md 	c #2E5C59",
"Nd 	c #2E5B59",
"Od 	c #2E5958",
"Pd 	c #2E5857",
"Qd 	c #2F5656",
"Rd 	c #2E5555",
"Sd 	c #305556",
"Td 	c #2F5455",
"Ud 	c #2E5354",
"Vd 	c #305256",
"Wd 	c #2F5155",
"Xd 	c #2F5054",
"Yd 	c #2F4F53",
"Zd 	c #2F4E52",
"`d 	c #314E54",
" e 	c #3A565C",
".e 	c #2D494F",
"+e 	c #2E484F",
"@e 	c #2D484F",
"#e 	c #2D474F",
"$e 	c #2D464F",
"%e 	c #2B454F",
"&e 	c #2D4550",
"*e 	c #2A434F",
"=e 	c #2A424E",
"-e 	c #29404C",
";e 	c #4D616E",
">e 	c #273D4B",
",e 	c #263D4B",
"'e 	c #253C4C",
")e 	c #263B4A",
"!e 	c #253A48",
"~e 	c #243947",
"{e 	c #2A3F50",
"]e 	c #354B5E",
"^e 	c #1E374C",
"/e 	c #1E354B",
"(e 	c #1E3346",
"_e 	c #1F3245",
":e 	c #1D3247",
"<e 	c #1C3145",
"[e 	c #1B3045",
"}e 	c #22374B",
"|e 	c #1B3044",
"1e 	c #1B2D45",
"2e 	c #1A2C44",
"3e 	c #192B43",
"4e 	c #152841",
"5e 	c #253751",
"6e 	c #172A44",
"7e 	c #14263F",
"8e 	c #12253E",
"9e 	c #11243D",
"0e 	c #10233C",
"ae 	c #0F223B",
"be 	c #0E213B",
"ce 	c #0C213C",
"de 	c #031B37",
"ee 	c #0D2934",
"fe 	c #102B36",
"ge 	c #142F36",
"he 	c #143036",
"ie 	c #385257",
"je 	c #233E44",
"ke 	c #1E3B3F",
"le 	c #213D41",
"me 	c #223E42",
"ne 	c #224042",
"oe 	c #234244",
"pe 	c #264547",
"qe 	c #264648",
"re 	c #254748",
"se 	c #264A4A",
"te 	c #254B4A",
"ue 	c #385A59",
"ve 	c #305655",
"we 	c #254D4D",
"xe 	c #264F4E",
"ye 	c #24514E",
"ze 	c #38615E",
"Ae 	c #255250",
"Be 	c #265451",
"Ce 	c #255552",
"De 	c #265753",
"Ee 	c #265854",
"Fe 	c #265954",
"Ge 	c #275A55",
"He 	c #275B56",
"Ie 	c #265956",
"Je 	c #275956",
"Ke 	c #275A56",
"Le 	c #285B57",
"Me 	c #275B57",
"Ne 	c #285C58",
"Oe 	c #285956",
"Pe 	c #295A57",
"Qe 	c #295956",
"Re 	c #295856",
"Se 	c #295755",
"Te 	c #2A5556",
"Ue 	c #2A5455",
"Ve 	c #2A5355",
"We 	c #2B5456",
"Xe 	c #2B5355",
"Ye 	c #2B5255",
"Ze 	c #2A4F53",
"`e 	c #2A4D52",
" f 	c #2B4E52",
".f 	c #2B4C52",
"+f 	c #2A4B51",
"@f 	c #2B4A52",
"#f 	c #2B4951",
"$f 	c #2A4850",
"%f 	c #2A474F",
"&f 	c #2A464E",
"*f 	c #29454F",
"=f 	c #284550",
"-f 	c #274350",
";f 	c #425B68",
">f 	c #25404F",
",f 	c #25404E",
"'f 	c #26404D",
")f 	c #263E4D",
"!f 	c #233D4A",
"~f 	c #223C4A",
"{f 	c #223B4B",
"]f 	c #253B4A",
"^f 	c #243B49",
"/f 	c #233947",
"(f 	c #223846",
"_f 	c #1E364A",
":f 	c #263D53",
"<f 	c #6A8298",
"[f 	c #374F65",
"}f 	c #1C3449",
"|f 	c #1D3246",
"1f 	c #1B3148",
"2f 	c #1A3047",
"3f 	c #1A3046",
"4f 	c #1C3148",
"5f 	c #182942",
"6f 	c #172B43",
"7f 	c #142A42",
"8f 	c #1C2F4C",
"9f 	c #132541",
"0f 	c #12243D",
"af 	c #10243D",
"bf 	c #0F233C",
"cf 	c #0D213A",
"df 	c #0A1F3A",
"ef 	c #071F3A",
"ff 	c #041E39",
"gf 	c #041D37",
"hf 	c #122E37",
"if 	c #16343A",
"jf 	c #153439",
"kf 	c #19373C",
"lf 	c #1B383E",
"mf 	c #1F3B40",
"nf 	c #2A454B",
"of 	c #203E43",
"pf 	c #214143",
"qf 	c #224244",
"rf 	c #234547",
"sf 	c #224647",
"tf 	c #234648",
"uf 	c #224848",
"vf 	c #214B49",
"wf 	c #224A4A",
"xf 	c #244C4D",
"yf 	c #254F4F",
"zf 	c #244F4E",
"Af 	c #245150",
"Bf 	c #23504F",
"Cf 	c #23514F",
"Df 	c #245351",
"Ef 	c #235452",
"Ff 	c #215653",
"Gf 	c #235654",
"Hf 	c #235754",
"If 	c #225754",
"Jf 	c #235957",
"Kf 	c #225957",
"Lf 	c #235B58",
"Mf 	c #245958",
"Nf 	c #245957",
"Of 	c #3F6E6D",
"Pf 	c #245A59",
"Qf 	c #245A58",
"Rf 	c #245B57",
"Sf 	c #245A56",
"Tf 	c #245956",
"Uf 	c #255856",
"Vf 	c #245855",
"Wf 	c #245755",
"Xf 	c #265856",
"Yf 	c #255755",
"Zf 	c #255554",
"`f 	c #265456",
" g 	c #275357",
".g 	c #275155",
"+g 	c #275156",
"@g 	c #285055",
"#g 	c #274F54",
"$g 	c #284E53",
"%g 	c #284C52",
"&g 	c #274A50",
"*g 	c #294A51",
"=g 	c #2A4A52",
"-g 	c #27474F",
";g 	c #28464E",
">g 	c #27454D",
",g 	c #27454F",
"'g 	c #274550",
")g 	c #264450",
"!g 	c #26434F",
"~g 	c #23404D",
"{g 	c #243F4D",
"]g 	c #223D4B",
"^g 	c #213C4A",
"/g 	c #203B49",
"(g 	c #1F3A49",
"_g 	c #213A4A",
":g 	c #203949",
"<g 	c #1F3948",
"[g 	c #1F3848",
"}g 	c #1E374B",
"|g 	c #1C354B",
"1g 	c #20394E",
"2g 	c #173248",
"3g 	c #173246",
"4g 	c #183145",
"5g 	c #192F46",
"6g 	c #192E45",
"7g 	c #162C43",
"8g 	c #152B42",
"9g 	c #142941",
"0g 	c #132942",
"ag 	c #132840",
"bg 	c #122840",
"cg 	c #24364F",
"dg 	c #11253E",
"eg 	c #0F243E",
"fg 	c #0E233D",
"gg 	c #0A203C",
"hg 	c #09213C",
"ig 	c #051E3A",
"jg 	c #041D38",
"kg 	c #031C37",
"lg 	c #011B36",
"mg 	c #092531",
"ng 	c #0C2833",
"og 	c #102D37",
"pg 	c #133038",
"qg 	c #153338",
"rg 	c #4F686C",
"sg 	c #1A373D",
"tg 	c #1C393F",
"ug 	c #213E44",
"vg 	c #1C3D43",
"wg 	c #1E4042",
"xg 	c #204142",
"yg 	c #224445",
"zg 	c #1F4546",
"Ag 	c #245151",
"Bg 	c #224749",
"Cg 	c #1F4847",
"Dg 	c #1F4B49",
"Eg 	c #204C4D",
"Fg 	c #214C4D",
"Gg 	c #214D4D",
"Hg 	c #224E4E",
"Ig 	c #224F4E",
"Jg 	c #22504F",
"Kg 	c #235150",
"Lg 	c #225252",
"Mg 	c #215553",
"Ng 	c #225453",
"Og 	c #225654",
"Pg 	c #205656",
"Qg 	c #437372",
"Rg 	c #5E8B89",
"Sg 	c #1D5755",
"Tg 	c #205756",
"Ug 	c #225858",
"Vg 	c #215758",
"Wg 	c #295D5D",
"Xg 	c #215858",
"Yg 	c #205757",
"Zg 	c #215656",
"`g 	c #225657",
" h 	c #235657",
".h 	c #225656",
"+h 	c #225556",
"@h 	c #225455",
"#h 	c #215354",
"$h 	c #235256",
"%h 	c #245156",
"&h 	c #245055",
"*h 	c #255056",
"=h 	c #244F55",
"-h 	c #254E54",
";h 	c #254C51",
">h 	c #254C52",
",h 	c #244A50",
"'h 	c #244950",
")h 	c #234851",
"!h 	c #234751",
"~h 	c #234650",
"{h 	c #23454F",
"]h 	c #22434E",
"^h 	c #23434E",
"/h 	c #22424E",
"(h 	c #22414D",
"_h 	c #294853",
":h 	c #25444F",
"<h 	c #203E4B",
"[h 	c #203D4B",
"}h 	c #203C4B",
"|h 	c #1E3A49",
"1h 	c #1D3948",
"2h 	c #1D3849",
"3h 	c #1D3748",
"4h 	c #1C3748",
"5h 	c #1B3647",
"6h 	c #1C3548",
"7h 	c #1B3348",
"8h 	c #183146",
"9h 	c #183246",
"0h 	c #173245",
"ah 	c #1F374B",
"bh 	c #1A2F46",
"ch 	c #182E44",
"dh 	c #182E45",
"eh 	c #172D44",
"fh 	c #142D43",
"gh 	c #132C42",
"hh 	c #112940",
"ih 	c #102840",
"jh 	c #112941",
"kh 	c #263C56",
"lh 	c #102841",
"mh 	c #12273F",
"nh 	c #10253E",
"oh 	c #0F243D",
"ph 	c #0F243F",
"qh 	c #0D223D",
"rh 	c #102742",
"sh 	c #021C37",
"th 	c #0B2732",
"uh 	c #122F37",
"vh 	c #143139",
"wh 	c #1C373E",
"xh 	c #16343B",
"yh 	c #19373E",
"zh 	c #1E3B42",
"Ah 	c #1D3C42",
"Bh 	c #1F3F42",
"Ch 	c #1F3F41",
"Dh 	c #1F4245",
"Eh 	c #204A4B",
"Fh 	c #3E6D6E",
"Gh 	c #1F474B",
"Hh 	c #20474A",
"Ih 	c #1F494A",
"Jh 	c #1E494C",
"Kh 	c #1E4B4C",
"Lh 	c #1F4C4D",
"Mh 	c #204E4E",
"Nh 	c #1E4D4E",
"Oh 	c #1F4E4E",
"Ph 	c #1F4F50",
"Qh 	c #1F5051",
"Rh 	c #1D5252",
"Sh 	c #1E5352",
"Th 	c #1F5353",
"Uh 	c #205454",
"Vh 	c #1E5555",
"Wh 	c #1C5654",
"Xh 	c #1B5553",
"Yh 	c #1C5755",
"Zh 	c #1F5757",
"`h 	c #205758",
" i 	c #205859",
".i 	c #1F5758",
"+i 	c #1E5657",
"@i 	c #1E5757",
"#i 	c #1E5656",
"$i 	c #1F5557",
"%i 	c #205557",
"&i 	c #1F5456",
"*i 	c #205356",
"=i 	c #205355",
"-i 	c #205154",
";i 	c #205054",
">i 	c #204F53",
",i 	c #224F54",
"'i 	c #224E53",
")i 	c #214D52",
"!i 	c #234D53",
"~i 	c #295258",
"{i 	c #2E5359",
"]i 	c #214A50",
"^i 	c #21484F",
"/i 	c #3A5D67",
"(i 	c #204651",
"_i 	c #204550",
":i 	c #1F444F",
"<i 	c #1E424E",
"[i 	c #20424E",
"}i 	c #224350",
"|i 	c #1F3F4C",
"1i 	c #20414D",
"2i 	c #1D3E4B",
"3i 	c #1D3D4B",
"4i 	c #214050",
"5i 	c #1B3A4A",
"6i 	c #1B3A49",
"7i 	c #1A3948",
"8i 	c #193848",
"9i 	c #1C384A",
"0i 	c #1A3648",
"ai 	c #1E3A4B",
"bi 	c #193547",
"ci 	c #183348",
"di 	c #173247",
"ei 	c #163146",
"fi 	c #183247",
"gi 	c #172E44",
"hi 	c #162D44",
"ii 	c #152D44",
"ji 	c #142C43",
"ki 	c #142C42",
"li 	c #122A41",
"mi 	c #0F2740",
"ni 	c #102740",
"oi 	c #0E2641",
"pi 	c #0F2842",
"qi 	c #0E273F",
"ri 	c #0E253D",
"si 	c #0C233B",
"ti 	c #142A44",
"ui 	c #0B223C",
"vi 	c #0A213B",
"wi 	c #09203A",
"xi 	c #09203B",
"yi 	c #0A223E",
"zi 	c #051E39",
"Ai 	c #041D39",
"Bi 	c #112E36",
"Ci 	c #15323A",
"Di 	c #16343C",
"Ei 	c #17353D",
"Fi 	c #19373F",
"Gi 	c #1A3941",
"Hi 	c #1A3A43",
"Ii 	c #1B3E45",
"Ji 	c #1E4449",
"Ki 	c #2B555A",
"Li 	c #5F8A8C",
"Mi 	c #87B3B6",
"Ni 	c #396669",
"Oi 	c #205153",
"Pi 	c #1D484C",
"Qi 	c #1C494D",
"Ri 	c #1B4A4D",
"Si 	c #1B4B4E",
"Ti 	c #1B4C4F",
"Ui 	c #1C4E50",
"Vi 	c #1D4F51",
"Wi 	c #1C5052",
"Xi 	c #3F6E6F",
"Yi 	c #185152",
"Zi 	c #1A5253",
"`i 	c #1C5556",
" j 	c #1B5455",
".j 	c #195455",
"+j 	c #195555",
"@j 	c #1A5455",
"#j 	c #1B5556",
"$j 	c #1A5556",
"%j 	c #1C5456",
"&j 	c #1B5254",
"*j 	c #1B5154",
"=j 	c #1C5255",
"-j 	c #1D5154",
";j 	c #1E5154",
">j 	c #1D5054",
",j 	c #1E5054",
"'j 	c #1E4F54",
")j 	c #1C4C52",
"!j 	c #1E4C52",
"~j 	c #1C4A50",
"{j 	c #214D54",
"]j 	c #244E55",
"^j 	c #1C484F",
"/j 	c #1C474E",
"(j 	c #1E4650",
"_j 	c #1D454F",
":j 	c #1D434E",
"<j 	c #1C424D",
"[j 	c #1B3F4B",
"}j 	c #1C3F4D",
"|j 	c #1F404E",
"1j 	c #1D3E4D",
"2j 	c #1B3D4C",
"3j 	c #1A3C4B",
"4j 	c #1A3B4A",
"5j 	c #1A394C",
"6j 	c #18384A",
"7j 	c #18374A",
"8j 	c #173649",
"9j 	c #163448",
"0j 	c #1F3B4F",
"aj 	c #163549",
"bj 	c #213E53",
"cj 	c #153248",
"dj 	c #143147",
"ej 	c #163147",
"fj 	c #213B51",
"gj 	c #152F46",
"hj 	c #122C43",
"ij 	c #112B42",
"jj 	c #102A41",
"kj 	c #162F47",
"lj 	c #0F2841",
"mj 	c #1B334B",
"nj 	c #0D2743",
"oj 	c #0C2640",
"pj 	c #0B253D",
"qj 	c #0C253D",
"rj 	c #0B243D",
"sj 	c #0C243E",
"tj 	c #0B233F",
"uj 	c #09213D",
"vj 	c #08203C",
"wj 	c #031D38",
"xj 	c #082430",
"yj 	c #122F38",
"zj 	c #16333B",
"Aj 	c #18363E",
"Bj 	c #173A41",
"Cj 	c #163C43",
"Dj 	c #183D43",
"Ej 	c #1B4047",
"Fj 	c #224C53",
"Gj 	c #4F7B7F",
"Hj 	c #7EABB0",
"Ij 	c #2E5B61",
"Jj 	c #1B4B50",
"Kj 	c #17464B",
"Lj 	c #215256",
"Mj 	c #17484C",
"Nj 	c #18494D",
"Oj 	c #194A4E",
"Pj 	c #184A4D",
"Qj 	c #194B4E",
"Rj 	c #1A4D50",
"Sj 	c #1C4E51",
"Tj 	c #578485",
"Uj 	c #175152",
"Vj 	c #175052",
"Wj 	c #185253",
"Xj 	c #195253",
"Yj 	c #185353",
"Zj 	c #175353",
"`j 	c #185354",
" k 	c #185454",
".k 	c #185455",
"+k 	c #175354",
"@k 	c #185254",
"#k 	c #185154",
"$k 	c #185153",
"%k 	c #195053",
"&k 	c #1A4F53",
"*k 	c #194E52",
"=k 	c #1B4E52",
"-k 	c #1C4F53",
";k 	c #1C4E52",
">k 	c #1B4D52",
",k 	c #1B4C51",
"'k 	c #1A4A50",
")k 	c #19484F",
"!k 	c #194950",
"~k 	c #235259",
"{k 	c #1A4850",
"]k 	c #19464F",
"^k 	c #19454E",
"/k 	c #1A454F",
"(k 	c #1B4450",
"_k 	c #1B434F",
":k 	c #1A414D",
"<k 	c #193F4D",
"[k 	c #193E4D",
"}k 	c #183C4B",
"|k 	c #173C4B",
"1k 	c #163B4A",
"2k 	c #173A4B",
"3k 	c #183A4D",
"4k 	c #18394C",
"5k 	c #16374A",
"6k 	c #143448",
"7k 	c #17364B",
"8k 	c #133347",
"9k 	c #113147",
"0k 	c #14334B",
"ak 	c #14324A",
"bk 	c #122F47",
"ck 	c #142F47",
"dk 	c #122D44",
"ek 	c #112C43",
"fk 	c #112C42",
"gk 	c #0F2A41",
"hk 	c #0F2940",
"ik 	c #102940",
"jk 	c #142D45",
"kk 	c #0D2740",
"lk 	c #0F2943",
"mk 	c #0B2641",
"nk 	c #1F3953",
"ok 	c #0B263F",
"pk 	c #0A253D",
"qk 	c #0A243D",
"rk 	c #0A233E",
"sk 	c #0A2531",
"tk 	c #1E3540",
"uk 	c #1C333E",
"vk 	c #102C36",
"wk 	c #122E39",
"xk 	c #13303B",
"yk 	c #14323C",
"zk 	c #15343E",
"Ak 	c #15363F",
"Bk 	c #143740",
"Ck 	c #163A40",
"Dk 	c #193942",
"Ek 	c #1B3A43",
"Fk 	c #183C44",
"Gk 	c #19444C",
"Hk 	c #336269",
"Ik 	c #18404B",
"Jk 	c #234A51",
"Kk 	c #17454A",
"Lk 	c #16474B",
"Mk 	c #16484C",
"Nk 	c #174A4D",
"Ok 	c #174B4E",
"Pk 	c #184B4F",
"Qk 	c #174C50",
"Rk 	c #134B4E",
"Sk 	c #164F52",
"Tk 	c #164E51",
"Uk 	c #154F52",
"Vk 	c #165152",
"Wk 	c #155152",
"Xk 	c #155151",
"Yk 	c #165253",
"Zk 	c #165354",
"`k 	c #165255",
" l 	c #165054",
".l 	c #165155",
"+l 	c #175155",
"@l 	c #164F54",
"#l 	c #1A5459",
"$l 	c #1B5359",
"%l 	c #174E54",
"&l 	c #174B52",
"*l 	c #174B51",
"=l 	c #184B51",
"-l 	c #184B50",
";l 	c #184A50",
">l 	c #18494F",
",l 	c #184850",
"'l 	c #17474F",
")l 	c #16454E",
"!l 	c #164552",
"~l 	c #1A4755",
"{l 	c #194553",
"]l 	c #174251",
"^l 	c #183F4F",
"/l 	c #173B4C",
"(l 	c #153A4B",
"_l 	c #163B4B",
":l 	c #143A4A",
"<l 	c #14394A",
"[l 	c #15384B",
"}l 	c #133649",
"|l 	c #113346",
"1l 	c #274458",
"2l 	c #143449",
"3l 	c #113347",
"4l 	c #123347",
"5l 	c #244259",
"6l 	c #10334A",
"7l 	c #103249",
"8l 	c #13354D",
"9l 	c #12324B",
"0l 	c #102E46",
"al 	c #112E46",
"bl 	c #0F2B43",
"cl 	c #0E2B42",
"dl 	c #0D2841",
"el 	c #0D2741",
"fl 	c #0C2641",
"gl 	c #092641",
"hl 	c #102C46",
"il 	c #09263F",
"jl 	c #08253D",
"kl 	c #09253E",
"ll 	c #09233E",
"ml 	c #08223D",
"nl 	c #07213C",
"ol 	c #06213C",
"pl 	c #06203B",
"ql 	c #061F3B",
"rl 	c #051D3A",
"sl 	c #041C39",
"tl 	c #031B38",
"ul 	c #021B37",
"vl 	c #011B37",
"wl 	c #082330",
"xl 	c #0E2733",
"yl 	c #0E2834",
"zl 	c #0F2B37",
"Al 	c #0F2E39",
"Bl 	c #0F2F3A",
"Cl 	c #11313C",
"Dl 	c #11333D",
"El 	c #12343E",
"Fl 	c #163941",
"Gl 	c #35575E",
"Hl 	c #153842",
"Il 	c #163A44",
"Jl 	c #163D45",
"Kl 	c #144147",
"Ll 	c #1D494F",
"Ml 	c #154248",
"Nl 	c #174449",
"Ol 	c #134248",
"Pl 	c #144349",
"Ql 	c #134448",
"Rl 	c #16474C",
"Sl 	c #14474B",
"Tl 	c #15484C",
"Ul 	c #13484C",
"Vl 	c #13494D",
"Wl 	c #144B50",
"Xl 	c #154C51",
"Yl 	c #144D51",
"Zl 	c #144E52",
"`l 	c #144F52",
" m 	c #134E51",
".m 	c #134F51",
"+m 	c #135052",
"@m 	c #145053",
"#m 	c #145153",
"$m 	c #125153",
"%m 	c #135254",
"&m 	c #125052",
"*m 	c #135154",
"=m 	c #144E53",
"-m 	c #134E54",
";m 	c #19565B",
">m 	c #18555A",
",m 	c #114D53",
"'m 	c #144C53",
")m 	c #154B52",
"!m 	c #154952",
"~m 	c #154851",
"{m 	c #164751",
"]m 	c #154650",
"^m 	c #14444F",
"/m 	c #164551",
"(m 	c #164550",
"_m 	c #154551",
":m 	c #154654",
"<m 	c #164755",
"[m 	c #184756",
"}m 	c #184555",
"|m 	c #174253",
"1m 	c #183F51",
"2m 	c #163B4E",
"3m 	c #15394C",
"4m 	c #14394B",
"5m 	c #123549",
"6m 	c #113448",
"7m 	c #103347",
"8m 	c #103346",
"9m 	c #0D3244",
"0m 	c #0D3144",
"am 	c #11344E",
"bm 	c #0E334C",
"cm 	c #113650",
"dm 	c #0E324D",
"em 	c #0E314B",
"fm 	c #0D2D47",
"gm 	c #0D2B45",
"hm 	c #0C2A44",
"im 	c #0C2A43",
"jm 	c #122E47",
"km 	c #0D2B44",
"lm 	c #0B2A44",
"mm 	c #092640",
"nm 	c #09243F",
"om 	c #08253F",
"pm 	c #082640",
"qm 	c #354C62",
"rm 	c #05223C",
"sm 	c #07223D",
"tm 	c #05203B",
"um 	c #041D3B",
"vm 	c #011A38",
"wm 	c #021B39",
"xm 	c #011937",
"ym 	c #0A2330",
"zm 	c #0B2532",
"Am 	c #0C2733",
"Bm 	c #0E2D38",
"Cm 	c #0E2E39",
"Dm 	c #10303B",
"Em 	c #10313C",
"Fm 	c #12363F",
"Gm 	c #123941",
"Hm 	c #143942",
"Im 	c #143A43",
"Jm 	c #133B44",
"Km 	c #113D43",
"Lm 	c #134046",
"Mm 	c #113F45",
"Nm 	c #164349",
"Om 	c #124348",
"Pm 	c #124449",
"Qm 	c #11464B",
"Rm 	c #11474C",
"Sm 	c #12494E",
"Tm 	c #124A4F",
"Um 	c #114B4F",
"Vm 	c #114C50",
"Wm 	c #124D51",
"Xm 	c #114C51",
"Ym 	c #104D51",
"Zm 	c #114E52",
"`m 	c #104E52",
" n 	c #0F4F52",
".n 	c #114F52",
"+n 	c #124F53",
"@n 	c #114F54",
"#n 	c #124C53",
"$n 	c #124E53",
"%n 	c #104E53",
"&n 	c #114D52",
"*n 	c #114C53",
"=n 	c #134F55",
"-n 	c #124F55",
";n 	c #0F4B51",
">n 	c #114951",
",n 	c #134952",
"'n 	c #124850",
")n 	c #12474F",
"!n 	c #12454F",
"~n 	c #144650",
"{n 	c #154651",
"]n 	c #1A4957",
"^n 	c #124250",
"/n 	c #114250",
"(n 	c #124351",
"_n 	c #376473",
":n 	c #144657",
"<n 	c #134556",
"[n 	c #144456",
"}n 	c #144355",
"|n 	c #134051",
"1n 	c #133D4E",
"2n 	c #163C4E",
"3n 	c #153B4D",
"4n 	c #103749",
"5n 	c #27495A",
"6n 	c #103549",
"7n 	c #103448",
"8n 	c #0F3448",
"9n 	c #0E3347",
"0n 	c #0E3246",
"an 	c #0E3145",
"bn 	c #0E3247",
"cn 	c #0C3145",
"dn 	c #0B3145",
"en 	c #0C3149",
"fn 	c #10354F",
"gn 	c #0E344F",
"hn 	c #0F3551",
"in 	c #0B314E",
"jn 	c #0C304B",
"kn 	c #0B2C47",
"ln 	c #0B2B44",
"mn 	c #0A2A43",
"nn 	c #0C2C45",
"on 	c #082841",
"pn 	c #082741",
"qn 	c #08243F",
"rn 	c #06233D",
"sn 	c #05233D",
"tn 	c #06243E",
"un 	c #07243E",
"vn 	c #07233D",
"wn 	c #041F3A",
"xn 	c #031C3A",
"yn 	c #092330",
"zn 	c #0B2633",
"An 	c #0F313B",
"Bn 	c #11353E",
"Cn 	c #113740",
"Dn 	c #10363F",
"En 	c #123841",
"Fn 	c #113A42",
"Gn 	c #103B42",
"Hn 	c #103E44",
"In 	c #0E3D43",
"Jn 	c #124046",
"Kn 	c #2F585D",
"Ln 	c #114247",
"Mn 	c #15454C",
"Nn 	c #1B4A51",
"On 	c #10454B",
"Pn 	c #10464B",
"Qn 	c #0F464C",
"Rn 	c #0E474D",
"Sn 	c #0F484E",
"Tn 	c #0F494F",
"Un 	c #0F4A4F",
"Vn 	c #104B50",
"Wn 	c #104C51",
"Xn 	c #0F4D52",
"Yn 	c #0D4C51",
"Zn 	c #0E4C51",
"`n 	c #2C6569",
" o 	c #104E55",
".o 	c #104D54",
"+o 	c #0E4C52",
"@o 	c #0E4D53",
"#o 	c #0F4C53",
"$o 	c #104B53",
"%o 	c #0F4B53",
"&o 	c #0E4A52",
"*o 	c #0F4A52",
"=o 	c #104851",
"-o 	c #104751",
";o 	c #0F4750",
">o 	c #104650",
",o 	c #10454F",
"'o 	c #10434E",
")o 	c #10434F",
"!o 	c #0F4250",
"~o 	c #104251",
"{o 	c #0E4150",
"]o 	c #0F4251",
"^o 	c #0E4457",
"/o 	c #0F4458",
"(o 	c #0F4357",
"_o 	c #104357",
":o 	c #0E4155",
"<o 	c #114152",
"[o 	c #133E4E",
"}o 	c #0D3748",
"|o 	c #0D3849",
"1o 	c #0D3648",
"2o 	c #10354A",
"3o 	c #0E3449",
"4o 	c #0D3348",
"5o 	c #0D3247",
"6o 	c #0C3047",
"7o 	c #0D3249",
"8o 	c #0A3045",
"9o 	c #093148",
"0o 	c #0C324C",
"ao 	c #0B324D",
"bo 	c #0A314E",
"co 	c #0A304D",
"do 	c #0A2D49",
"eo 	c #092B45",
"fo 	c #092942",
"go 	c #082942",
"ho 	c #072841",
"io 	c #072740",
"jo 	c #072640",
"ko 	c #07263F",
"lo 	c #04223C",
"mo 	c #05223D",
"no 	c #011938",
"oo 	c #021A38",
"po 	c #08222F",
"qo 	c #0A2431",
"ro 	c #0D2C37",
"so 	c #0D2D38",
"to 	c #10323C",
"uo 	c #10333C",
"vo 	c #0E343D",
"wo 	c #0F353E",
"xo 	c #10373F",
"yo 	c #113941",
"zo 	c #103A41",
"Ao 	c #0E3C44",
"Bo 	c #0E3D45",
"Co 	c #0E3F46",
"Do 	c #0E4047",
"Eo 	c #0F4148",
"Fo 	c #0E4249",
"Go 	c #0E4349",
"Ho 	c #0E454A",
"Io 	c #0D454B",
"Jo 	c #0D464D",
"Ko 	c #0D474E",
"Lo 	c #0E494F",
"Mo 	c #0E4A4F",
"No 	c #0E4B50",
"Oo 	c #195058",
"Po 	c #0C4B53",
"Qo 	c #0C4B52",
"Ro 	c #0E4E55",
"So 	c #0B4C52",
"To 	c #0C4C54",
"Uo 	c #0A4D55",
"Vo 	c #094C54",
"Wo 	c #2A6369",
"Xo 	c #589197",
"Yo 	c #094952",
"Zo 	c #0E4951",
"`o 	c #0D4951",
" p 	c #0E4650",
".p 	c #0D464F",
"+p 	c #0C454E",
"@p 	c #0E444E",
"#p 	c #0D434D",
"$p 	c #2A5862",
"%p 	c #0F404E",
"&p 	c #0D3E4D",
"*p 	c #0F404F",
"=p 	c #10414F",
"-p 	c #0F4150",
";p 	c #0D4156",
">p 	c #0F4358",
",p 	c #0E4257",
"'p 	c #124559",
")p 	c #1C495A",
"!p 	c #2C5263",
"~p 	c #113A4C",
"{p 	c #0C374A",
"]p 	c #0C3649",
"^p 	c #0B3649",
"/p 	c #0C354A",
"(p 	c #0B3449",
"_p 	c #0A3347",
":p 	c #083146",
"<p 	c #0B2F45",
"[p 	c #0C3049",
"}p 	c #29485F",
"|p 	c #10354B",
"1p 	c #0D354B",
"2p 	c #0B3149",
"3p 	c #0B314B",
"4p 	c #0A314C",
"5p 	c #092F4A",
"6p 	c #082C47",
"7p 	c #082A44",
"8p 	c #0A2C45",
"9p 	c #072942",
"0p 	c #062841",
"ap 	c #062740",
"bp 	c #06263F",
"cp 	c #031E39",
"dp 	c #031C39",
"ep 	c #09213E",
"fp 	c #021B38",
"gp 	c #07212E",
"hp 	c #0C2B36",
"ip 	c #0C2C37",
"jp 	c #0E303A",
"kp 	c #0F323C",
"lp 	c #0F373F",
"mp 	c #0F3840",
"np 	c #0F3941",
"op 	c #0C3A43",
"pp 	c #0B3C43",
"qp 	c #0C3D44",
"rp 	c #0C3E45",
"sp 	c #0D3F47",
"tp 	c #0D4149",
"up 	c #0D414A",
"vp 	c #0C424A",
"wp 	c #0C434A",
"xp 	c #0B444B",
"yp 	c #0C464C",
"zp 	c #0C474D",
"Ap 	c #0B474D",
"Bp 	c #0B484D",
"Cp 	c #0C484E",
"Dp 	c #1E525C",
"Ep 	c #0F4953",
"Fp 	c #0B4A53",
"Gp 	c #0A4952",
"Hp 	c #18535B",
"Ip 	c #0A4B53",
"Jp 	c #0A4A53",
"Kp 	c #0C4B54",
"Lp 	c #0A4A52",
"Mp 	c #165058",
"Np 	c #0B4852",
"Op 	c #0C4751",
"Pp 	c #0C4851",
"Qp 	c #0C4750",
"Rp 	c #0C454F",
"Sp 	c #0C4650",
"Tp 	c #0B454F",
"Up 	c #0A434D",
"Vp 	c #0D4550",
"Wp 	c #0C434E",
"Xp 	c #0E414D",
"Yp 	c #0D3E4C",
"Zp 	c #0B3E51",
"`p 	c #0D4154",
" q 	c #0D4155",
".q 	c #0C4053",
"+q 	c #0A3D50",
"@q 	c #0F3F50",
"#q 	c #0B394B",
"$q 	c #0D364A",
"%q 	c #0C3549",
"&q 	c #0B344A",
"*q 	c #0A3349",
"=q 	c #0D364B",
"-q 	c #0E364B",
";q 	c #083147",
">q 	c #1C3D54",
",q 	c #10334C",
"'q 	c #062D44",
")q 	c #072F44",
"!q 	c #082D44",
"~q 	c #082D46",
"{q 	c #082D47",
"]q 	c #062A45",
"^q 	c #062842",
"/q 	c #052640",
"(q 	c #05263F",
"_q 	c #082941",
":q 	c #05253E",
"<q 	c #02203A",
"[q 	c #04213B",
"}q 	c #021D38",
"|q 	c #041D3A",
"1q 	c #102643",
"2q 	c #021A39",
"3q 	c #021C38",
"4q 	c #09202E",
"5q 	c #0B2230",
"6q 	c #092431",
"7q 	c #0D2834",
"8q 	c #0C2A35",
"9q 	c #0D2B35",
"0q 	c #0C2D36",
"aq 	c #0C2E38",
"bq 	c #0C2F39",
"cq 	c #0A2F3A",
"dq 	c #0B303B",
"eq 	c #0D333D",
"fq 	c #0E3640",
"gq 	c #0B353F",
"hq 	c #1A424D",
"iq 	c #0E3B45",
"jq 	c #0A3A46",
"kq 	c #0D3C47",
"lq 	c #3A626C",
"mq 	c #0A3C47",
"nq 	c #0D3F4A",
"oq 	c #0C3F4A",
"pq 	c #0A3F49",
"qq 	c #0A404A",
"rq 	c #0A414B",
"sq 	c #0A434C",
"tq 	c #0A444C",
"uq 	c #09454D",
"vq 	c #09474F",
"wq 	c #09484F",
"xq 	c #084750",
"yq 	c #0A4750",
"zq 	c #215760",
"Aq 	c #094851",
"Bq 	c #094951",
"Cq 	c #094A52",
"Dq 	c #1A545D",
"Eq 	c #094953",
"Fq 	c #0B4951",
"Gq 	c #094852",
"Hq 	c #094751",
"Iq 	c #0A4651",
"Jq 	c #094550",
"Kq 	c #09444F",
"Lq 	c #09444D",
"Mq 	c #1D505B",
"Nq 	c #1D4F5B",
"Oq 	c #0B4451",
"Pq 	c #09424E",
"Qq 	c #0A414D",
"Rq 	c #0B3F4D",
"Sq 	c #0A3E4C",
"Tq 	c #0E3F4E",
"Uq 	c #0A3B4A",
"Vq 	c #0A3D4C",
"Wq 	c #0A3D4E",
"Xq 	c #0B3C4F",
"Yq 	c #0B3A4F",
"Zq 	c #265167",
"`q 	c #08364B",
" r 	c #083548",
".r 	c #073447",
"+r 	c #0A3548",
"@r 	c #093447",
"#r 	c #093246",
"$r 	c #0A3146",
"%r 	c #0D3147",
"&r 	c #1B3A50",
"*r 	c #072D44",
"=r 	c #072C44",
"-r 	c #082C44",
";r 	c #082C45",
">r 	c #082C46",
",r 	c #072B45",
"'r 	c #062943",
")r 	c #173851",
"!r 	c #052840",
"~r 	c #05283E",
"{r 	c #0B2D47",
"]r 	c #052741",
"^r 	c #052843",
"/r 	c #062643",
"(r 	c #062542",
"_r 	c #052540",
":r 	c #052440",
"<r 	c #062440",
"[r 	c #05233F",
"}r 	c #04233F",
"|r 	c #03223E",
"1r 	c #04223E",
"2r 	c #0A2844",
"3r 	c #04213D",
"4r 	c #051E3C",
"5r 	c #1C304B",
"6r 	c #041F3C",
"7r 	c #011C39",
"8r 	c #001B38",
"9r 	c #0A212F",
"0r 	c #0B2C36",
"ar 	c #0B2D37",
"br 	c #0A2F3B",
"cr 	c #0B313C",
"dr 	c #0C323D",
"er 	c #0A333D",
"fr 	c #355761",
"gr 	c #0A3540",
"hr 	c #0A3743",
"ir 	c #083844",
"jr 	c #0F3C47",
"kr 	c #0C3E49",
"lr 	c #0A3D49",
"mr 	c #083D49",
"nr 	c #093F4B",
"or 	c #09404B",
"pr 	c #09424C",
"qr 	c #09434D",
"rr 	c #08434D",
"sr 	c #07434D",
"tr 	c #08444D",
"ur 	c #07464E",
"vr 	c #08474F",
"wr 	c #0E4851",
"xr 	c #2E6069",
"yr 	c #05464F",
"zr 	c #054951",
"Ar 	c #084C55",
"Br 	c #054953",
"Cr 	c #074851",
"Dr 	c #084651",
"Er 	c #074550",
"Fr 	c #08444F",
"Gr 	c #08434E",
"Hr 	c #194C57",
"Ir 	c #1B4C59",
"Jr 	c #073F4D",
"Kr 	c #285965",
"Lr 	c #063E4B",
"Mr 	c #073C4A",
"Nr 	c #083C4A",
"Or 	c #083B49",
"Pr 	c #073B49",
"Qr 	c #073B4A",
"Rr 	c #0A3B4C",
"Sr 	c #09394C",
"Tr 	c #06354B",
"Ur 	c #08374A",
"Vr 	c #063346",
"Wr 	c #083447",
"Xr 	c #083346",
"Yr 	c #083247",
"Zr 	c #073046",
"`r 	c #082F45",
" s 	c #082E44",
".s 	c #11354B",
"+s 	c #092E45",
"@s 	c #092E46",
"#s 	c #092D45",
"$s 	c #072B43",
"%s 	c #062A44",
"&s 	c #052943",
"*s 	c #042840",
"=s 	c #0B2B46",
"-s 	c #102D48",
";s 	c #062744",
">s 	c #173452",
",s 	c #13314C",
"'s 	c #02213D",
")s 	c #03203D",
"!s 	c #0D2441",
"~s 	c #071E3B",
"{s 	c #021D3A",
"]s 	c #092430",
"^s 	c #132A35",
"/s 	c #3D535C",
"(s 	c #0A2A35",
"_s 	c #0A2D39",
":s 	c #0B313D",
"<s 	c #0B343F",
"[s 	c #0A333E",
"}s 	c #083440",
"|s 	c #093643",
"1s 	c #073744",
"2s 	c #093945",
"3s 	c #083845",
"4s 	c #0A3B47",
"5s 	c #0A3C48",
"6s 	c #093C49",
"7s 	c #083D4A",
"8s 	c #0A404C",
"9s 	c #083F4B",
"0s 	c #08414C",
"as 	c #06414C",
"bs 	c #06424C",
"cs 	c #05444D",
"ds 	c #06454E",
"es 	c #06454F",
"fs 	c #05444E",
"gs 	c #04464F",
"hs 	c #054B55",
"is 	c #064E58",
"js 	c #074E58",
"ks 	c #06444F",
"ls 	c #05434E",
"ms 	c #07434E",
"ns 	c #08444E",
"os 	c #07424D",
"ps 	c #08424D",
"qs 	c #07404C",
"rs 	c #073F4C",
"ss 	c #063B4B",
"ts 	c #073C4C",
"us 	c #083C4C",
"vs 	c #073A4B",
"ws 	c #093B4C",
"xs 	c #063947",
"ys 	c #053947",
"zs 	c #063848",
"As 	c #063748",
"Bs 	c #063649",
"Cs 	c #053447",
"Ds 	c #053346",
"Es 	c #053246",
"Fs 	c #053145",
"Gs 	c #073147",
"Hs 	c #063046",
"Is 	c #052E44",
"Js 	c #072C43",
"Ks 	c #062C43",
"Ls 	c #0A2D44",
"Ms 	c #0B2E47",
"Ns 	c #032741",
"Os 	c #072944",
"Ps 	c #0D2C48",
"Qs 	c #0F2D48",
"Rs 	c #032441",
"Ss 	c #032443",
"Ts 	c #052541",
"Us 	c #031F3C",
"Vs 	c #06203E",
"Ws 	c #06203D",
"Xs 	c #051E3B",
"Ys 	c #041E3B",
"Zs 	c #011B38",
"`s 	c #132C37",
" t 	c #092936",
".t 	c #0A2C3A",
"+t 	c #092E3C",
"@t 	c #0A303C",
"#t 	c #0A303D",
"$t 	c #0A333F",
"%t 	c #093340",
"&t 	c #093542",
"*t 	c #083643",
"=t 	c #073745",
"-t 	c #083846",
";t 	c #083947",
">t 	c #093A48",
",t 	c #083B48",
"'t 	c #083C49",
")t 	c #083E4A",
"!t 	c #073E49",
"~t 	c #063F4A",
"{t 	c #06404B",
"]t 	c #05414B",
"^t 	c #04434C",
"/t 	c #04424D",
"(t 	c #054752",
"_t 	c #064D59",
":t 	c #044F5B",
"<t 	c #054F5B",
"[t 	c #064A56",
"}t 	c #04434F",
"|t 	c #04424F",
"1t 	c #04424E",
"2t 	c #05434F",
"3t 	c #05414E",
"4t 	c #04404D",
"5t 	c #06414E",
"6t 	c #043F4B",
"7t 	c #05414C",
"8t 	c #043E49",
"9t 	c #053E4A",
"0t 	c #053D4B",
"at 	c #053C4B",
"bt 	c #053A4A",
"ct 	c #05394A",
"dt 	c #053849",
"et 	c #043747",
"ft 	c #093C4C",
"gt 	c #043546",
"ht 	c #053547",
"it 	c #043447",
"jt 	c #053448",
"kt 	c #043247",
"lt 	c #043146",
"mt 	c #053147",
"nt 	c #052F47",
"ot 	c #063047",
"pt 	c #052D45",
"qt 	c #042C44",
"rt 	c #0A3047",
"st 	c #062B42",
"tt 	c #092D44",
"ut 	c #072B44",
"vt 	c #0C2E48",
"wt 	c #052842",
"xt 	c #032540",
"yt 	c #042643",
"zt 	c #042642",
"At 	c #072945",
"Bt 	c #022442",
"Ct 	c #01203C",
"Dt 	c #021F3B",
"Et 	c #0F2743",
"Ft 	c #0E2642",
"Gt 	c #031E3B",
"Ht 	c #0A2835",
"It 	c #092A38",
"Jt 	c #092B3A",
"Kt 	c #082D3B",
"Lt 	c #092F3D",
"Mt 	c #08313E",
"Nt 	c #083240",
"Ot 	c #083442",
"Pt 	c #073444",
"Qt 	c #063644",
"Rt 	c #073846",
"St 	c #073A48",
"Tt 	c #053B49",
"Ut 	c #043C49",
"Vt 	c #04404B",
"Wt 	c #03414C",
"Xt 	c #02404B",
"Yt 	c #044552",
"Zt 	c #054B58",
"`t 	c #024D5A",
" u 	c #024C5A",
".u 	c #044856",
"+u 	c #044250",
"@u 	c #03414E",
"#u 	c #043F4D",
"$u 	c #05404E",
"%u 	c #043D4D",
"&u 	c #033D4A",
"*u 	c #033C4C",
"=u 	c #043B4D",
"-u 	c #033B4C",
";u 	c #033A4B",
">u 	c #04394B",
",u 	c #03374A",
"'u 	c #03364A",
")u 	c #05364A",
"!u 	c #0A374B",
"~u 	c #0A3A4D",
"{u 	c #053549",
"]u 	c #033347",
"^u 	c #033246",
"/u 	c #023045",
"(u 	c #022F45",
"_u 	c #022F46",
":u 	c #022E45",
"<u 	c #0B324A",
"[u 	c #093149",
"}u 	c #052D46",
"|u 	c #052A42",
"1u 	c #062A42",
"2u 	c #052941",
"3u 	c #042842",
"4u 	c #12334C",
"5u 	c #052942",
"6u 	c #042640",
"7u 	c #032541",
"8u 	c #02243F",
"9u 	c #02243E",
"0u 	c #02233F",
"au 	c #001F3B",
"bu 	c #021F3C",
"cu 	c #041E3A",
"du 	c #0A202E",
"eu 	c #092230",
"fu 	c #0C2934",
"gu 	c #0A2734",
"hu 	c #082A37",
"iu 	c #082E3D",
"ju 	c #092F3E",
"ku 	c #072F3E",
"lu 	c #07313F",
"mu 	c #07323F",
"nu 	c #073442",
"ou 	c #093947",
"pu 	c #063745",
"qu 	c #043947",
"ru 	c #043A48",
"su 	c #043D49",
"tu 	c #043E4A",
"uu 	c #043F4A",
"vu 	c #033F4C",
"wu 	c #22535F",
"xu 	c #0D4654",
"yu 	c #064756",
"zu 	c #054856",
"Au 	c #044756",
"Bu 	c #034352",
"Cu 	c #034250",
"Du 	c #03404D",
"Eu 	c #04414E",
"Fu 	c #02404D",
"Gu 	c #023F4D",
"Hu 	c #033E4C",
"Iu 	c #043E4D",
"Ju 	c #043E4C",
"Ku 	c #2E6571",
"Lu 	c #08414E",
"Mu 	c #033D4B",
"Nu 	c #053B4B",
"Ou 	c #0A3A4C",
"Pu 	c #06384B",
"Qu 	c #043A4C",
"Ru 	c #104253",
"Su 	c #033649",
"Tu 	c #04354A",
"Uu 	c #033448",
"Vu 	c #174154",
"Wu 	c #043246",
"Xu 	c #043347",
"Yu 	c #023046",
"Zu 	c #033046",
"`u 	c #022D45",
" v 	c #1E4157",
".v 	c #052C45",
"+v 	c #022A43",
"@v 	c #032B43",
"#v 	c #042941",
"$v 	c #042942",
"%v 	c #032942",
"&v 	c #052742",
"*v 	c #042741",
"=v 	c #032640",
"-v 	c #042641",
";v 	c #042541",
">v 	c #03253F",
",v 	c #03243F",
"'v 	c #01223E",
")v 	c #02203C",
"!v 	c #011F3B",
"~v 	c #011E3A",
"{v 	c #031D3B",
"]v 	c #031D3A",
"^v 	c #0B2340",
"/v 	c #0A223F",
"(v 	c #011B39",
"_v 	c #001B39",
":v 	c #0A2230",
"<v 	c #092633",
"[v 	c #082936",
"}v 	c #092B39",
"|v 	c #082D3A",
"1v 	c #082E3C",
"2v 	c #082F3E",
"3v 	c #063240",
"4v 	c #053543",
"5v 	c #053644",
"6v 	c #053946",
"7v 	c #043846",
"8v 	c #033947",
"9v 	c #033B48",
"0v 	c #033C48",
"av 	c #033D49",
"bv 	c #033E4A",
"cv 	c #033F4A",
"dv 	c #023F4A",
"ev 	c #06404E",
"fv 	c #053F4D",
"gv 	c #03414F",
"hv 	c #01404F",
"iv 	c #024150",
"jv 	c #034251",
"kv 	c #003F4E",
"lv 	c #02404F",
"mv 	c #023E4B",
"nv 	c #2D5E6A",
"ov 	c #09414F",
"pv 	c #043C4B",
"qv 	c #063C4C",
"rv 	c #043B4B",
"sv 	c #255665",
"tv 	c #04384A",
"uv 	c #124254",
"vv 	c #023548",
"wv 	c #043448",
"xv 	c #023145",
"yv 	c #013044",
"zv 	c #012F45",
"Av 	c #053047",
"Bv 	c #043047",
"Cv 	c #063049",
"Dv 	c #022C44",
"Ev 	c #032B44",
"Fv 	c #012A42",
"Gv 	c #022B43",
"Hv 	c #042940",
"Iv 	c #042841",
"Jv 	c #022942",
"Kv 	c #012940",
"Lv 	c #042540",
"Mv 	c #03233D",
"Nv 	c #01233E",
"Ov 	c #00223D",
"Pv 	c #03213D",
"Qv 	c #031B39",
"Rv 	c #021C39",
"Sv 	c #0A222F",
"Tv 	c #082A38",
"Uv 	c #072C39",
"Vv 	c #072E3B",
"Wv 	c #06303E",
"Xv 	c #05313E",
"Yv 	c #164250",
"Zv 	c #043341",
"`v 	c #043543",
" w 	c #043845",
".w 	c #043745",
"+w 	c #144350",
"@w 	c #033946",
"#w 	c #023A47",
"$w 	c #023D4B",
"%w 	c #02404E",
"&w 	c #01404E",
"*w 	c #013F4C",
"=w 	c #023F4C",
"-w 	c #033C4A",
";w 	c #033B4A",
">w 	c #043A4B",
",w 	c #05394B",
"'w 	c #023A4B",
")w 	c #03384A",
"!w 	c #0E3F53",
"~w 	c #03364B",
"{w 	c #023549",
"]w 	c #033349",
"^w 	c #033348",
"/w 	c #023248",
"(w 	c #023247",
"_w 	c #053349",
":w 	c #032F46",
"<w 	c #14384F",
"[w 	c #204157",
"}w 	c #012B43",
"|w 	c #012942",
"1w 	c #032840",
"2w 	c #032841",
"3w 	c #012841",
"4w 	c #17364F",
"5w 	c #02223D",
"6w 	c #193750",
"7w 	c #00213C",
"8w 	c #021937",
"9w 	c #0E2744",
"0w 	c #041C3A",
"aw 	c #0B212F",
"bw 	c #09212F",
"cw 	c #082532",
"dw 	c #072734",
"ew 	c #072935",
"fw 	c #072938",
"gw 	c #062C39",
"hw 	c #062D3A",
"iw 	c #062D3C",
"jw 	c #062E3D",
"kw 	c #05303E",
"lw 	c #04303D",
"mw 	c #204A58",
"nw 	c #053141",
"ow 	c #043343",
"pw 	c #043544",
"qw 	c #033745",
"rw 	c #023644",
"sw 	c #073B48",
"tw 	c #033846",
"uw 	c #013744",
"vw 	c #003845",
"ww 	c #043A47",
"xw 	c #0E4350",
"yw 	c #033E49",
"zw 	c #043D4B",
"Aw 	c #073E4B",
"Bw 	c #033E4D",
"Cw 	c #013F4E",
"Dw 	c #003E4D",
"Ew 	c #003D4C",
"Fw 	c #013C4C",
"Gw 	c #023B4C",
"Hw 	c #0E4252",
"Iw 	c #114353",
"Jw 	c #013A4B",
"Kw 	c #02384B",
"Lw 	c #114254",
"Mw 	c #03394B",
"Nw 	c #023649",
"Ow 	c #04364B",
"Pw 	c #274F62",
"Qw 	c #05354A",
"Rw 	c #04344A",
"Sw 	c #063449",
"Tw 	c #023047",
"Uw 	c #06344B",
"Vw 	c #022E44",
"Ww 	c #022E43",
"Xw 	c #173D52",
"Yw 	c #1A3E55",
"Zw 	c #032D45",
"`w 	c #032C45",
" x 	c #163851",
".x 	c #042742",
"+x 	c #042844",
"@x 	c #012744",
"#x 	c #012742",
"$x 	c #0B2D48",
"%x 	c #062843",
"&x 	c #02233E",
"*x 	c #001E3A",
"=x 	c #011E3B",
"-x 	c #011A37",
";x 	c #091F2D",
">x 	c #062937",
",x 	c #052B38",
"'x 	c #052C39",
")x 	c #052C3B",
"!x 	c #062E3C",
"~x 	c #052F3D",
"{x 	c #06323F",
"]x 	c #093646",
"^x 	c #073545",
"/x 	c #033242",
"(x 	c #043443",
"_x 	c #053D4A",
":x 	c #013A47",
"<x 	c #023C48",
"[x 	c #023C4A",
"}x 	c #3C6975",
"|x 	c #134351",
"1x 	c #023D4C",
"2x 	c #003C4B",
"3x 	c #043849",
"4x 	c #194D5D",
"5x 	c #03374C",
"6x 	c #02364B",
"7x 	c #023A4E",
"8x 	c #033D50",
"9x 	c #043B4E",
"0x 	c #1D4558",
"ax 	c #113D51",
"bx 	c #053449",
"cx 	c #033249",
"dx 	c #08354C",
"ex 	c #1B4459",
"fx 	c #023147",
"gx 	c #012D44",
"hx 	c #022D42",
"ix 	c #073047",
"jx 	c #093048",
"kx 	c #042C45",
"lx 	c #002A42",
"mx 	c #022841",
"nx 	c #12354F",
"ox 	c #032641",
"px 	c #032642",
"qx 	c #002643",
"rx 	c #002742",
"sx 	c #022540",
"tx 	c #01223D",
"ux 	c #091E2C",
"vx 	c #082431",
"wx 	c #082533",
"xx 	c #082835",
"yx 	c #072836",
"zx 	c #062837",
"Ax 	c #052A38",
"Bx 	c #052B3A",
"Cx 	c #052D3C",
"Dx 	c #06313F",
"Ex 	c #083644",
"Fx 	c #3E7783",
"Gx 	c #205863",
"Hx 	c #063344",
"Ix 	c #033443",
"Jx 	c #013542",
"Kx 	c #013544",
"Lx 	c #023645",
"Mx 	c #023846",
"Nx 	c #033847",
"Ox 	c #033A47",
"Px 	c #013947",
"Qx 	c #013B48",
"Rx 	c #013B4A",
"Sx 	c #023B4A",
"Tx 	c #0B3F4E",
"Ux 	c #013D4C",
"Vx 	c #023E4D",
"Wx 	c #023E4E",
"Xx 	c #023D4D",
"Yx 	c #003C4C",
"Zx 	c #003B4B",
"`x 	c #013849",
" y 	c #013749",
".y 	c #023A4C",
"+y 	c #01374A",
"@y 	c #00364A",
"#y 	c #0D4256",
"$y 	c #043D50",
"%y 	c #043A4F",
"&y 	c #21495D",
"*y 	c #113C52",
"=y 	c #023148",
"-y 	c #033148",
";y 	c #032E45",
">y 	c #032D43",
",y 	c #022A42",
"'y 	c #042B43",
")y 	c #1E415A",
"!y 	c #0E324A",
"~y 	c #052B45",
"{y 	c #012741",
"]y 	c #032742",
"^y 	c #012641",
"/y 	c #012640",
"(y 	c #022641",
"_y 	c #01233D",
":y 	c #01233F",
"<y 	c #01213D",
"[y 	c #02203D",
"}y 	c #03203E",
"|y 	c #001E3B",
"1y 	c #001D3A",
"2y 	c #0C223D",
"3y 	c #0A1E2C",
"4y 	c #082432",
"5y 	c #092535",
"6y 	c #082837",
"7y 	c #072838",
"8y 	c #062839",
"9y 	c #052A3A",
"0y 	c #052A3C",
"ay 	c #052C3D",
"by 	c #052D3E",
"cy 	c #052D3D",
"dy 	c #0B3342",
"ey 	c #053040",
"fy 	c #4F8D98",
"gy 	c #36707C",
"hy 	c #053143",
"iy 	c #053443",
"jy 	c #033441",
"ky 	c #023343",
"ly 	c #013445",
"my 	c #023546",
"ny 	c #023647",
"oy 	c #003847",
"py 	c #013948",
"qy 	c #003849",
"ry 	c #285665",
"sy 	c #0F4152",
"ty 	c #033B4B",
"uy 	c #053B4D",
"vy 	c #0A4050",
"wy 	c #05394C",
"xy 	c #01394A",
"yy 	c #03394A",
"zy 	c #023849",
"Ay 	c #003748",
"By 	c #023648",
"Cy 	c #013449",
"Dy 	c #06384D",
"Ey 	c #05384D",
"Fy 	c #03354B",
"Gy 	c #043249",
"Hy 	c #05344A",
"Iy 	c #0A374C",
"Jy 	c #032D44",
"Ky 	c #0C3349",
"Ly 	c #052C42",
"My 	c #032C43",
"Ny 	c #032A43",
"Oy 	c #042943",
"Py 	c #032842",
"Qy 	c #022541",
"Ry 	c #012440",
"Sy 	c #0F304D",
"Ty 	c #01243E",
"Uy 	c #00223C",
"Vy 	c #00213D",
"Wy 	c #022240",
"Xy 	c #02203B",
"Yy 	c #03213C",
"Zy 	c #011F3D",
"`y 	c #011D3B",
" z 	c #001D3B",
".z 	c #001D39",
"+z 	c #001937",
"@z 	c #021A36",
"#z 	c #0F233F",
"$z 	c #091D2B",
"%z 	c #092231",
"&z 	c #072434",
"*z 	c #072736",
"=z 	c #062737",
"-z 	c #042A3C",
";z 	c #042B3C",
">z 	c #042C3D",
",z 	c #0E3343",
"'z 	c #224351",
")z 	c #052F3F",
"!z 	c #153E4D",
"~z 	c #0D3A4A",
"{z 	c #043042",
"]z 	c #073646",
"^z 	c #053140",
"/z 	c #023342",
"(z 	c #013344",
"_z 	c #023445",
":z 	c #003545",
"<z 	c #013646",
"[z 	c #023747",
"}z 	c #02394A",
"|z 	c #043649",
"1z 	c #144859",
"2z 	c #023B4D",
"3z 	c #3D828D",
"4z 	c #013548",
"5z 	c #013648",
"6z 	c #003547",
"7z 	c #023349",
"8z 	c #043148",
"9z 	c #29556F",
"0z 	c #04304A",
"az 	c #193F57",
"bz 	c #032C42",
"cz 	c #002D44",
"dz 	c #022741",
"ez 	c #022740",
"fz 	c #022642",
"gz 	c #00223E",
"hz 	c #01213F",
"iz 	c #0A2B47",
"jz 	c #01203D",
"kz 	c #02203F",
"lz 	c #021F3E",
"mz 	c #02203E",
"nz 	c #011E3C",
"oz 	c #011D3A",
"pz 	c #102945",
"qz 	c #011A35",
"rz 	c #0E213D",
"sz 	c #081F2D",
"tz 	c #072433",
"uz 	c #052B3D",
"vz 	c #072E3F",
"wz 	c #042E3E",
"xz 	c #063040",
"yz 	c #0D394A",
"zz 	c #0C3848",
"Az 	c #043140",
"Bz 	c #033343",
"Cz 	c #023344",
"Dz 	c #033445",
"Ez 	c #033546",
"Fz 	c #003344",
"Gz 	c #013545",
"Hz 	c #013546",
"Iz 	c #023749",
"Jz 	c #013748",
"Kz 	c #013848",
"Lz 	c #023A49",
"Mz 	c #023A4A",
"Nz 	c #063A4C",
"Oz 	c #023748",
"Pz 	c #05374B",
"Qz 	c #265364",
"Rz 	c #013446",
"Sz 	c #013447",
"Tz 	c #0A374A",
"Uz 	c #22495B",
"Vz 	c #013347",
"Wz 	c #003247",
"Xz 	c #023449",
"Yz 	c #013348",
"Zz 	c #003148",
"`z 	c #0D3A50",
" A 	c #012F46",
".A 	c #022E46",
"+A 	c #04344F",
"@A 	c #05344D",
"#A 	c #073049",
"$A 	c #11374D",
"%A 	c #022E42",
"&A 	c #042D44",
"*A 	c #022D44",
"=A 	c #042A44",
"-A 	c #15364F",
";A 	c #1E3D56",
">A 	c #01253F",
",A 	c #002540",
"'A 	c #022742",
")A 	c #00233F",
"!A 	c #012542",
"~A 	c #042744",
"{A 	c #032543",
"]A 	c #012241",
"^A 	c #02213E",
"/A 	c #0F2646",
"(A 	c #465C7A",
"_A 	c #021E3F",
":A 	c #001F3E",
"<A 	c #01203E",
"[A 	c #021938",
"}A 	c #021A37",
"|A 	c #021935",
"1A 	c #0E203C",
"2A 	c #072331",
"3A 	c #062635",
"4A 	c #062838",
"5A 	c #042939",
"6A 	c #062B3D",
"7A 	c #042D3D",
"8A 	c #052F3E",
"9A 	c #0C3645",
"0A 	c #063041",
"aA 	c #063242",
"bA 	c #062F42",
"cA 	c #013847",
"dA 	c #013A48",
"eA 	c #04394A",
"fA 	c #05374A",
"gA 	c #013647",
"hA 	c #053B4C",
"iA 	c #094051",
"jA 	c #013346",
"kA 	c #023246",
"lA 	c #003446",
"mA 	c #003347",
"nA 	c #003449",
"oA 	c #003348",
"pA 	c #013249",
"qA 	c #033047",
"rA 	c #013148",
"sA 	c #043147",
"tA 	c #002B41",
"uA 	c #042A43",
"vA 	c #042E45",
"wA 	c #173A51",
"xA 	c #13344D",
"yA 	c #022640",
"zA 	c #00253F",
"AA 	c #01243F",
"BA 	c #032845",
"CA 	c #042848",
"DA 	c #022545",
"EA 	c #012442",
"FA 	c #00213E",
"GA 	c #062340",
"HA 	c #021E3B",
"IA 	c #04213E",
"JA 	c #011F3C",
"KA 	c #001C3A",
"LA 	c #001736",
"MA 	c #011733",
"NA 	c #11233F",
"OA 	c #072333",
"PA 	c #052534",
"QA 	c #052636",
"RA 	c #052737",
"SA 	c #042838",
"TA 	c #03283A",
"UA 	c #17394C",
"VA 	c #063141",
"WA 	c #03303F",
"XA 	c #1E4C59",
"YA 	c #053043",
"ZA 	c #023143",
"`A 	c #033244",
" B 	c #023243",
".B 	c #0D3B4E",
"+B 	c #06374A",
"@B 	c #023547",
"#B 	c #326A78",
"$B 	c #07374B",
"%B 	c #023C4D",
"&B 	c #043B4C",
"*B 	c #023448",
"=B 	c #013245",
"-B 	c #013145",
";B 	c #013247",
">B 	c #013248",
",B 	c #013147",
"'B 	c #003047",
")B 	c #10374D",
"!B 	c #1B4056",
"~B 	c #012F44",
"{B 	c #022C43",
"]B 	c #012B45",
"^B 	c #012C45",
"/B 	c #355A6E",
"(B 	c #032B42",
"_B 	c #00243E",
":B 	c #00243F",
"<B 	c #012644",
"[B 	c #022647",
"}B 	c #032647",
"|B 	c #022543",
"1B 	c #01223F",
"2B 	c #021F3D",
"3B 	c #1B3451",
"4B 	c #06213F",
"5B 	c #092542",
"6B 	c #021F3A",
"7B 	c #011D3D",
"8B 	c #041F3D",
"9B 	c #021B3A",
"0B 	c #011736",
"aB 	c #051A39",
"bB 	c #031A37",
"cB 	c #031734",
"dB 	c #11223F",
"eB 	c #091F2F",
"fB 	c #0A2131",
"gB 	c #0A2233",
"hB 	c #082334",
"iB 	c #082434",
"jB 	c #062536",
"kB 	c #072738",
"lB 	c #072839",
"mB 	c #05293B",
"nB 	c #032838",
"oB 	c #04293B",
"pB 	c #022B3D",
"qB 	c #052E3F",
"rB 	c #022D3E",
"sB 	c #022E3E",
"tB 	c #022F3F",
"uB 	c #033040",
"vB 	c #033243",
"wB 	c #013042",
"xB 	c #013243",
"yB 	c #0B384C",
"zB 	c #063549",
"AB 	c #013547",
"BB 	c #033548",
"CB 	c #04364A",
"DB 	c #06394C",
"EB 	c #023646",
"FB 	c #02374A",
"GB 	c #023C4F",
"HB 	c #053C50",
"IB 	c #104055",
"JB 	c #02344A",
"KB 	c #003245",
"LB 	c #023044",
"MB 	c #033146",
"NB 	c #0D334B",
"OB 	c #083048",
"PB 	c #082D45",
"QB 	c #042B44",
"RB 	c #0A2D46",
"SB 	c #012541",
"TB 	c #032644",
"UB 	c #002341",
"VB 	c #00203D",
"WB 	c #001F39",
"XB 	c #012038",
"YB 	c #011F39",
"ZB 	c #031C3C",
"`B 	c #021C3A",
" C 	c #18304D",
".C 	c #406082",
"+C 	c #041F3F",
"@C 	c #011837",
"#C 	c #041936",
"$C 	c #031737",
"%C 	c #122340",
"&C 	c #091E2F",
"*C 	c #092030",
"=C 	c #0A2133",
"-C 	c #082233",
";C 	c #072536",
">C 	c #062637",
",C 	c #062738",
"'C 	c #05283A",
")C 	c #03293A",
"!C 	c #042A3B",
"~C 	c #062C3F",
"{C 	c #042C3E",
"]C 	c #032C3E",
"^C 	c #1B3E4E",
"/C 	c #0B3444",
"(C 	c #023042",
"_C 	c #012F41",
":C 	c #003243",
"<C 	c #0D3B4F",
"[C 	c #144255",
"}C 	c #01384C",
"|C 	c #02394D",
"1C 	c #023146",
"2C 	c #012F43",
"3C 	c #163D51",
"4C 	c #1D455A",
"5C 	c #143B51",
"6C 	c #184056",
"7C 	c #25465D",
"8C 	c #0B2F47",
"9C 	c #072A44",
"0C 	c #062A43",
"aC 	c #00233D",
"bC 	c #012441",
"cC 	c #022542",
"dC 	c #012340",
"eC 	c #021D3B",
"fC 	c #011E39",
"gC 	c #001E39",
"hC 	c #0B264B",
"iC 	c #03193A",
"jC 	c #031835",
"kC 	c #021736",
"lC 	c #051939",
"mC 	c #0F203D",
"nC 	c #081F2F",
"oC 	c #092032",
"pC 	c #052537",
"qC 	c #052637",
"rC 	c #04283A",
"sC 	c #052939",
"tC 	c #143648",
"uC 	c #0A3143",
"vC 	c #093142",
"wC 	c #042E3F",
"xC 	c #022E3F",
"yC 	c #012E40",
"zC 	c #002E40",
"AC 	c #022E41",
"BC 	c #113B4D",
"CC 	c #012F42",
"DC 	c #002F41",
"EC 	c #003142",
"FC 	c #003346",
"GC 	c #023447",
"HC 	c #023347",
"IC 	c #254E60",
"JC 	c #05364B",
"KC 	c #023348",
"LC 	c #022F44",
"MC 	c #183D50",
"NC 	c #053044",
"OC 	c #042E42",
"PC 	c #1F4056",
"QC 	c #082E46",
"RC 	c #022842",
"SC 	c #082B45",
"TC 	c #00233E",
"UC 	c #021E39",
"VC 	c #011E37",
"WC 	c #10274C",
"XC 	c #021735",
"YC 	c #011737",
"ZC 	c #0A1E3E",
"`C 	c #071E2E",
" D 	c #072132",
".D 	c #062435",
"+D 	c #052436",
"@D 	c #042739",
"#D 	c #032639",
"$D 	c #05293C",
"%D 	c #042A3D",
"&D 	c #03293C",
"*D 	c #032B3D",
"=D 	c #042D3F",
"-D 	c #042E40",
";D 	c #042F40",
">D 	c #002D40",
",D 	c #022F42",
"'D 	c #012E41",
")D 	c #002E41",
"!D 	c #013246",
"~D 	c #033447",
"{D 	c #023245",
"]D 	c #09364A",
"^D 	c #013146",
"/D 	c #013045",
"(D 	c #033145",
"_D 	c #033043",
":D 	c #012E43",
"<D 	c #032F44",
"[D 	c #052F44",
"}D 	c #032D42",
"|D 	c #042E43",
"1D 	c #032C41",
"2D 	c #002740",
"3D 	c #051D3B",
"4D 	c #081E39",
"5D 	c #061E39",
"6D 	c #041A3B",
"7D 	c #031837",
"8D 	c #021A3A",
"9D 	c #001936",
"0D 	c #011635",
"aD 	c #011838",
"bD 	c #021636",
"cD 	c #0F1F3C",
"dD 	c #081E2C",
"eD 	c #081E2E",
"fD 	c #062132",
"gD 	c #062232",
"hD 	c #052335",
"iD 	c #052739",
"jD 	c #022538",
"kD 	c #203F50",
"lD 	c #0A2C3F",
"mD 	c #042C3F",
"nD 	c #043144",
"oD 	c #043043",
"pD 	c #003041",
"qD 	c #013142",
"rD 	c #043449",
"sD 	c #023144",
"tD 	c #003044",
"uD 	c #002F43",
"vD 	c #033044",
"wD 	c #1F485B",
"xD 	c #032E44",
"yD 	c #0D354C",
"zD 	c #032C44",
"AD 	c #20455C",
"BD 	c #002841",
"CD 	c #396181",
"DD 	c #041D3F",
"ED 	c #051A38",
"FD 	c #011E38",
"GD 	c #001C39",
"HD 	c #01193A",
"ID 	c #011836",
"JD 	c #001836",
"KD 	c #011839",
"LD 	c #0A1D2D",
"MD 	c #0A1E2E",
"ND 	c #091C2D",
"OD 	c #081D2E",
"PD 	c #091F30",
"QD 	c #072031",
"RD 	c #072233",
"SD 	c #072335",
"TD 	c #062436",
"UD 	c #062537",
"VD 	c #06263A",
"WD 	c #042539",
"XD 	c #05273B",
"YD 	c #05283B",
"ZD 	c #06293C",
"`D 	c #04293C",
" E 	c #032C3D",
".E 	c #042D40",
"+E 	c #022D40",
"@E 	c #012D40",
"#E 	c #032E41",
"$E 	c #033045",
"%E 	c #013144",
"&E 	c #013043",
"*E 	c #032F45",
"=E 	c #1B4055",
"-E 	c #012C41",
";E 	c #022B42",
">E 	c #1C4055",
",E 	c #072E45",
"'E 	c #032A41",
")E 	c #042B42",
"!E 	c #032941",
"~E 	c #022840",
"{E 	c #0F2E48",
"]E 	c #12314B",
"^E 	c #031F3B",
"/E 	c #0D2945",
"(E 	c #0E314E",
"_E 	c #011D3C",
":E 	c #011D39",
"<E 	c #021D39",
"[E 	c #021635",
"}E 	c #0E1E3B",
"|E 	c #0A1C2D",
"1E 	c #0A1D2E",
"2E 	c #082031",
"3E 	c #072235",
"4E 	c #062539",
"5E 	c #05253A",
"6E 	c #04253A",
"7E 	c #04273B",
"8E 	c #3D5666",
"9E 	c #112E40",
"0E 	c #0F3042",
"aE 	c #062A3C",
"bE 	c #012C3D",
"cE 	c #022C3E",
"dE 	c #022D3F",
"eE 	c #012C3F",
"fE 	c #002C3F",
"gE 	c #062E42",
"hE 	c #093245",
"iE 	c #002E42",
"jE 	c #063045",
"kE 	c #042E44",
"lE 	c #012E44",
"mE 	c #0B3349",
"nE 	c #022C42",
"oE 	c #042C42",
"pE 	c #022A40",
"qE 	c #072E44",
"rE 	c #052A41",
"sE 	c #0C2F46",
"tE 	c #042A41",
"uE 	c #02253E",
"vE 	c #03233E",
"wE 	c #00203B",
"xE 	c #03203C",
"yE 	c #0B213F",
"zE 	c #021634",
"AE 	c #0E1F3B",
"BE 	c #0A1B2D",
"CE 	c #0B1E2F",
"DE 	c #071F30",
"EE 	c #062031",
"FE 	c #062134",
"GE 	c #052439",
"HE 	c #032539",
"IE 	c #274051",
"JE 	c #092A3D",
"KE 	c #223F50",
"LE 	c #153445",
"ME 	c #002B3E",
"NE 	c #002D3F",
"OE 	c #042D41",
"PE 	c #032D40",
"QE 	c #002E43",
"RE 	c #013046",
"SE 	c #22495D",
"TE 	c #093348",
"UE 	c #032E42",
"VE 	c #012C43",
"WE 	c #052E43",
"XE 	c #032B40",
"YE 	c #022B41",
"ZE 	c #032B41",
"`E 	c #032A40",
" F 	c #072B42",
".F 	c #12344B",
"+F 	c #032940",
"@F 	c #052B42",
"#F 	c #062A41",
"$F 	c #19374D",
"%F 	c #042740",
"&F 	c #092C44",
"*F 	c #02233D",
"=F 	c #02243D",
"-F 	c #122E49",
";F 	c #021E3A",
">F 	c #031A39",
",F 	c #011534",
"'F 	c #091D2E",
")F 	c #052234",
"!F 	c #042335",
"~F 	c #0A283C",
"{F 	c #203B4F",
"]F 	c #022539",
"^F 	c #012539",
"/F 	c #03283B",
"(F 	c #04293D",
"_F 	c #032B3E",
":F 	c #264D5E",
"<F 	c #032D3F",
"[F 	c #022B3F",
"}F 	c #012C44",
"|F 	c #033144",
"1F 	c #052C44",
"2F 	c #042B40",
"3F 	c #092F44",
"4F 	c #012A40",
"5F 	c #04293F",
"6F 	c #02283F",
"7F 	c #01273E",
"8F 	c #04273F",
"9F 	c #01253D",
"0F 	c #052940",
"aF 	c #01233C",
"bF 	c #0A2641",
"cF 	c #001837",
"dF 	c #001635",
"eF 	c #0F1F3B",
"fF 	c #062335",
"gF 	c #06253A",
"hF 	c #04273C",
"iF 	c #3E5D6D",
"jF 	c #3B5969",
"kF 	c #02273C",
"lF 	c #002A3D",
"mF 	c #022A3D",
"nF 	c #052C40",
"oF 	c #012B3E",
"pF 	c #032F47",
"qF 	c #033248",
"rF 	c #123B4F",
"sF 	c #0D374B",
"tF 	c #002D42",
"uF 	c #052C43",
"vF 	c #13374B",
"wF 	c #082E43",
"xF 	c #15384C",
"yF 	c #082C43",
"zF 	c #0D3046",
"AF 	c #02273E",
"BF 	c #02263C",
"CF 	c #02263D",
"DF 	c #01243B",
"EF 	c #00233A",
"FF 	c #00223A",
"GF 	c #0B2742",
"HF 	c #0D2844",
"IF 	c #081C2D",
"JF 	c #061F30",
"KF 	c #052438",
"LF 	c #042438",
"MF 	c #04263A",
"NF 	c #03253B",
"OF 	c #04283C",
"PF 	c #05293E",
"QF 	c #042A3E",
"RF 	c #02293D",
"SF 	c #042A3F",
"TF 	c #03293E",
"UF 	c #032B3F",
"VF 	c #022A3E",
"WF 	c #012B3F",
"XF 	c #012C40",
"YF 	c #022F47",
"ZF 	c #012D43",
"`F 	c #153A4F",
" G 	c #173C51",
".G 	c #032E43",
"+G 	c #002B3F",
"@G 	c #012D41",
"#G 	c #022D41",
"$G 	c #022C40",
"%G 	c #0F344A",
"&G 	c #0F3349",
"*G 	c #04293E",
"=G 	c #214255",
"-G 	c #02293F",
";G 	c #113146",
">G 	c #052A40",
",G 	c #03283F",
"'G 	c #03273E",
")G 	c #02243B",
"!G 	c #01233B",
"~G 	c #01213C",
"{G 	c #01203B",
"]G 	c #02213C",
"^G 	c #001A38",
"/G 	c #011634",
"(G 	c #0B1C2E",
"_G 	c #081C2C",
":G 	c #061E2F",
"<G 	c #062133",
"[G 	c #062234",
"}G 	c #042337",
"|G 	c #042538",
"1G 	c #042639",
"2G 	c #022639",
"3G 	c #012639",
"4G 	c #0B2E41",
"5G 	c #183A4C",
"6G 	c #03293D",
"7G 	c #02283D",
"8G 	c #02293E",
"9G 	c #012A3E",
"0G 	c #00283C",
"aG 	c #012B40",
"bG 	c #012D42",
"cG 	c #022C41",
"dG 	c #224459",
"eG 	c #052D43",
"fG 	c #072F45",
"gG 	c #12394D",
"hG 	c #0D364C",
"iG 	c #03293F",
"jG 	c #042A40",
"kG 	c #01273B",
"lG 	c #01273D",
"mG 	c #03273C",
"nG 	c #02273A",
"oG 	c #03263D",
"pG 	c #02263E",
"qG 	c #00223B",
"rG 	c #01223B",
"sG 	c #02223B",
"tG 	c #01213A",
"uG 	c #002039",
"vG 	c #012039",
"wG 	c #001F38",
"xG 	c #011533",
"yG 	c #061D2E",
"zG 	c #061E30",
"AG 	c #052032",
"BG 	c #052538",
"CG 	c #042437",
"DG 	c #03263A",
"EG 	c #052A3D",
"FG 	c #04283B",
"GG 	c #02273B",
"HG 	c #103247",
"IG 	c #103348",
"JG 	c #01283D",
"KG 	c #01293D",
"LG 	c #012A3F",
"MG 	c #062F44",
"NG 	c #062F45",
"OG 	c #1D3E52",
"PG 	c #183A4F",
"QG 	c #042D43",
"RG 	c #0D3148",
"SG 	c #03273D",
"TG 	c #0A2C43",
"UG 	c #01253A",
"VG 	c #02263B",
"WG 	c #02253D",
"XG 	c #03213B",
"YG 	c #001E38",
"ZG 	c #001D37",
"`G 	c #001D38",
" H 	c #011835",
".H 	c #091A2C",
"+H 	c #071C2D",
"@H 	c #061C2D",
"#H 	c #071D2F",
"$H 	c #061F32",
"%H 	c #052133",
"&H 	c #062337",
"*H 	c #032437",
"=H 	c #032336",
"-H 	c #09293C",
";H 	c #022338",
">H 	c #03273A",
",H 	c #03293B",
"'H 	c #294558",
")H 	c #04283E",
"!H 	c #01273C",
"~H 	c #03283D",
"{H 	c #022A41",
"]H 	c #032C40",
"^H 	c #042D42",
"/H 	c #022C3F",
"(H 	c #093046",
"_H 	c #02253B",
":H 	c #04243B",
"<H 	c #0C2B43",
"[H 	c #02243C",
"}H 	c #03233C",
"|H 	c #03223B",
"1H 	c #02213A",
"2H 	c #021F39",
"3H 	c #021837",
"4H 	c #021632",
"5H 	c #0F1F3A",
"6H 	c #091B2D",
"7H 	c #061B2C",
"8H 	c #071D30",
"9H 	c #071E32",
"0H 	c #061F33",
"aH 	c #052237",
"bH 	c #032338",
"cH 	c #022438",
"dH 	c #03273B",
"eH 	c #03263B",
"fH 	c #19364A",
"gH 	c #05283D",
"hH 	c #0A2D42",
"iH 	c #04283D",
"jH 	c #0A3145",
"kH 	c #00293D",
"lH 	c #10344A",
"mH 	c #0B3046",
"nH 	c #103349",
"oH 	c #03273F",
"pH 	c #072A42",
"qH 	c #04283F",
"rH 	c #03263E",
"sH 	c #03263F",
"tH 	c #04273E",
"uH 	c #02243A",
"vH 	c #042439",
"wH 	c #08263D",
"xH 	c #18334A",
"yH 	c #02233C",
"zH 	c #011D38",
"AH 	c #011F3A",
"BH 	c #001733",
"CH 	c #021631",
"DH 	c #0E1F38",
"EH 	c #071B2D",
"FH 	c #051B2C",
"GH 	c #061C2E",
"HH 	c #081E32",
"IH 	c #062237",
"JH 	c #032236",
"KH 	c #032339",
"LH 	c #04273D",
"MH 	c #03263C",
"NH 	c #01263C",
"OH 	c #02273D",
"PH 	c #092A41",
"QH 	c #1C3B52",
"RH 	c #03283E",
"SH 	c #0D3347",
"TH 	c #01293E",
"UH 	c #03253D",
"VH 	c #04263F",
"WH 	c #113148",
"XH 	c #04263E",
"YH 	c #06253D",
"ZH 	c #0F2B44",
"`H 	c #041F39",
" I 	c #05203A",
".I 	c #021E3C",
"+I 	c #041938",
"@I 	c #0E223F",
"#I 	c #001735",
"$I 	c #011833",
"%I 	c #021731",
"&I 	c #0F1F38",
"*I 	c #08192B",
"=I 	c #071A2D",
"-I 	c #081B2E",
";I 	c #081B2F",
">I 	c #213143",
",I 	c #15273A",
"'I 	c #071D32",
")I 	c #051D32",
"!I 	c #051E32",
"~I 	c #062135",
"{I 	c #042035",
"]I 	c #112C3F",
"^I 	c #082639",
"/I 	c #032235",
"(I 	c #032439",
"_I 	c #04233C",
":I 	c #002639",
"<I 	c #01253B",
"[I 	c #02253A",
"}I 	c #0E2F42",
"|I 	c #06293D",
"1I 	c #03253E",
"2I 	c #05253D",
"3I 	c #05253C",
"4I 	c #06263D",
"5I 	c #03243D",
"6I 	c #03243C",
"7I 	c #05253B",
"8I 	c #06253B",
"9I 	c #05233B",
"0I 	c #05243D",
"aI 	c #223950",
"bI 	c #05223B",
"cI 	c #042038",
"dI 	c #031F38",
"eI 	c #031F37",
"fI 	c #0D2640",
"gI 	c #001A35",
"hI 	c #011834",
"iI 	c #011935",
"jI 	c #001737",
"kI 	c #001833",
"lI 	c #011734",
"mI 	c #011531",
"nI 	c #031732",
"oI 	c #091B2F",
"pI 	c #061A2E",
"qI 	c #0B1F33",
"rI 	c #071C31",
"sI 	c #061C31",
"tI 	c #041C30",
"uI 	c #072236",
"vI 	c #062136",
"wI 	c #052136",
"xI 	c #072337",
"yI 	c #1B2F45",
"zI 	c #32475D",
"AI 	c #05243A",
"BI 	c #113144",
"CI 	c #07293D",
"DI 	c #05273D",
"EI 	c #05293F",
"FI 	c #06283D",
"GI 	c #1C3C50",
"HI 	c #05273E",
"II 	c #092B42",
"JI 	c #133147",
"KI 	c #05263D",
"LI 	c #03233A",
"MI 	c #05233C",
"NI 	c #04233B",
"OI 	c #1B334D",
"PI 	c #08243E",
"QI 	c #04223B",
"RI 	c #05223A",
"SI 	c #052139",
"TI 	c #021B36",
"UI 	c #061F3A",
"VI 	c #0C2846",
"WI 	c #011A36",
"XI 	c #001834",
"YI 	c #001633",
"ZI 	c #001531",
"`I 	c #041833",
" J 	c #081A2E",
".J 	c #091C30",
"+J 	c #051B30",
"@J 	c #041C31",
"#J 	c #052035",
"$J 	c #072237",
"%J 	c #0A2439",
"&J 	c #1A3348",
"*J 	c #06243A",
"=J 	c #0C3048",
"-J 	c #0D3149",
";J 	c #04253B",
">J 	c #0D2C3F",
",J 	c #0C2E43",
"'J 	c #06293F",
")J 	c #133248",
"!J 	c #09283E",
"~J 	c #042338",
"{J 	c #072339",
"]J 	c #052339",
"^J 	c #253D56",
"/J 	c #0E2942",
"(J 	c #06223A",
"_J 	c #041F37",
":J 	c #021D36",
"<J 	c #031D37",
"[J 	c #031C36",
"}J 	c #021B35",
"|J 	c #031F3D",
"1J 	c #001734",
"2J 	c #001632",
"3J 	c #081A2D",
"4J 	c #051A2F",
"5J 	c #061B30",
"6J 	c #051D31",
"7J 	c #041D31",
"8J 	c #062034",
"9J 	c #062035",
"0J 	c #042136",
"aJ 	c #022335",
"bJ 	c #0A2F45",
"cJ 	c #3E7086",
"dJ 	c #3C7087",
"eJ 	c #0D3048",
"fJ 	c #07283C",
"gJ 	c #03243B",
"hJ 	c #04253C",
"iJ 	c #0A2D43",
"jJ 	c #092B43",
"kJ 	c #08293E",
"lJ 	c #07273B",
"mJ 	c #06273D",
"nJ 	c #08293F",
"oJ 	c #06273E",
"pJ 	c #06263C",
"qJ 	c #07273C",
"rJ 	c #06263B",
"sJ 	c #08283E",
"tJ 	c #07263B",
"uJ 	c #06233B",
"vJ 	c #062239",
"wJ 	c #052138",
"xJ 	c #08243A",
"yJ 	c #052038",
"zJ 	c #051F38",
"AJ 	c #041E37",
"BJ 	c #021D35",
"CJ 	c #031D36",
"DJ 	c #021C35",
"EJ 	c #021C36",
"FJ 	c #031E3A",
"GJ 	c #001934",
"HJ 	c #021733",
"IJ 	c #011633",
"JJ 	c #021835",
"KJ 	c #021734",
"LJ 	c #001532",
"MJ 	c #072036",
"NJ 	c #041F34",
"OJ 	c #032238",
"PJ 	c #092C45",
"QJ 	c #3A6B85",
"RJ 	c #386C85",
"SJ 	c #0B2D45",
"TJ 	c #04263C",
"UJ 	c #0D2E45",
"VJ 	c #11314A",
"WJ 	c #062840",
"XJ 	c #06273C",
"YJ 	c #06273A",
"ZJ 	c #07263D",
"`J 	c #07273D",
" K 	c #07263C",
".K 	c #062439",
"+K 	c #07233B",
"@K 	c #072239",
"#K 	c #062137",
"$K 	c #052037",
"%K 	c #062238",
"&K 	c #051D37",
"*K 	c #051E38",
"=K 	c #011C3A",
"-K 	c #041733",
";K 	c #061935",
">K 	c #011532",
",K 	c #011632",
"'K 	c #07192C",
")K 	c #091A2E",
"!K 	c #071A2E",
"~K 	c #051C31",
"{K 	c #061D32",
"]K 	c #061F34",
"^K 	c #062036",
"/K 	c #122B40",
"(K 	c #052137",
"_K 	c #082338",
":K 	c #0C2C44",
"<K 	c #0C2D44",
"[K 	c #04233A",
"}K 	c #1C374B",
"|K 	c #04243A",
"1K 	c #05263C",
"2K 	c #05263B",
"3K 	c #0A2840",
"4K 	c #17334A",
"5K 	c #06273F",
"6K 	c #0B2840",
"7K 	c #1E3750",
"8K 	c #0F2C47",
"9K 	c #06243D",
"0K 	c #09253B",
"aK 	c #09243A",
"bK 	c #09233A",
"cK 	c #072439",
"dK 	c #0A273C",
"eK 	c #09263E",
"fK 	c #08223A",
"gK 	c #08233C",
"hK 	c #08243D",
"iK 	c #08223C",
"jK 	c #072038",
"kK 	c #061F37",
"lK 	c #061F36",
"mK 	c #051E35",
"nK 	c #041D35",
"oK 	c #051D35",
"pK 	c #061D36",
"qK 	c #0D243C",
"rK 	c #061C36",
"sK 	c #051B35",
"tK 	c #031934",
"uK 	c #041A35",
"vK 	c #011934",
"wK 	c #011933",
"xK 	c #001933",
"yK 	c #001832",
"zK 	c #081A37",
"AK 	c #253650",
"BK 	c #011431",
"CK 	c #021533",
"DK 	c #021532",
"EK 	c #08192D",
"FK 	c #071B2F",
"GK 	c #062138",
"HK 	c #092539",
"IK 	c #09283C",
"JK 	c #07253B",
"KK 	c #133046",
"LK 	c #06253C",
"MK 	c #08263B",
"NK 	c #09273D",
"OK 	c #07253A",
"PK 	c #08243C",
"QK 	c #08253C",
"RK 	c #09253C",
"SK 	c #223C56",
"TK 	c #092339",
"UK 	c #0A223A",
"VK 	c #0A2339",
"WK 	c #092439",
"XK 	c #07243A",
"YK 	c #072238",
"ZK 	c #09243D",
"`K 	c #082039",
" L 	c #081F37",
".L 	c #071E36",
"+L 	c #061E36",
"@L 	c #061D35",
"#L 	c #071D35",
"$L 	c #051C34",
"%L 	c #061B36",
"&L 	c #041934",
"*L 	c #031935",
"=L 	c #031A35",
"-L 	c #021A34",
";L 	c #001731",
">L 	c #011832",
",L 	c #031633",
"'L 	c #031634",
")L 	c #021432",
"!L 	c #011432",
"~L 	c #07182C",
"{L 	c #051E31",
"]L 	c #052033",
"^L 	c #052034",
"/L 	c #072138",
"(L 	c #0C243D",
"_L 	c #193048",
":L 	c #072338",
"<L 	c #153246",
"[L 	c #052338",
"}L 	c #052238",
"|L 	c #0B283D",
"1L 	c #062338",
"2L 	c #062339",
"3L 	c #08253A",
"4L 	c #08253B",
"5L 	c #0D273E",
"6L 	c #082339",
"7L 	c #0A253B",
"8L 	c #0F293F",
"9L 	c #0C273D",
"0L 	c #0B2541",
"aL 	c #0A243C",
"bL 	c #0B223A",
"cL 	c #0B2239",
"dL 	c #0C2238",
"eL 	c #0A223B",
"fL 	c #08213A",
"gL 	c #09223B",
"hL 	c #09243E",
"iL 	c #0A2540",
"jL 	c #0B2540",
"kL 	c #0A243F",
"lL 	c #092039",
"mL 	c #091F37",
"nL 	c #0A2038",
"oL 	c #081E36",
"pL 	c #061C34",
"qL 	c #061C35",
"rL 	c #061B34",
"sL 	c #071C35",
"tL 	c #051A34",
"uL 	c #051934",
"vL 	c #0B1F39",
"wL 	c #021833",
"xL 	c #011732",
"yL 	c #021832",
"zL 	c #031933",
"AL 	c #021834",
"BL 	c #001431",
"CL 	c #031533",
"DL 	c #07192D",
"EL 	c #071B30",
"FL 	c #061E32",
"GL 	c #041F31",
"HL 	c #052036",
"IL 	c #072137",
"JL 	c #08233A",
"KL 	c #082239",
"LL 	c #173045",
"ML 	c #09243B",
"NL 	c #0C243C",
"OL 	c #0B233B",
"PL 	c #09233B",
"QL 	c #07243C",
"RL 	c #0A233B",
"SL 	c #1B324C",
"TL 	c #0D243E",
"UL 	c #0A2239",
"VL 	c #0D223A",
"WL 	c #0D2237",
"XL 	c #102439",
"YL 	c #0D233A",
"ZL 	c #0D2239",
"`L 	c #0B243E",
" M 	c #0B2440",
".M 	c #0A233F",
"+M 	c #0A1F39",
"@M 	c #091D36",
"#M 	c #081C35",
"$M 	c #071B34",
"%M 	c #081D35",
"&M 	c #061A33",
"*M 	c #051A33",
"=M 	c #061A34",
"-M 	c #061A35",
";M 	c #031833",
">M 	c #011631",
",M 	c #001432",
"'M 	c #051E33",
")M 	c #11283E",
"!M 	c #082137",
"~M 	c #051F36",
"{M 	c #092139",
"]M 	c #092239",
"^M 	c #0A233A",
"/M 	c #0A243A",
"(M 	c #0A243B",
"_M 	c #0F263E",
":M 	c #162C47",
"<M 	c #152A42",
"[M 	c #0E2339",
"}M 	c #0D243B",
"|M 	c #0C223B",
"1M 	c #0E2236",
"2M 	c #0B2237",
"3M 	c #0C2339",
"4M 	c #0C2440",
"5M 	c #0A213D",
"6M 	c #0C1F3A",
"7M 	c #0D1F39",
"8M 	c #0A1C36",
"9M 	c #0A1D36",
"0M 	c #051A32",
"aM 	c #041931",
"bM 	c #041932",
"cM 	c #041A32",
"dM 	c #021633",
"eM 	c #071937",
"fM 	c #011331",
"gM 	c #001331",
"hM 	c #06182C",
"iM 	c #06192E",
"jM 	c #061A2F",
"kM 	c #061C32",
"lM 	c #061D34",
"mM 	c #051D34",
"nM 	c #11263D",
"oM 	c #061E35",
"pM 	c #061F35",
"qM 	c #082037",
"rM 	c #0F273E",
"sM 	c #062037",
"tM 	c #0E273E",
"uM 	c #082238",
"vM 	c #092138",
"wM 	c #09223A",
"xM 	c #09263D",
"yM 	c #07253D",
"zM 	c #3E6070",
"AM 	c #0D263D",
"BM 	c #122940",
"CM 	c #0B243C",
"DM 	c #0D2339",
"EM 	c #0C243A",
"FM 	c #0D2439",
"GM 	c #0F233A",
"HM 	c #0D233B",
"IM 	c #0E2238",
"JM 	c #0F243B",
"KM 	c #0D2238",
"LM 	c #465A70",
"MM 	c #122841",
"NM 	c #0C233E",
"OM 	c #0C243F",
"PM 	c #0C223E",
"QM 	c #0B1E38",
"RM 	c #14253D",
"SM 	c #0C1E38",
"TM 	c #0B1D36",
"UM 	c #0A1C35",
"VM 	c #192A42",
"WM 	c #091C34",
"XM 	c #091B34",
"YM 	c #081A33",
"ZM 	c #061A32",
"`M 	c #031831",
" N 	c #071A34",
".N 	c #061934",
"+N 	c #041732",
"@N 	c #041731",
"#N 	c #031630",
"$N 	c #031731",
"%N 	c #071B37",
"&N 	c #031632",
"*N 	c #081B37",
"=N 	c #021531",
"-N 	c #001330",
";N 	c #001430",
">N 	c #011430",
",N 	c #021430",
"'N 	c #09182D",
")N 	c #08192F",
"!N 	c #081A30",
"~N 	c #071A2F",
"{N 	c #071D34",
"]N 	c #091F36",
"^N 	c #072034",
"/N 	c #071F36",
"(N 	c #193047",
"_N 	c #082139",
":N 	c #082038",
"<N 	c #132E44",
"[N 	c #0E2540",
"}N 	c #092340",
"|N 	c #234A5E",
"1N 	c #0B233C",
"2N 	c #132842",
"3N 	c #0F253C",
"4N 	c #0F253A",
"5N 	c #0F2439",
"6N 	c #102338",
"7N 	c #102339",
"8N 	c #10243A",
"9N 	c #0F233B",
"0N 	c #11253C",
"aN 	c #0E233A",
"bN 	c #0E223A",
"cN 	c #0E233B",
"dN 	c #0F213A",
"eN 	c #0E2038",
"fN 	c #0F2138",
"gN 	c #0C1F37",
"hN 	c #0C1E36",
"iN 	c #0D1D36",
"jN 	c #0C1C35",
"kN 	c #0B1B34",
"lN 	c #0A1A33",
"mN 	c #091932",
"nN 	c #081933",
"oN 	c #091A34",
"pN 	c #0C1C38",
"qN 	c #061733",
"rN 	c #061732",
"sN 	c #051630",
"tN 	c #04162E",
"uN 	c #031730",
"vN 	c #011530",
"wN 	c #01152F",
"xN 	c #00142F",
"yN 	c #00142E",
"zN 	c #01142D",
"AN 	c #02142E",
"BN 	c #081E35",
"CN 	c #071E33",
"DN 	c #061E33",
"EN 	c #071F37",
"FN 	c #122B41",
"GN 	c #092238",
"HN 	c #0A2238",
"IN 	c #0B2339",
"JN 	c #0B253A",
"KN 	c #0F243A",
"LN 	c #0B243A",
"MN 	c #112840",
"NN 	c #122944",
"ON 	c #172D46",
"PN 	c #11283F",
"QN 	c #10263E",
"RN 	c #182D45",
"SN 	c #0F2338",
"TN 	c #102438",
"UN 	c #122439",
"VN 	c #122339",
"WN 	c #122438",
"XN 	c #122338",
"YN 	c #102237",
"ZN 	c #10233A",
"`N 	c #102239",
" O 	c #102139",
".O 	c #101F38",
"+O 	c #0F1E35",
"@O 	c #112036",
"#O 	c #0E1E34",
"$O 	c #0D1D35",
"%O 	c #0C1C34",
"&O 	c #0F1E37",
"*O 	c #081831",
"=O 	c #132139",
"-O 	c #061730",
";O 	c #081934",
">O 	c #071832",
",O 	c #061731",
"'O 	c #051730",
")O 	c #041730",
"!O 	c #031631",
"~O 	c #021530",
"{O 	c #02152E",
"]O 	c #03162F",
"^O 	c #08172C",
"/O 	c #081B30",
"(O 	c #071C32",
"_O 	c #091E36",
":O 	c #081E33",
"<O 	c #071F34",
"[O 	c #072037",
"}O 	c #082138",
"|O 	c #092137",
"1O 	c #0B2138",
"2O 	c #0C2239",
"3O 	c #0C2237",
"4O 	c #0D2338",
"5O 	c #0F2238",
"6O 	c #11243A",
"7O 	c #112B41",
"8O 	c #0F253E",
"9O 	c #112942",
"0O 	c #11273E",
"aO 	c #13273F",
"bO 	c #122539",
"cO 	c #14263A",
"dO 	c #142539",
"eO 	c #132438",
"fO 	c #132437",
"gO 	c #122235",
"hO 	c #132336",
"iO 	c #112134",
"jO 	c #112237",
"kO 	c #17263B",
"lO 	c #101F35",
"mO 	c #121F35",
"nO 	c #112035",
"oO 	c #0F2034",
"pO 	c #102034",
"qO 	c #101F34",
"rO 	c #111E34",
"sO 	c #0F1C33",
"tO 	c #0F1C32",
"uO 	c #0B1A32",
"vO 	c #0C1B33",
"wO 	c #0D1C34",
"xO 	c #0A1932",
"yO 	c #091A33",
"zO 	c #071831",
"AO 	c #071731",
"BO 	c #05172F",
"CO 	c #051631",
"DO 	c #051632",
"EO 	c #031430",
"FO 	c #02132F",
"GO 	c #0D1D39",
"HO 	c #03132D",
"IO 	c #03142D",
"JO 	c #04152F",
"KO 	c #03132F",
"LO 	c #142340",
"MO 	c #021232",
"NO 	c #01142E",
"OO 	c #03142E",
"PO 	c #07162B",
"QO 	c #07172C",
"RO 	c #07192F",
"SO 	c #081B31",
"TO 	c #081D32",
"UO 	c #081D34",
"VO 	c #081C34",
"WO 	c #091E33",
"XO 	c #091F33",
"YO 	c #082135",
"ZO 	c #0A2037",
"`O 	c #0A2036",
" P 	c #0B2137",
".P 	c #0E2439",
"+P 	c #0E2338",
"@P 	c #10233B",
"#P 	c #11273D",
"$P 	c #12253B",
"%P 	c #14273F",
"&P 	c #132841",
"*P 	c #132940",
"=P 	c #12263E",
"-P 	c #12273C",
";P 	c #18293C",
">P 	c #132237",
",P 	c #142336",
"'P 	c #142436",
")P 	c #142435",
"!P 	c #152434",
"~P 	c #142333",
"{P 	c #142235",
"]P 	c #142134",
"^P 	c #132032",
"/P 	c #152134",
"(P 	c #162034",
"_P 	c #122033",
":P 	c #111F32",
"<P 	c #111F33",
"[P 	c #101F32",
"}P 	c #111E32",
"|P 	c #121E33",
"1P 	c #111D32",
"2P 	c #111C32",
"3P 	c #101C31",
"4P 	c #101C32",
"5P 	c #0E1D34",
"6P 	c #0C1B32",
"7P 	c #0D1C33",
"8P 	c #0B1B33",
"9P 	c #0A1A32",
"0P 	c #091931",
"aP 	c #071730",
"bP 	c #061830",
"cP 	c #051530",
"dP 	c #041531",
"eP 	c #03142F",
"fP 	c #051531",
"gP 	c #051633",
"hP 	c #041532",
"iP 	c #00132E",
"jP 	c #01142F",
"kP 	c #00142D",
"lP 	c #00132C",
"mP 	c #02132D",
"nP 	c #08182E",
"oP 	c #061B33",
"pP 	c #091D34",
"qP 	c #081F31",
"rP 	c #092034",
"sP 	c #10253A",
"tP 	c #092035",
"uP 	c #0B2035",
"vP 	c #0C2136",
"wP 	c #1B2D43",
"xP 	c #112438",
"yP 	c #13293C",
"zP 	c #12263B",
"AP 	c #14293F",
"BP 	c #152940",
"CP 	c #13283E",
"DP 	c #13273A",
"EP 	c #132436",
"FP 	c #152437",
"GP 	c #172538",
"HP 	c #172436",
"IP 	c #162435",
"JP 	c #172535",
"KP 	c #182536",
"LP 	c #192535",
"MP 	c #172333",
"NP 	c #182434",
"OP 	c #182435",
"PP 	c #182334",
"QP 	c #172334",
"RP 	c #152132",
"SP 	c #162133",
"TP 	c #172033",
"UP 	c #182033",
"VP 	c #162033",
"WP 	c #152032",
"XP 	c #141F32",
"YP 	c #142032",
"ZP 	c #131F32",
"`P 	c #141F33",
" Q 	c #131E32",
".Q 	c #121C30",
"+Q 	c #111C30",
"@Q 	c #0F1D34",
"#Q 	c #0E1C33",
"$Q 	c #132137",
"%Q 	c #0D1B32",
"&Q 	c #0C1B31",
"*Q 	c #0B1A31",
"=Q 	c #0A1930",
"-Q 	c #08182F",
";Q 	c #07172F",
">Q 	c #06172F",
",Q 	c #06162F",
"'Q 	c #0A1A34",
")Q 	c #04132F",
"!Q 	c #041430",
"~Q 	c #081834",
"{Q 	c #051431",
"]Q 	c #03122E",
"^Q 	c #0A192E",
"/Q 	c #09192E",
"(Q 	c #08192E",
"_Q 	c #0B1D33",
":Q 	c #091B31",
"<Q 	c #0A1B30",
"[Q 	c #405067",
"}Q 	c #425269",
"|Q 	c #0B1E33",
"1Q 	c #082035",
"2Q 	c #082034",
"3Q 	c #092236",
"4Q 	c #0A2136",
"5Q 	c #0B2136",
"6Q 	c #0C2035",
"7Q 	c #0E2035",
"8Q 	c #0F2136",
"9Q 	c #0E2036",
"0Q 	c #112338",
"aQ 	c #112435",
"bQ 	c #112436",
"cQ 	c #122537",
"dQ 	c #132639",
"eQ 	c #132539",
"fQ 	c #15273B",
"gQ 	c #15293D",
"hQ 	c #152A3E",
"iQ 	c #162A40",
"jQ 	c #172940",
"kQ 	c #16283C",
"lQ 	c #152838",
"mQ 	c #162638",
"nQ 	c #182637",
"oQ 	c #192736",
"pQ 	c #192636",
"qQ 	c #162636",
"rQ 	c #192635",
"sQ 	c #182534",
"tQ 	c #192434",
"uQ 	c #1A2534",
"vQ 	c #1B2435",
"wQ 	c #1B2032",
"xQ 	c #192438",
"yQ 	c #192437",
"zQ 	c #182335",
"AQ 	c #182133",
"BQ 	c #171F32",
"CQ 	c #151D30",
"DQ 	c #151E31",
"EQ 	c #131E31",
"FQ 	c #121D30",
"GQ 	c #161E31",
"HQ 	c #111E33",
"IQ 	c #121D33",
"JQ 	c #101B32",
"KQ 	c #101B31",
"LQ 	c #0F1C30",
"MQ 	c #0E1C2F",
"NQ 	c #0E1C30",
"OQ 	c #0D1B31",
"PQ 	c #0C1A30",
"QQ 	c #0B1930",
"RQ 	c #091930",
"SQ 	c #09182F",
"TQ 	c #061630",
"UQ 	c #1D273E",
"VQ 	c #5C667A",
"WQ 	c #04152E",
"XQ 	c #0E1E38",
"YQ 	c #04142E",
"ZQ 	c #01122C",
"`Q 	c #03152F",
" R 	c #08182C",
".R 	c #0A1B32",
"+R 	c #081C2F",
"@R 	c #081E34",
"#R 	c #0B1D32",
"$R 	c #081D31",
"%R 	c #091E32",
"&R 	c #0B2033",
"*R 	c #0B2135",
"=R 	c #0C2135",
"-R 	c #112439",
";R 	c #102337",
">R 	c #112236",
",R 	c #122337",
"'R 	c #122335",
")R 	c #122435",
"!R 	c #132536",
"~R 	c #142637",
"{R 	c #142538",
"]R 	c #152639",
"^R 	c #17283B",
"/R 	c #17293B",
"(R 	c #152A3B",
"_R 	c #172A3C",
":R 	c #18293B",
"<R 	c #182838",
"[R 	c #182736",
"}R 	c #182636",
"|R 	c #1A2637",
"1R 	c #192737",
"2R 	c #182537",
"3R 	c #19293B",
"4R 	c #1B2638",
"5R 	c #1D2738",
"6R 	c #1C2636",
"7R 	c #1C2534",
"8R 	c #1E2534",
"9R 	c #1D2434",
"0R 	c #1D2233",
"aR 	c #1A2336",
"bR 	c #1B2436",
"cR 	c #1A2435",
"dR 	c #192334",
"eR 	c #1A2234",
"fR 	c #1A2134",
"gR 	c #192033",
"hR 	c #192032",
"iR 	c #181F31",
"jR 	c #171F31",
"kR 	c #171D31",
"lR 	c #181C30",
"mR 	c #576576",
"nR 	c #121D32",
"oR 	c #121D31",
"pR 	c #111C31",
"qR 	c #101B30",
"rR 	c #101C2F",
"sR 	c #0F1C2F",
"tR 	c #0F1B31",
"uR 	c #0E1A30",
"vR 	c #0D1930",
"wR 	c #08172E",
"xR 	c #081830",
"yR 	c #091831",
"zR 	c #162137",
"AR 	c #05152E",
"BR 	c #02122C",
"CR 	c #00112B",
"DR 	c #091A2F",
"ER 	c #091C33",
"FR 	c #0A1C33",
"GR 	c #091C2F",
"HR 	c #0C2037",
"IR 	c #0B1D2F",
"JR 	c #0C1E30",
"KR 	c #0B1D31",
"LR 	c #0C1E32",
"MR 	c #0D1F34",
"NR 	c #0D2134",
"OR 	c #0D2135",
"PR 	c #0F2135",
"QR 	c #112337",
"RR 	c #102235",
"SR 	c #102134",
"TR 	c #112234",
"UR 	c #122333",
"VR 	c #132333",
"WR 	c #142434",
"XR 	c #152535",
"YR 	c #152636",
"ZR 	c #162536",
"`R 	c #162537",
" S 	c #172537",
".S 	c #182638",
"+S 	c #19293A",
"@S 	c #162938",
"#S 	c #182A3A",
"$S 	c #192939",
"%S 	c #1B2739",
"&S 	c #1E283A",
"*S 	c #1F2537",
"=S 	c #1F2536",
"-S 	c #1D2939",
";S 	c #1A2A3B",
">S 	c #536776",
",S 	c #1A2738",
"'S 	c #1E2635",
")S 	c #1F2735",
"!S 	c #1E2535",
"~S 	c #202334",
"{S 	c #202535",
"]S 	c #1F2636",
"^S 	c #1E2434",
"/S 	c #1C2333",
"(S 	c #1D2433",
"_S 	c #1C2332",
":S 	c #1C2233",
"<S 	c #1B2233",
"[S 	c #1A2132",
"}S 	c #191F30",
"|S 	c #1A1F30",
"1S 	c #181E31",
"2S 	c #191F32",
"3S 	c #1B243A",
"4S 	c #233046",
"5S 	c #141D31",
"6S 	c #151C31",
"7S 	c #131B2F",
"8S 	c #141C30",
"9S 	c #141B2F",
"0S 	c #121C2E",
"aS 	c #101B2E",
"bS 	c #101B2F",
"cS 	c #0E192F",
"dS 	c #0D192F",
"eS 	c #0C182E",
"fS 	c #0B182E",
"gS 	c #09172E",
"hS 	c #091730",
"iS 	c #08162F",
"jS 	c #08152F",
"kS 	c #07152F",
"lS 	c #081630",
"mS 	c #06142D",
"nS 	c #05132D",
"oS 	c #04142D",
"pS 	c #01112B",
"qS 	c #01122B",
"rS 	c #081B33",
"sS 	c #0B1C34",
"tS 	c #0C1E34",
"uS 	c #0F1F37",
"vS 	c #0B1E30",
"wS 	c #0C1F31",
"xS 	c #0D1F33",
"yS 	c #0E2037",
"zS 	c #0D2034",
"AS 	c #0E2135",
"BS 	c #102135",
"CS 	c #112233",
"DS 	c #122334",
"ES 	c #132435",
"FS 	c #152334",
"GS 	c #162434",
"HS 	c #172536",
"IS 	c #182535",
"JS 	c #1A2737",
"KS 	c #1B2838",
"LS 	c #283646",
"MS 	c #1C2939",
"NS 	c #1C2839",
"OS 	c #1D273A",
"PS 	c #212A3E",
"QS 	c #202534",
"RS 	c #202939",
"SS 	c #212F40",
"TS 	c #202737",
"US 	c #212735",
"VS 	c #202634",
"WS 	c #212734",
"XS 	c #1F2734",
"YS 	c #1E2634",
"ZS 	c #222535",
"`S 	c #212434",
" T 	c #232937",
".T 	c #222A37",
"+T 	c #202532",
"@T 	c #212632",
"#T 	c #1F2430",
"$T 	c #202432",
"%T 	c #1F2332",
"&T 	c #1D2130",
"*T 	c #1D2131",
"=T 	c #1C2030",
"-T 	c #1C202F",
";T 	c #1B202F",
">T 	c #172030",
",T 	c #171F30",
"'T 	c #191D32",
")T 	c #191B35",
"!T 	c #161C2F",
"~T 	c #151C2E",
"{T 	c #171E30",
"]T 	c #191F31",
"^T 	c #141C2E",
"/T 	c #121B2E",
"(T 	c #111A2D",
"_T 	c #0F182D",
":T 	c #10192E",
"<T 	c #0F192F",
"[T 	c #0D182E",
"}T 	c #0B172D",
"|T 	c #0A162D",
"1T 	c #0A162F",
"2T 	c #09152E",
"3T 	c #08152D",
"4T 	c #07152D",
"5T 	c #091630",
"6T 	c #06132D",
"7T 	c #06142C",
"8T 	c #05142C",
"9T 	c #03132C",
"0T 	c #02122B",
"aT 	c #01112A",
"bT 	c #081C32",
"cT 	c #0A1C34",
"dT 	c #0D1D32",
"eT 	c #0C1D30",
"fT 	c #0B1F32",
"gT 	c #0C1F34",
"hT 	c #0C1F36",
"iT 	c #10223B",
"jT 	c #1D2C41",
"kT 	c #0E2032",
"lT 	c #0F2032",
"mT 	c #0F1F32",
"nT 	c #112033",
"oT 	c #112132",
"pT 	c #122231",
"qT 	c #142433",
"rT 	c #152534",
"sT 	c #162334",
"tT 	c #172435",
"uT 	c #192637",
"vT 	c #1B2737",
"wT 	c #1C2738",
"xT 	c #1D2838",
"yT 	c #1D2839",
"zT 	c #1C2737",
"AT 	c #1D2737",
"BT 	c #1E2736",
"CT 	c #232E3B",
"DT 	c #313B4B",
"ET 	c #242D3B",
"FT 	c #212835",
"GT 	c #212733",
"HT 	c #222835",
"IT 	c #212A38",
"JT 	c #242836",
"KT 	c #242734",
"LT 	c #252834",
"MT 	c #232935",
"NT 	c #2B3440",
"OT 	c #252635",
"PT 	c #252434",
"QT 	c #242534",
"RT 	c #242735",
"ST 	c #232631",
"TT 	c #232530",
"UT 	c #222431",
"VT 	c #232532",
"WT 	c #212433",
"XT 	c #2F3240",
"YT 	c #202332",
"ZT 	c #1F2231",
"`T 	c #1E2130",
" U 	c #1D1F2E",
".U 	c #1E1D2E",
"+U 	c #1C1C31",
"@U 	c #1A1E32",
"#U 	c #181E30",
"$U 	c #171C2F",
"%U 	c #161B2E",
"&U 	c #131A2C",
"*U 	c #12192C",
"=U 	c #141B2E",
"-U 	c #13192F",
";U 	c #11182D",
">U 	c #0F1A2E",
",U 	c #0E192D",
"'U 	c #111B2F",
")U 	c #0D182C",
"!U 	c #0D192D",
"~U 	c #0C172D",
"{U 	c #0B152E",
"]U 	c #09172D",
"^U 	c #06152D",
"/U 	c #06142E",
"(U 	c #06142B",
"_U 	c #04122C",
":U 	c #07162C",
"<U 	c #09182E",
"[U 	c #0A192F",
"}U 	c #0A1A30",
"|U 	c #0B1B30",
"1U 	c #0C1D32",
"2U 	c #0B1C30",
"3U 	c #0D1E30",
"4U 	c #0B1D30",
"5U 	c #0C1F32",
"6U 	c #0D1E33",
"7U 	c #0E1F34",
"8U 	c #0F2035",
"9U 	c #112235",
"0U 	c #122234",
"aU 	c #132334",
"bU 	c #132132",
"cU 	c #162433",
"dU 	c #162432",
"eU 	c #172533",
"fU 	c #162633",
"gU 	c #1B2635",
"hU 	c #1B2634",
"iU 	c #1C2634",
"jU 	c #1D2636",
"kU 	c #1F2839",
"lU 	c #1D2637",
"mU 	c #1E2636",
"nU 	c #1F2736",
"oU 	c #202733",
"pU 	c #222A36",
"qU 	c #1F2834",
"rU 	c #222934",
"sU 	c #252632",
"tU 	c #282834",
"uU 	c #272833",
"vU 	c #292934",
"wU 	c #2B2D38",
"xU 	c #252732",
"yU 	c #272934",
"zU 	c #282934",
"AU 	c #292A35",
"BU 	c #292834",
"CU 	c #2B2B37",
"DU 	c #292734",
"EU 	c #292735",
"FU 	c #282735",
"GU 	c #272832",
"HU 	c #262730",
"IU 	c #252631",
"JU 	c #242530",
"KU 	c #242430",
"LU 	c #272835",
"MU 	c #232431",
"NU 	c #212330",
"OU 	c #1F222E",
"PU 	c #1F212E",
"QU 	c #21212F",
"RU 	c #20202E",
"SU 	c #1F202E",
"TU 	c #1E1F2F",
"UU 	c #1C1F2F",
"VU 	c #1B1E2F",
"WU 	c #1A1D2D",
"XU 	c #191D2E",
"YU 	c #181C2D",
"ZU 	c #161C2D",
"`U 	c #161B2D",
" V 	c #151A2D",
".V 	c #13192C",
"+V 	c #151C2F",
"@V 	c #13192D",
"#V 	c #121C2F",
"$V 	c #12172A",
"%V 	c #14192C",
"&V 	c #0F182E",
"*V 	c #162344",
"=V 	c #0C182F",
"-V 	c #0A172D",
";V 	c #0A182D",
">V 	c #0A152B",
",V 	c #09162C",
"'V 	c #08152C",
")V 	c #06152B",
"!V 	c #05132B",
"~V 	c #02112A",
"{V 	c #07162D",
"]V 	c #0B1A2F",
"^V 	c #0B1A30",
"/V 	c #0A1B2E",
"(V 	c #0C1C32",
"_V 	c #0E1E33",
":V 	c #0D1E32",
"<V 	c #0E1F33",
"[V 	c #0E1E32",
"}V 	c #0F1E31",
"|V 	c #102133",
"1V 	c #112133",
"2V 	c #122134",
"3V 	c #1A2938",
"4V 	c #3A4753",
"5V 	c #172534",
"6V 	c #182333",
"7V 	c #192432",
"8V 	c #182433",
"9V 	c #1A2634",
"0V 	c #1F2634",
"aV 	c #252D3E",
"bV 	c #202734",
"cV 	c #202834",
"dV 	c #232737",
"eV 	c #252835",
"fV 	c #262C3A",
"gV 	c #28323F",
"hV 	c #262935",
"iV 	c #292935",
"jV 	c #292933",
"kV 	c #2A2934",
"lV 	c #2B2A34",
"mV 	c #292833",
"nV 	c #2A2A34",
"oV 	c #2B2933",
"pV 	c #2B2932",
"qV 	c #2C2A32",
"rV 	c #2A2833",
"sV 	c #292733",
"tV 	c #292732",
"uV 	c #282631",
"vV 	c #282632",
"wV 	c #282532",
"xV 	c #262531",
"yV 	c #23232F",
"zV 	c #23222F",
"AV 	c #22212E",
"BV 	c #20212F",
"CV 	c #1D1F2D",
"DV 	c #1E1F2D",
"EV 	c #1D1E2D",
"FV 	c #1B1E2D",
"GV 	c #1A1D2E",
"HV 	c #191D2D",
"IV 	c #191C2D",
"JV 	c #171B2E",
"KV 	c #12192D",
"LV 	c #131A29",
"MV 	c #0F1927",
"NV 	c #13172C",
"OV 	c #142649",
"PV 	c #0F162C",
"QV 	c #11162A",
"RV 	c #0E172A",
"SV 	c #0A182B",
"TV 	c #09162B",
"UV 	c #0F1A30",
"VV 	c #08152A",
"WV 	c #06152C",
"XV 	c #05142B",
"YV 	c #03112B",
"ZV 	c #03122C",
"`V 	c #010E28",
" W 	c #02102A",
".W 	c #0B1C31",
"+W 	c #0B1C2F",
"@W 	c #344053",
"#W 	c #0F1E33",
"$W 	c #0D1E31",
"%W 	c #0F1F34",
"&W 	c #0E1D31",
"*W 	c #101E31",
"=W 	c #121F31",
"-W 	c #132031",
";W 	c #132232",
">W 	c #172433",
",W 	c #192533",
"'W 	c #182431",
")W 	c #1A2431",
"!W 	c #1B2433",
"~W 	c #1A2535",
"{W 	c #25303F",
"]W 	c #1D2732",
"^W 	c #1E2733",
"/W 	c #202637",
"(W 	c #202736",
"_W 	c #222837",
":W 	c #232834",
"<W 	c #242934",
"[W 	c #252936",
"}W 	c #282734",
"|W 	c #232835",
"1W 	c #262F3D",
"2W 	c #2B2B36",
"3W 	c #2B2935",
"4W 	c #2D2A34",
"5W 	c #2E2B35",
"6W 	c #2F2C35",
"7W 	c #2E2B34",
"8W 	c #2E2C35",
"9W 	c #2F2C34",
"0W 	c #2E2C33",
"aW 	c #2E2A32",
"bW 	c #2F2B32",
"cW 	c #302B33",
"dW 	c #312B33",
"eW 	c #2F2B31",
"fW 	c #2F2B33",
"gW 	c #2F2A32",
"hW 	c #2D2931",
"iW 	c #2D2A33",
"jW 	c #2C2933",
"kW 	c #2B2832",
"lW 	c #2A2731",
"mW 	c #2B2732",
"nW 	c #2A2732",
"oW 	c #292631",
"pW 	c #27242F",
"qW 	c #262530",
"rW 	c #272530",
"sW 	c #26232F",
"tW 	c #25222E",
"uW 	c #242230",
"vW 	c #1F1F2D",
"wW 	c #21202D",
"xW 	c #201F2D",
"yW 	c #1C1E2D",
"zW 	c #1B1D2D",
"AW 	c #191B2B",
"BW 	c #181C2E",
"CW 	c #1A2238",
"DW 	c #131A2F",
"EW 	c #101E35",
"FW 	c #152645",
"GW 	c #5E8FB5",
"HW 	c #1A3455",
"IW 	c #0C1D3B",
"JW 	c #0C172F",
"KW 	c #0B182A",
"LW 	c #0A182A",
"MW 	c #0B172C",
"NW 	c #09152B",
"OW 	c #0A162C",
"PW 	c #08152B",
"QW 	c #07142B",
"RW 	c #07142C",
"SW 	c #06132C",
"TW 	c #06122C",
"UW 	c #112136",
"VW 	c #0C1D2F",
"WW 	c #111E30",
"XW 	c #142132",
"YW 	c #152233",
"ZW 	c #162232",
"`W 	c #1A2432",
" X 	c #1A252F",
".X 	c #1C2531",
"+X 	c #1D2535",
"@X 	c #1E2632",
"#X 	c #1F2732",
"$X 	c #222836",
"%X 	c #292C3C",
"&X 	c #232734",
"*X 	c #262936",
"=X 	c #282A35",
"-X 	c #292B34",
";X 	c #282B36",
">X 	c #2C2C33",
",X 	c #2A2C3A",
"'X 	c #2D3547",
")X 	c #302D35",
"!X 	c #2D2D32",
"~X 	c #312C33",
"{X 	c #322D34",
"]X 	c #322C33",
"^X 	c #322C34",
"/X 	c #332C34",
"(X 	c #342C34",
"_X 	c #342B33",
":X 	c #352B33",
"<X 	c #332B32",
"[X 	c #332B33",
"}X 	c #322B31",
"|X 	c #312A30",
"1X 	c #312B32",
"2X 	c #302A31",
"3X 	c #2F2931",
"4X 	c #2F2930",
"5X 	c #2F2730",
"6X 	c #2D2630",
"7X 	c #2C252F",
"8X 	c #2C262F",
"9X 	c #2A262F",
"0X 	c #2A252E",
"aX 	c #2B242F",
"bX 	c #29242F",
"cX 	c #27232E",
"dX 	c #262330",
"eX 	c #23212E",
"fX 	c #23212D",
"gX 	c #22202C",
"hX 	c #21202C",
"iX 	c #1D1E2B",
"jX 	c #1E1D2C",
"kX 	c #1D1D2C",
"lX 	c #1B1C2B",
"mX 	c #1A1B2C",
"nX 	c #181B2C",
"oX 	c #171C2B",
"pX 	c #15192A",
"qX 	c #12172C",
"rX 	c #141631",
"sX 	c #183758",
"tX 	c #091830",
"uX 	c #10172B",
"vX 	c #0F1629",
"wX 	c #0C162C",
"xX 	c #0D152C",
"yX 	c #0B152A",
"zX 	c #0A1529",
"AX 	c #091629",
"BX 	c #08142A",
"CX 	c #071329",
"DX 	c #07132B",
"EX 	c #051129",
"FX 	c #05132A",
"GX 	c #041229",
"HX 	c #031129",
"IX 	c #010F27",
"JX 	c #08172D",
"KX 	c #0C1B30",
"LX 	c #142438",
"MX 	c #101F31",
"NX 	c #121F30",
"OX 	c #131F2F",
"PX 	c #162132",
"QX 	c #172231",
"RX 	c #1B2333",
"SX 	c #1B2431",
"TX 	c #1D2331",
"UX 	c #1D2633",
"VX 	c #222734",
"WX 	c #232735",
"XX 	c #272936",
"YX 	c #272A35",
"ZX 	c #282935",
"`X 	c #2B2C37",
" Y 	c #2B2B33",
".Y 	c #2D2C34",
"+Y 	c #2D2D36",
"@Y 	c #2F2D33",
"#Y 	c #292F41",
"$Y 	c #374560",
"%Y 	c #2E2C37",
"&Y 	c #322D32",
"*Y 	c #332C33",
"=Y 	c #342D34",
"-Y 	c #342D35",
";Y 	c #372E35",
">Y 	c #382E36",
",Y 	c #382C34",
"'Y 	c #392D36",
")Y 	c #382D36",
"!Y 	c #382C35",
"~Y 	c #362B33",
"{Y 	c #362C31",
"]Y 	c #352B31",
"^Y 	c #352C34",
"/Y 	c #332A32",
"(Y 	c #322831",
"_Y 	c #302730",
":Y 	c #2F262F",
"<Y 	c #2E272F",
"[Y 	c #2D262E",
"}Y 	c #2C252D",
"|Y 	c #2C232D",
"1Y 	c #2A222D",
"2Y 	c #2A232E",
"3Y 	c #27212D",
"4Y 	c #2C2733",
"5Y 	c #25222D",
"6Y 	c #24212C",
"7Y 	c #211F2C",
"8Y 	c #201F2C",
"9Y 	c #1F1E2C",
"0Y 	c #1D1C2A",
"aY 	c #1B1C2A",
"bY 	c #181A2A",
"cY 	c #171928",
"dY 	c #16192C",
"eY 	c #131B2E",
"fY 	c #17182B",
"gY 	c #131E38",
"hY 	c #0F172D",
"iY 	c #11162B",
"jY 	c #0E152A",
"kY 	c #0E162B",
"lY 	c #0D152A",
"mY 	c #091528",
"nY 	c #081428",
"oY 	c #081329",
"pY 	c #09142C",
"qY 	c #08132C",
"rY 	c #06122A",
"sY 	c #041028",
"tY 	c #030F27",
"uY 	c #08172B",
"vY 	c #0B1A2E",
"wY 	c #0B192E",
"xY 	c #0D1C30",
"yY 	c #0D1C2E",
"zY 	c #0F1E32",
"AY 	c #142334",
"BY 	c #102030",
"CY 	c #121F32",
"DY 	c #121F33",
"EY 	c #17273A",
"FY 	c #192232",
"GY 	c #1A2233",
"HY 	c #1A2331",
"IY 	c #1D2432",
"JY 	c #1E2331",
"KY 	c #1F2531",
"LY 	c #202632",
"MY 	c #292D3A",
"NY 	c #262835",
"OY 	c #292A34",
"PY 	c #2A2B35",
"QY 	c #2C2D36",
"RY 	c #303037",
"SY 	c #2D2D34",
"TY 	c #2E313B",
"UY 	c #313546",
"VY 	c #2E5169",
"WY 	c #5691AD",
"XY 	c #314156",
"YY 	c #373240",
"ZY 	c #382F37",
"`Y 	c #382F36",
" Z 	c #393037",
".Z 	c #3A3037",
"+Z 	c #3C3238",
"@Z 	c #3B3035",
"#Z 	c #3A2E33",
"$Z 	c #3C2E34",
"%Z 	c #3B2D33",
"&Z 	c #3C2D33",
"*Z 	c #3A2D34",
"=Z 	c #665E64",
"-Z 	c #463D44",
";Z 	c #3A2E35",
">Z 	c #392C32",
",Z 	c #382D33",
"'Z 	c #392E35",
")Z 	c #392F36",
"!Z 	c #382E35",
"~Z 	c #362C34",
"{Z 	c #342932",
"]Z 	c #342831",
"^Z 	c #332830",
"/Z 	c #342A32",
"(Z 	c #2F262E",
"_Z 	c #30262E",
":Z 	c #2F242E",
"<Z 	c #2C242E",
"[Z 	c #2B222E",
"}Z 	c #29222C",
"|Z 	c #27212C",
"1Z 	c #25202C",
"2Z 	c #24212D",
"3Z 	c #221F2C",
"4Z 	c #221F2D",
"5Z 	c #201E2B",
"6Z 	c #1F1E2B",
"7Z 	c #1D1D2A",
"8Z 	c #1C1D2B",
"9Z 	c #1B1D2A",
"0Z 	c #161A28",
"aZ 	c #1E2134",
"bZ 	c #171A2E",
"cZ 	c #171A2C",
"dZ 	c #141930",
"eZ 	c #12162C",
"fZ 	c #11172C",
"gZ 	c #10182C",
"hZ 	c #10172A",
"iZ 	c #0E162A",
"jZ 	c #0D162A",
"kZ 	c #0B1529",
"lZ 	c #0A1528",
"mZ 	c #091428",
"nZ 	c #0A152A",
"oZ 	c #09142A",
"pZ 	c #08132B",
"qZ 	c #07132A",
"rZ 	c #05112A",
"sZ 	c #051128",
"tZ 	c #09182B",
"uZ 	c #09192B",
"vZ 	c #0A192C",
"wZ 	c #0B1A2D",
"xZ 	c #0D1A2D",
"yZ 	c #0F1A2C",
"zZ 	c #111C2E",
"AZ 	c #121D2F",
"BZ 	c #141D30",
"CZ 	c #132035",
"DZ 	c #223649",
"EZ 	c #4C6978",
"FZ 	c #172336",
"GZ 	c #192131",
"HZ 	c #1A2230",
"IZ 	c #1E2432",
"JZ 	c #202531",
"KZ 	c #212531",
"LZ 	c #222631",
"MZ 	c #242632",
"NZ 	c #252734",
"OZ 	c #272733",
"PZ 	c #292932",
"QZ 	c #2B2A32",
"RZ 	c #2C2B33",
"SZ 	c #2E2C34",
"TZ 	c #2E2E35",
"UZ 	c #2C2D34",
"VZ 	c #2E2D35",
"WZ 	c #303038",
"XZ 	c #333640",
"YZ 	c #394052",
"ZZ 	c #355C76",
"`Z 	c #5AA0B2",
" ` 	c #394A61",
".` 	c #3D3645",
"+` 	c #3D343B",
"@` 	c #3A2F35",
"#` 	c #3D3135",
"$` 	c #3C3034",
"%` 	c #3D2E31",
"&` 	c #3F3031",
"*` 	c #403233",
"=` 	c #403132",
"-` 	c #3F3234",
";` 	c #43383C",
">` 	c #403134",
",` 	c #422F32",
"'` 	c #412E31",
")` 	c #3D2F33",
"!` 	c #3E3034",
"~` 	c #3D3035",
"{` 	c #3B2F35",
"]` 	c #392D34",
"^` 	c #382B31",
"/` 	c #392930",
"(` 	c #38292E",
"_` 	c #372D36",
":` 	c #36282E",
"<` 	c #332832",
"[` 	c #332730",
"}` 	c #31252E",
"|` 	c #31252F",
"1` 	c #30242F",
"2` 	c #2E242F",
"3` 	c #2E222C",
"4` 	c #2C212C",
"5` 	c #29202D",
"6` 	c #28212F",
"7` 	c #26202F",
"8` 	c #23212F",
"9` 	c #20202D",
"0` 	c #1C1D2A",
"a` 	c #1D1C2D",
"b` 	c #19192D",
"c` 	c #18182A",
"d` 	c #18182B",
"e` 	c #1C1E32",
"f` 	c #14172B",
"g` 	c #12162A",
"h` 	c #10152A",
"i` 	c #0F152B",
"j` 	c #0E1528",
"k` 	c #0D1528",
"l` 	c #0C1528",
"m` 	c #0A1527",
"n` 	c #081429",
"o` 	c #071228",
"p` 	c #061329",
"q` 	c #041128",
"r` 	c #07132C",
"s` 	c #061229",
"t` 	c #051127",
"u` 	c #041026",
"v` 	c #08162E",
"w` 	c #09172C",
"x` 	c #152335",
"y` 	c #0C192C",
"z` 	c #0E1B2E",
"A` 	c #101A2C",
"B` 	c #111B2E",
"C` 	c #131E30",
"D` 	c #141F30",
"E` 	c #171E32",
"F` 	c #17293A",
"G` 	c #192132",
"H` 	c #18212F",
"I` 	c #1B2330",
"J` 	c #1C2431",
"K` 	c #1E2431",
"L` 	c #212430",
"M` 	c #22262F",
"N` 	c #242730",
"O` 	c #262732",
"P` 	c #302C33",
"Q` 	c #342C33",
"R` 	c #33323A",
"S` 	c #3B3740",
"T` 	c #353036",
"U` 	c #373036",
"V` 	c #383038",
"W` 	c #342F40",
"X` 	c #454B5E",
"Y` 	c #402F37",
"Z` 	c #3F3231",
"`` 	c #403135",
"  .	c #45353A",
". .	c #413034",
"+ .	c #423134",
"@ .	c #443234",
"# .	c #453234",
"$ .	c #453233",
"% .	c #463334",
"& .	c #463234",
"* .	c #463232",
"= .	c #453031",
"- .	c #452F30",
"; .	c #423133",
"> .	c #413135",
", .	c #3F2F34",
"' .	c #402C2E",
") .	c #3F2C2E",
"! .	c #3E2B2E",
"~ .	c #3A2B31",
"{ .	c #36282F",
"] .	c #342E3C",
"^ .	c #37272E",
"/ .	c #36262F",
"( .	c #34262F",
"_ .	c #332630",
": .	c #32252F",
"< .	c #2F242C",
"[ .	c #2E232C",
"} .	c #2D232E",
"| .	c #292331",
"1 .	c #2D2937",
"2 .	c #282533",
"3 .	c #22202E",
"4 .	c #1F1D2B",
"5 .	c #1F1B2B",
"6 .	c #1E1B2C",
"7 .	c #1C1A2A",
"8 .	c #1B1929",
"9 .	c #1A1A2C",
"0 .	c #16192B",
"a .	c #16182B",
"b .	c #14182B",
"c .	c #13172B",
"d .	c #101529",
"e .	c #0D1427",
"f .	c #0D1629",
"g .	c #0B1429",
"h .	c #091328",
"i .	c #091327",
"j .	c #071226",
"k .	c #061227",
"l .	c #0A162E",
"m .	c #0B162D",
"n .	c #0B192C",
"o .	c #0C1A2D",
"p .	c #101A2E",
"q .	c #121A2D",
"r .	c #131C2F",
"s .	c #122030",
"t .	c #15202F",
"u .	c #181F30",
"v .	c #1A2332",
"w .	c #1C2231",
"x .	c #1C2331",
"y .	c #1E2430",
"z .	c #2D303B",
"A .	c #262731",
"B .	c #262630",
"C .	c #32303C",
"D .	c #2D2832",
"E .	c #312A32",
"F .	c #362C33",
"G .	c #38313A",
"H .	c #393741",
"I .	c #342E38",
"J .	c #3A2F36",
"K .	c #3E3035",
"L .	c #3C3234",
"M .	c #4E484D",
"N .	c #413035",
"O .	c #443337",
"P .	c #4D393C",
"Q .	c #473335",
"R .	c #473234",
"S .	c #483334",
"T .	c #493333",
"U .	c #4A3233",
"V .	c #4B3133",
"W .	c #4B3233",
"X .	c #4C3234",
"Y .	c #4B3234",
"Z .	c #4C3334",
"` .	c #4A3333",
" ..	c #4A3232",
"...	c #493231",
"+..	c #493132",
"@..	c #483132",
"#..	c #483133",
"$..	c #453032",
"%..	c #453033",
"&..	c #452C2E",
"*..	c #422D2F",
"=..	c #422D30",
"-..	c #3F2C31",
";..	c #3F333B",
">..	c #6B6877",
",..	c #3E2A2F",
"'..	c #3B282F",
")..	c #39272E",
"!..	c #37262F",
"~..	c #33262E",
"{..	c #33262F",
"]..	c #2F242D",
"^..	c #2E252F",
"/..	c #2D2531",
"(..	c #2B2433",
"_..	c #2A2333",
":..	c #272131",
"<..	c #272231",
"[..	c #252230",
"}..	c #201D2A",
"|..	c #1C1A28",
"1..	c #1D1B29",
"2..	c #191929",
"3..	c #171829",
"4..	c #16172A",
"5..	c #15172A",
"6..	c #121629",
"7..	c #101528",
"8..	c #0F1427",
"9..	c #0F1528",
"0..	c #0B1328",
"a..	c #0A1226",
"b..	c #0A1227",
"c..	c #091126",
"d..	c #061226",
"e..	c #071227",
"f..	c #061127",
"g..	c #061228",
"h..	c #061129",
"i..	c #0D1831",
"j..	c #0B162F",
"k..	c #101A2D",
"l..	c #141C2F",
"m..	c #171E2F",
"n..	c #1A1E2D",
"o..	c #1A1F2E",
"p..	c #192030",
"q..	c #1C2230",
"r..	c #1F2330",
"s..	c #242531",
"t..	c #262733",
"u..	c #272732",
"v..	c #282731",
"w..	c #2D2B35",
"x..	c #2E2B36",
"y..	c #372D34",
"z..	c #393035",
"A..	c #392F35",
"B..	c #40373E",
"C..	c #383137",
"D..	c #3D3138",
"E..	c #45363A",
"F..	c #3F2F33",
"G..	c #413334",
"H..	c #433336",
"I..	c #483A43",
"J..	c #473439",
"K..	c #4C3A42",
"L..	c #4B3335",
"M..	c #4B3433",
"N..	c #4D3433",
"O..	c #4E3432",
"P..	c #4F3432",
"Q..	c #513433",
"R..	c #523433",
"S..	c #513332",
"T..	c #513432",
"U..	c #503332",
"V..	c #4F3232",
"W..	c #4F3132",
"X..	c #503232",
"Y..	c #4E3230",
"Z..	c #4D3030",
"`..	c #4C3132",
" +.	c #4B3031",
".+.	c #4A2F30",
"++.	c #472E31",
"@+.	c #442C2F",
"#+.	c #493539",
"$+.	c #412D32",
"%+.	c #3E303B",
"&+.	c #412A2D",
"*+.	c #3F292E",
"=+.	c #3C272C",
"-+.	c #3C272D",
";+.	c #3A272D",
">+.	c #37262C",
",+.	c #36262D",
"'+.	c #32242D",
")+.	c #312530",
"!+.	c #2F2432",
"~+.	c #2C2332",
"{+.	c #2B2231",
"]+.	c #29212F",
"^+.	c #261F2D",
"/+.	c #292330",
"(+.	c #221D2A",
"_+.	c #1F1C2A",
":+.	c #1E1B29",
"<+.	c #191828",
"[+.	c #181828",
"}+.	c #161728",
"|+.	c #151628",
"1+.	c #141629",
"2+.	c #131629",
"3+.	c #121528",
"4+.	c #111528",
"5+.	c #0E1427",
"6+.	c #0B1326",
"7+.	c #0A1225",
"8+.	c #091124",
"9+.	c #061126",
"0+.	c #061027",
"a+.	c #051027",
"b+.	c #0A142D",
"c+.	c #0E1830",
"d+.	c #0C172B",
"e+.	c #11192D",
"f+.	c #131A2D",
"g+.	c #161D30",
"h+.	c #151D2F",
"i+.	c #171F2E",
"j+.	c #1A1F2C",
"k+.	c #1C2133",
"l+.	c #1E2133",
"m+.	c #212331",
"n+.	c #242532",
"o+.	c #272632",
"p+.	c #282732",
"q+.	c #2A2831",
"r+.	c #312D37",
"s+.	c #322D38",
"t+.	c #352C33",
"u+.	c #382E34",
"v+.	c #42373C",
"w+.	c #41353A",
"x+.	c #403234",
"y+.	c #443132",
"z+.	c #453232",
"A+.	c #453334",
"B+.	c #493434",
"C+.	c #4D3334",
"D+.	c #4D3B3E",
"E+.	c #4C3331",
"F+.	c #4F3436",
"G+.	c #523535",
"H+.	c #523534",
"I+.	c #543635",
"J+.	c #553634",
"K+.	c #563633",
"L+.	c #573634",
"M+.	c #583735",
"N+.	c #583734",
"O+.	c #583731",
"P+.	c #583732",
"Q+.	c #573632",
"R+.	c #573433",
"S+.	c #573332",
"T+.	c #553432",
"U+.	c #533331",
"V+.	c #523331",
"W+.	c #523434",
"X+.	c #4D3232",
"Y+.	c #513635",
"Z+.	c #4C3130",
"`+.	c #462F32",
" @.	c #492E2C",
".@.	c #452D2F",
"+@.	c #452C2F",
"@@.	c #4A3236",
"#@.	c #412A2E",
"$@.	c #3F282E",
"%@.	c #3D272C",
"&@.	c #3B262C",
"*@.	c #39262C",
"=@.	c #39262F",
"-@.	c #362630",
";@.	c #33242F",
">@.	c #342733",
",@.	c #2F2330",
"'@.	c #2E2330",
")@.	c #2B222F",
"!@.	c #271E2B",
"~@.	c #251D2A",
"{@.	c #241E2D",
"]@.	c #251E2D",
"^@.	c #211A29",
"/@.	c #1E1A2A",
"(@.	c #1B1927",
"_@.	c #1A1928",
":@.	c #181827",
"<@.	c #161727",
"[@.	c #151629",
"}@.	c #141529",
"|@.	c #131428",
"1@.	c #111427",
"2@.	c #0D1326",
"3@.	c #0C1326",
"4@.	c #0B1225",
"5@.	c #071225",
"6@.	c #061125",
"7@.	c #0C182D",
"8@.	c #0E192B",
"9@.	c #10192B",
"0@.	c #111A2B",
"a@.	c #131B2D",
"b@.	c #1F2638",
"c@.	c #161D2F",
"d@.	c #1D2333",
"e@.	c #1B1F2E",
"f@.	c #1A1E2C",
"g@.	c #1E212E",
"h@.	c #1D202F",
"i@.	c #1E2333",
"j@.	c #1F2431",
"k@.	c #222530",
"l@.	c #292730",
"m@.	c #2C282F",
"n@.	c #2F2A31",
"o@.	c #312A31",
"p@.	c #312830",
"q@.	c #372C2F",
"r@.	c #392D30",
"s@.	c #3C2F31",
"t@.	c #3E3031",
"u@.	c #403032",
"v@.	c #45363B",
"w@.	c #433337",
"x@.	c #463435",
"y@.	c #473332",
"z@.	c #493435",
"A@.	c #4B3436",
"B@.	c #4E3434",
"C@.	c #503331",
"D@.	c #543734",
"E@.	c #553633",
"F@.	c #563735",
"G@.	c #563936",
"H@.	c #583A36",
"I@.	c #593A35",
"J@.	c #5A3834",
"K@.	c #5B3832",
"L@.	c #5D3834",
"M@.	c #5F3834",
"N@.	c #5F3933",
"O@.	c #603A34",
"P@.	c #5E3834",
"Q@.	c #5E3835",
"R@.	c #5D3733",
"S@.	c #5E3734",
"T@.	c #5B3632",
"U@.	c #5A3631",
"V@.	c #593531",
"W@.	c #573432",
"X@.	c #543330",
"Y@.	c #51312E",
"Z@.	c #4F312E",
"`@.	c #4C302D",
" #.	c #4B302D",
".#.	c #4B2F2E",
"+#.	c #492D30",
"@#.	c #482C2F",
"##.	c #442A2E",
"$#.	c #41292D",
"%#.	c #40292D",
"&#.	c #40282C",
"*#.	c #3D272B",
"=#.	c #38272F",
"-#.	c #382B33",
";#.	c #2E222B",
">#.	c #2C1F2A",
",#.	c #291E27",
"'#.	c #281E27",
")#.	c #281F29",
"!#.	c #241C28",
"~#.	c #231B28",
"{#.	c #1F1A27",
"]#.	c #1D1927",
"^#.	c #1B1926",
"/#.	c #191826",
"(#.	c #181725",
"_#.	c #171726",
":#.	c #161627",
"<#.	c #141527",
"[#.	c #101427",
"}#.	c #0C1224",
"|#.	c #0C1325",
"1#.	c #0C1327",
"2#.	c #0B1327",
"3#.	c #081023",
"4#.	c #081024",
"5#.	c #071125",
"6#.	c #051024",
"7#.	c #0B182D",
"8#.	c #142033",
"9#.	c #0F1A2D",
"0#.	c #0F192B",
"a#.	c #11192C",
"b#.	c #131C2D",
"c#.	c #181E2F",
"d#.	c #181F2E",
"e#.	c #3A4353",
"f#.	c #383F4F",
"g#.	c #1F212F",
"h#.	c #222330",
"i#.	c #222430",
"j#.	c #252731",
"k#.	c #252530",
"l#.	c #292731",
"m#.	c #2B2831",
"n#.	c #2D2830",
"o#.	c #2E282F",
"p#.	c #342A31",
"q#.	c #362B32",
"r#.	c #382C31",
"s#.	c #3C2F30",
"t#.	c #403031",
"u#.	c #423131",
"v#.	c #473334",
"w#.	c #493534",
"x#.	c #4B3434",
"y#.	c #4F3738",
"z#.	c #593E40",
"A#.	c #523635",
"B#.	c #573836",
"C#.	c #5D3B39",
"D#.	c #5C3B39",
"E#.	c #5E3C3A",
"F#.	c #613C39",
"G#.	c #623C39",
"H#.	c #633C37",
"I#.	c #643B37",
"J#.	c #653A35",
"K#.	c #663A34",
"L#.	c #663A33",
"M#.	c #673B35",
"N#.	c #683C37",
"O#.	c #653B35",
"P#.	c #633934",
"Q#.	c #643934",
"R#.	c #673D37",
"S#.	c #623731",
"T#.	c #613731",
"U#.	c #603630",
"V#.	c #5E3531",
"W#.	c #5D3431",
"X#.	c #5B3530",
"Y#.	c #59332F",
"Z#.	c #57322E",
"`#.	c #5D3B38",
" $.	c #52312E",
".$.	c #51302E",
"+$.	c #502E2E",
"@$.	c #4C2C2D",
"#$.	c #4A2B2C",
"$$.	c #482B2D",
"%$.	c #462A2D",
"&$.	c #442A2D",
"*$.	c #41282B",
"=$.	c #3E262B",
"-$.	c #3B262B",
";$.	c #3A262D",
">$.	c #33242C",
",$.	c #32242B",
"'$.	c #31222C",
")$.	c #30212B",
"!$.	c #2D2029",
"~$.	c #2B2028",
"{$.	c #291F28",
"]$.	c #261C27",
"^$.	c #241B27",
"/$.	c #211A27",
"($.	c #181727",
"_$.	c #151626",
":$.	c #131527",
"<$.	c #121527",
"[$.	c #0C1225",
"}$.	c #0A1124",
"|$.	c #091023",
"1$.	c #061024",
"2$.	c #041023",
"3$.	c #030F22",
"4$.	c #0D192E",
"5$.	c #0D1A2C",
"6$.	c #0E1A2D",
"7$.	c #0F192C",
"8$.	c #131B2C",
"9$.	c #141B2C",
"0$.	c #151B2E",
"a$.	c #191F2F",
"b$.	c #181E2D",
"c$.	c #343C4D",
"d$.	c #333A4A",
"e$.	c #1E2231",
"f$.	c #21222F",
"g$.	c #272631",
"h$.	c #282730",
"i$.	c #2C2830",
"j$.	c #2E2830",
"k$.	c #2F2830",
"l$.	c #322930",
"m$.	c #342A2F",
"n$.	c #372B30",
"o$.	c #3A2D31",
"p$.	c #3D2E32",
"q$.	c #3E2F31",
"r$.	c #413031",
"s$.	c #473131",
"t$.	c #4C3432",
"u$.	c #4D3432",
"v$.	c #4F3433",
"w$.	c #523634",
"x$.	c #563838",
"y$.	c #563737",
"z$.	c #5D3E3C",
"A$.	c #5B3835",
"B$.	c #603A36",
"C$.	c #633C39",
"D$.	c #633D3A",
"E$.	c #643C39",
"F$.	c #673D39",
"G$.	c #693E3A",
"H$.	c #6C3F3A",
"I$.	c #6D3E39",
"J$.	c #6D3D37",
"K$.	c #6E3D34",
"L$.	c #6E3D33",
"M$.	c #6D3D33",
"N$.	c #6D3C34",
"O$.	c #75443E",
"P$.	c #6E3C34",
"Q$.	c #6F3D35",
"R$.	c #6D3B32",
"S$.	c #6D3B33",
"T$.	c #6C3B33",
"U$.	c #6B3A33",
"V$.	c #693933",
"W$.	c #683933",
"X$.	c #663832",
"Y$.	c #633630",
"Z$.	c #623630",
"`$.	c #60352F",
" %.	c #5D332D",
".%.	c #5A332D",
"+%.	c #59332D",
"@%.	c #57312E",
"#%.	c #55302F",
"$%.	c #522F2E",
"%%.	c #4F2D2C",
"&%.	c #4D2C2B",
"*%.	c #4A2C2B",
"=%.	c #482A2C",
"-%.	c #45292A",
";%.	c #42282B",
">%.	c #432C2F",
",%.	c #3F282D",
"'%.	c #3A262B",
")%.	c #39262B",
"!%.	c #36242A",
"~%.	c #332229",
"{%.	c #322128",
"]%.	c #302127",
"^%.	c #2D2127",
"/%.	c #2B1F27",
"(%.	c #281D26",
"_%.	c #271C27",
":%.	c #251B27",
"<%.	c #231A27",
"[%.	c #211926",
"}%.	c #1F1927",
"|%.	c #1D1926",
"1%.	c #1B1826",
"2%.	c #181726",
"3%.	c #171625",
"4%.	c #131526",
"5%.	c #121426",
"6%.	c #111526",
"7%.	c #0F1326",
"8%.	c #0D1225",
"9%.	c #0B1124",
"0%.	c #061124",
"a%.	c #041124",
"b%.	c #031023",
"c%.	c #0E1A2F",
"d%.	c #0B182B",
"e%.	c #1A1E2E",
"f%.	c #1D202E",
"g%.	c #1C202E",
"h%.	c #22212D",
"i%.	c #24232E",
"j%.	c #252531",
"k%.	c #27262F",
"l%.	c #29262E",
"m%.	c #2B272E",
"n%.	c #2F282F",
"o%.	c #332930",
"p%.	c #362B30",
"q%.	c #3C2E31",
"r%.	c #3E2E32",
"s%.	c #412F33",
"t%.	c #433134",
"u%.	c #473435",
"v%.	c #483232",
"w%.	c #4C3230",
"x%.	c #523531",
"y%.	c #553733",
"z%.	c #5A3837",
"A%.	c #5D3937",
"B%.	c #5D3935",
"C%.	c #6A4540",
"D%.	c #633A35",
"E%.	c #673C35",
"F%.	c #693D37",
"G%.	c #6B3F39",
"H%.	c #6E413A",
"I%.	c #6F413A",
"J%.	c #71413A",
"K%.	c #73423A",
"L%.	c #74413A",
"M%.	c #753F36",
"N%.	c #763F33",
"O%.	c #774033",
"P%.	c #764033",
"Q%.	c #763F34",
"R%.	c #773E32",
"S%.	c #763D31",
"T%.	c #753C31",
"U%.	c #764137",
"V%.	c #703C33",
"W%.	c #6E3A32",
"X%.	c #6C3A32",
"Y%.	c #6B3932",
"Z%.	c #6A3931",
"`%.	c #683830",
" &.	c #64362E",
".&.	c #63362F",
"+&.	c #5F342E",
"@&.	c #5D332E",
"#&.	c #5A3230",
"$&.	c #57302E",
"%&.	c #552F2E",
"&&.	c #522E2D",
"*&.	c #4A2B2A",
"=&.	c #47292B",
"-&.	c #45292B",
";&.	c #43282C",
">&.	c #40272B",
",&.	c #3D252A",
"'&.	c #3A2428",
")&.	c #382329",
"!&.	c #362227",
"~&.	c #332226",
"{&.	c #302227",
"]&.	c #2D2027",
"^&.	c #291D26",
"/&.	c #271B26",
"(&.	c #261B27",
"_&.	c #251A27",
":&.	c #221A27",
"<&.	c #1C1826",
"[&.	c #1A1826",
"}&.	c #191725",
"|&.	c #161524",
"1&.	c #171626",
"2&.	c #151525",
"3&.	c #131426",
"4&.	c #111325",
"5&.	c #101326",
"6&.	c #071124",
"7&.	c #051125",
"8&.	c #041024",
"9&.	c #0F192D",
"0&.	c #10182D",
"a&.	c #141B2D",
"b&.	c #161C2C",
"c&.	c #171D2D",
"d&.	c #1C202C",
"e&.	c #21212E",
"f&.	c #24222C",
"g&.	c #26242E",
"h&.	c #282630",
"i&.	c #2C272E",
"j&.	c #2E272E",
"k&.	c #322830",
"l&.	c #342931",
"m&.	c #352A2F",
"n&.	c #382B30",
"o&.	c #3B2C30",
"p&.	c #3F2E32",
"q&.	c #443133",
"r&.	c #473436",
"s&.	c #503C3D",
"t&.	c #4D3333",
"u&.	c #553532",
"v&.	c #5B3935",
"w&.	c #5C3836",
"x&.	c #613A37",
"y&.	c #633B34",
"z&.	c #643C34",
"A&.	c #683C35",
"B&.	c #6B3C33",
"C&.	c #704036",
"D&.	c #724038",
"E&.	c #754239",
"F&.	c #764239",
"G&.	c #784339",
"H&.	c #7B4339",
"I&.	c #7C4238",
"J&.	c #7E4136",
"K&.	c #804135",
"L&.	c #814234",
"M&.	c #804234",
"N&.	c #804235",
"O&.	c #7F4132",
"P&.	c #7D4031",
"Q&.	c #7C3F30",
"R&.	c #7A3F31",
"S&.	c #793F32",
"T&.	c #773D30",
"U&.	c #743B2F",
"V&.	c #723A2F",
"W&.	c #713A2F",
"X&.	c #723B32",
"Y&.	c #6F3A31",
"Z&.	c #6B372F",
"`&.	c #68362F",
" *.	c #64352E",
".*.	c #60342E",
"+*.	c #5E322D",
"@*.	c #5B322D",
"#*.	c #59312C",
"$*.	c #56302C",
"%*.	c #522E2C",
"&*.	c #4F2D2B",
"**.	c #4B2B2A",
"=*.	c #48292A",
"-*.	c #46282A",
";*.	c #44272B",
">*.	c #41272A",
",*.	c #3E2529",
"'*.	c #3C2528",
")*.	c #392427",
"!*.	c #352326",
"~*.	c #322226",
"{*.	c #302126",
"]*.	c #2E2027",
"^*.	c #2C1F28",
"/*.	c #2A1D26",
"(*.	c #271B27",
"_*.	c #261A26",
":*.	c #231927",
"<*.	c #201926",
"[*.	c #1C1927",
"}*.	c #181624",
"|*.	c #161525",
"1*.	c #151526",
"2*.	c #121326",
"3*.	c #0D1226",
"4*.	c #0C1125",
"5*.	c #0B1024",
"6*.	c #0A0F23",
"7*.	c #090E22",
"8*.	c #080F23",
"9*.	c #070E24",
"0*.	c #060E23",
"a*.	c #0C172E",
"b*.	c #0D182D",
"c*.	c #10172D",
"d*.	c #12182E",
"e*.	c #12182C",
"f*.	c #141A2D",
"g*.	c #161B2C",
"h*.	c #181B2B",
"i*.	c #1A1C2B",
"j*.	c #1C1D2C",
"k*.	c #20212D",
"l*.	c #1F1F2B",
"m*.	c #26232D",
"n*.	c #29242D",
"o*.	c #2B252D",
"p*.	c #2D262F",
"q*.	c #30272F",
"r*.	c #31282F",
"s*.	c #342B32",
"t*.	c #372A2F",
"u*.	c #392B2F",
"v*.	c #3D2E30",
"w*.	c #3F2E2F",
"x*.	c #422F30",
"y*.	c #493131",
"z*.	c #503433",
"A*.	c #573532",
"B*.	c #5E3932",
"C*.	c #623B34",
"D*.	c #653D34",
"E*.	c #693D32",
"F*.	c #6E3E33",
"G*.	c #703E33",
"H*.	c #744134",
"I*.	c #774134",
"J*.	c #7A4235",
"K*.	c #7D4337",
"L*.	c #7F4439",
"M*.	c #81463B",
"N*.	c #83473A",
"O*.	c #85463A",
"P*.	c #874537",
"Q*.	c #884437",
"R*.	c #884335",
"S*.	c #8E4638",
"T*.	c #8C4435",
"U*.	c #8B4435",
"V*.	c #8A4434",
"W*.	c #894333",
"X*.	c #884334",
"Y*.	c #864231",
"Z*.	c #844032",
"`*.	c #813F31",
" =.	c #7F3F31",
".=.	c #7C3E31",
"+=.	c #793C2F",
"@=.	c #773B2E",
"#=.	c #763B2E",
"$=.	c #71392E",
"%=.	c #6E3A30",
"&=.	c #6A382E",
"*=.	c #69372F",
"==.	c #66352E",
"-=.	c #62332D",
";=.	c #5F312C",
">=.	c #5B302B",
",=.	c #562E2C",
"'=.	c #542D2C",
")=.	c #512D2C",
"!=.	c #4D2B2C",
"~=.	c #4A2A2C",
"{=.	c #47282B",
"]=.	c #45272A",
"^=.	c #42272A",
"/=.	c #3E2629",
"(=.	c #3A2527",
"_=.	c #382427",
":=.	c #352226",
"<=.	c #322025",
"[=.	c #302027",
"}=.	c #2E1F27",
"|=.	c #2C1D27",
"1=.	c #291D27",
"2=.	c #281B26",
"3=.	c #251A26",
"4=.	c #231925",
"5=.	c #201924",
"6=.	c #1E1825",
"7=.	c #1D1825",
"8=.	c #1A1724",
"9=.	c #191724",
"0=.	c #141324",
"a=.	c #121224",
"b=.	c #101224",
"c=.	c #0F1123",
"d=.	c #0D1224",
"e=.	c #0C1124",
"f=.	c #0B1023",
"g=.	c #0A0F22",
"h=.	c #090F22",
"i=.	c #080F22",
"j=.	c #070E21",
"k=.	c #0B162C",
"l=.	c #13182C",
"m=.	c #151A2E",
"n=.	c #14192D",
"o=.	c #1B1D2C",
"p=.	c #20202C",
"q=.	c #22222E",
"r=.	c #25232F",
"s=.	c #28242F",
"t=.	c #2B242E",
"u=.	c #2D252D",
"v=.	c #30262F",
"w=.	c #372D32",
"x=.	c #3A2B2F",
"y=.	c #3E2D31",
"z=.	c #412F30",
"A=.	c #442F30",
"B=.	c #493230",
"C=.	c #513331",
"D=.	c #543532",
"E=.	c #583632",
"F=.	c #5C3732",
"G=.	c #5F3732",
"H=.	c #633B33",
"I=.	c #673C34",
"J=.	c #6A3D34",
"K=.	c #6F4135",
"L=.	c #723E33",
"M=.	c #784035",
"N=.	c #794133",
"O=.	c #7D4234",
"P=.	c #844335",
"Q=.	c #874536",
"R=.	c #8A4639",
"S=.	c #8C4839",
"T=.	c #8D4A39",
"U=.	c #904837",
"V=.	c #934736",
"W=.	c #954A37",
"X=.	c #974938",
"Y=.	c #974736",
"Z=.	c #984735",
"`=.	c #974735",
" -.	c #964734",
".-.	c #954732",
"+-.	c #954733",
"@-.	c #944533",
"#-.	c #914432",
"$-.	c #8F4334",
"%-.	c #8D4334",
"&-.	c #8A4232",
"*-.	c #874033",
"=-.	c #834030",
"--.	c #813E2F",
";-.	c #7F3D2F",
">-.	c #7B3C31",
",-.	c #733A2F",
"'-.	c #6D382D",
")-.	c #6D392E",
"!-.	c #68362D",
"~-.	c #64342C",
"{-.	c #61322C",
"]-.	c #5C302C",
"^-.	c #592F2D",
"/-.	c #562E2D",
"(-.	c #4E2B2C",
"_-.	c #4B2A2A",
":-.	c #472829",
"<-.	c #452829",
"[-.	c #412728",
"}-.	c #3E2628",
"|-.	c #3B2527",
"1-.	c #392426",
"2-.	c #362226",
"3-.	c #352127",
"4-.	c #322027",
"5-.	c #2F1F27",
"6-.	c #2C1D26",
"7-.	c #291B25",
"8-.	c #261A24",
"9-.	c #251A24",
"0-.	c #221924",
"a-.	c #201824",
"b-.	c #1F1824",
"c-.	c #1C1723",
"d-.	c #191523",
"e-.	c #171522",
"f-.	c #161522",
"g-.	c #151424",
"h-.	c #131223",
"i-.	c #111224",
"j-.	c #101123",
"k-.	c #0E1323",
"l-.	c #091022",
"m-.	c #080F21",
"n-.	c #111B32",
"o-.	c #141A2F",
"p-.	c #181D2D",
"q-.	c #23222E",
"r-.	c #25242F",
"s-.	c #29252F",
"t-.	c #2C252E",
"u-.	c #2F252D",
"v-.	c #31262F",
"w-.	c #392E39",
"x-.	c #372B34",
"y-.	c #3A2C30",
"z-.	c #3D2B30",
"A-.	c #412D31",
"B-.	c #432E30",
"C-.	c #462E30",
"D-.	c #4A3030",
"E-.	c #4D3231",
"F-.	c #553531",
"G-.	c #613932",
"H-.	c #643932",
"I-.	c #6B3E35",
"J-.	c #6E3E35",
"K-.	c #703E34",
"L-.	c #733E32",
"M-.	c #783E33",
"N-.	c #7E3F34",
"O-.	c #804133",
"P-.	c #844434",
"Q-.	c #894536",
"R-.	c #8C4637",
"S-.	c #8F4738",
"T-.	c #924736",
"U-.	c #954937",
"V-.	c #974A37",
"W-.	c #9A4A35",
"X-.	c #9E4935",
"Y-.	c #9E4A35",
"Z-.	c #9F4936",
"`-.	c #A04835",
" ;.	c #A24935",
".;.	c #A14A35",
"+;.	c #A14A34",
"@;.	c #A04A32",
"#;.	c #A14A33",
"$;.	c #A04934",
"%;.	c #9D4733",
"&;.	c #9A4631",
"*;.	c #974632",
"=;.	c #954532",
"-;.	c #924430",
";;.	c #8F4232",
">;.	c #8C4231",
",;.	c #8A4030",
"';.	c #853E2E",
");.	c #823E30",
"!;.	c #7B3C2F",
"~;.	c #7C4134",
"{;.	c #733B2E",
"];.	c #70392D",
"^;.	c #6C372C",
"/;.	c #6A362D",
"(;.	c #66352D",
"_;.	c #5D312C",
":;.	c #592F2B",
"<;.	c #552D2B",
"[;.	c #522C2B",
"};.	c #4F2C2A",
"|;.	c #4B2A29",
"1;.	c #472827",
"2;.	c #452828",
"3;.	c #412727",
"4;.	c #3E2626",
"5;.	c #3C2426",
"6;.	c #392225",
"7;.	c #362125",
"8;.	c #332025",
"9;.	c #301E25",
"0;.	c #2D1D27",
"a;.	c #2A1C25",
"b;.	c #271B24",
"c;.	c #251B24",
"d;.	c #241A24",
"e;.	c #221A26",
"f;.	c #1F1825",
"g;.	c #1B1725",
"h;.	c #181623",
"i;.	c #171523",
"j;.	c #121423",
"k;.	c #111223",
"l;.	c #0F1424",
"m;.	c #0D1325",
"   .  +  @  #  $  %  &  *  =  -  ;  >  ,  '  )  !  ~  {  ]  ^  /  (  _  :  <  [  }  |  1  2  3  4  5  6  7  8  9  0  a  b  c  d  e  f  g  h  i  j  k  l  m  n  o  p  q  r  s  t  u  v  w  x  y  z  A  B  z  C  D  E  F  G  H  I  J  K  L  M  N  O  P  Q  R  S  T  U  V  W  X  Y  Z  `   . .. +. @. #. $. %. &. *. =. -. ;. >. ,. '. ). !. ~. {. ]. ^. /. (. _. :. <. [. ",
"}. |. 1. 2. 3. $  4. 5. 6. 7. 8. 9. 0. a. b. c. d. e. f. g. h. i. j. (  k. l. m. n. o. p. q. r. s. t. u. v. w. x. y. z. A. B. B. C. D. E. F. F. G. H. z  I. J. K. L. M. N. O. P. Q. R. S. T. U. V. W. X. Y. Z. `.  + .+ ++ @+ #+ $+ %+ &+ *+ =+ -+ ;+ >+ ,+ '+ )+ !+ ~+ {+ ]+ ^+ /+ (+ _+ :+ <+ [+ }+ |+ 1+ 2+ 3+ 4+ 5+ 6+ 7+ 8+ 9+ 0+ a+ b+ c+ d+ e+ f+ g+ h+ i+ j+ k+ ",
"l+ |. m+ n+ 3. o+ p+ q+ r+ s+ t+ u+ v+ w+ x+ y+ z+ A+ B+ C+ D+ E+ F+ G+ H+ I+ :  J+ K+ L+ M+ N+ q. O+ P+ Q+ R+ 5  S+ T+ U+ V+ W+ X+ A. Y+ Z+ `+ D. a   @  @ .@ +@ @@ #@ $@ %@ +@ &@ E. *@ G  =@ -@ ;@ ;@ >@ ,@ '@ )@ !@ ~@ {@ ]@ ^@ /@ (@ _@ :@ <@ [@ }@ |@ 1@ 2@ 3@ 4@ 5@ 6@ 7@ 8@ 9@ 0@ a@ b@ c@ d@ e@ f@ g@ h@ 5+ i@ j@ k@ l@ m@ n@ o@ p@ q@ r@ s@ t@ u@ v@ w@ x@ y@ ",
"z@ A@ B@ n+ C@ D@ E@ F@ G@ H@ I@ J@ K@ L@ M@ N@ O@ P@ Q@ R@ S@ T@ U@ V@ W@ X@ Y@ Z@ `@  # .# +# M+ @# ## $# %# &# *# =# -# ;# ># ,# '# )# !# ~# {# ]# ^# 0  /# (# _# :# <# [# }# |# 1# 2# 3# 4# 5# ,@ 6# 7# 8# 9# 0# a# b# c# d# e# f# g# h# i# j# k# l# m# n# o# p# q# r# s# t# u# v# w# x# y# z# A# B# C# D# E# i@ F# G# H# I# J# K# L# M# N# O# P# Q# R# S# T# U# V# ",
"W# X# Y# Z# `#  $ .$ +$ &  @$ #$ $$ %$ &$ *$ =$ -$ ;$ >$ ,$ '$ )$ !$ ~$ {$ ]$ ^$ /$ ($ _$ :$ <$ [$ }$ |$ 1$ 2$ 3$ 4$ 5$ 6$ 7$ 8$ 9$ 0$ a$ w. 3# 2# b$ '# c$ d$ e$ f$ g$ ,@ h$ i$ j$ k$ l$ m$ m$ n$ M  o$ p$ q$ r$ s$ t$ u$ v$ w$ x$ y$ z$ U  A$ B$ C$ D$ E$ F$ G$ H$ I$ J$ K$ L$ M$ N$ O$ P$ Q$ R$ S$ C# T$ U$ V$ W$ X$ Y$ Z$ `$  % .% +% @% #% $% t@ %% &% *% =% -% ;% ",
">% ,% Y# '% `# )% !% ~% {% ]% ^% 8. /% (% _% :% <% [% }% |% 1% 2% 3% 4% 5% 6% 7% 8% 9% 0% a% b% c% d% e% f% g% h% i% j% 3$ k% %# l% m% Q+ u. 9$ n% o% p% q% r% s% t% u% v% w% x% y% z% A% B% C% D% E% F% t$ G% H% _@ I% J% K% L% M% N% O% P% Q% R% S% T% U% V% W% X% Y% Z% `%  & .& +& @& #& $& %& && *& =& -& ;& >& ,& '& )& !& ~& {& ]& ^& /& (& _& :& <& [& U# }& |& ",
"1& 2& 3& 4& 5& 6& 7& 8& 9& 0& a& b& c& d& e& f& g& h& i& j& k& l& m& n& o& p& q& r& s& t& u& v& w& x& y& z& A& B& C& D& E& F& G& H& I& J& O+ K& L& M& N& O& P& Q& R& S& T& U& V& W& X& Y& Y& Z& `&  * .* +* @* #* $* %* &* U  ** =* -* ;* D$ >* ,* '* )* !* ~* {* ]* ^* /* (* _* :* <* [* }* |* 1* 2* 3* 4* 5* 6* 7* 8* 9* 0* a* b* c* @% O# $% d* e* f* g* h* i* j* k* ",
"1& 2& l* m* n* o* p* q* r* s* t* u* v* w* x* y* z* A* B* C* D* E* F* G* H* I* J* K* L* M* N* O* P* Q* R* S* T* U* V* W* X* Y* Z* `*  = .= += @= #= $= %= &= *= == == -= ;= >= ,= '= )= != ~= {= +* ]= ^= /= (= _= := <= [= [= }= |= 1= 2= 3= 4= 5= 6= 7= 8= 9= 0= a= b= c= d= e= f= g= h= i= j= k= l= 4* m= n= o= p= q= r= s= t= u= v= w= x= y= z= A= B= C= D= E= F= G= ",
"H= I= J= K= L= M= N= O= P= Q= R= S= T= U= V= W= X= Y= Z= `=  - .- +- @- #- $- %- &- *- =- -- ;- >- ,- '- )- !- ~- {- ]- ^- /- (- _- :- <- [- }- |- 1- 2- 3- 4- 5- 6- 7- 8- 9- 0- a- b- c- d- e- f- g- h- i- j- k- l- m- n- o- p- q- r- s- t- u- v- w- x- y- z- A- B- C- D- E- F- G- H- I- J- K- L- M- m= N- O- P- Q- R- S- T- U- V- W- X- Y- Z- `-  ; .; +; @; #; $; %; ",
"&; I= *; =; -; ;; >; ,; '; ); !; ~; {; ]; ^; /; (; _; :; <; [; }; |; 1; 2; 3; 4; 5; 6; 7; 8; 9; 0; a; b; c; d; e; f; g; h; i; j; k; l; m; n; :$ o; p; q; r; s; t; u; v; w; x; y; z; A; B; C; D; E; F; G; H; I; J; K; L; M; N; O; P; Q; R; S; T; U; V; W; X; Y; Z; `;  > .> +> @> #> $> %> &> *> => -> ;> >> ,> '> )> !> ~> {> ]> ^> /> (> _> :> <> [> }> |> 1> 2> 3> 4> ",
"5> 6> 7> 8> 9> 0> a> b> c> d> e> f> g> h> i> d& j> k> l> m> n> o> p> q> r> s> t> u> v> w> x> y> z> A> B> C> D> E> F> G> H> I> J> K> L> M> N> O> P> Q> R> S> T> U> V> W> X> Y> Z> `>  , ., +, @, #, $, %, &, *, =, -, ;, >, ,, ', ), !, ~, {, ], ^, /, (, _, :, <, [, }, |, 1, 2, 3, 4, 5, 6, 7, 8, 9, 0, a, b, c, d, ~> e, ]> f, g, h, i, j, k, l, m, n, o, p, q, r, s, ",
"t, u, v, w, x, y, z, A, B, C, D, E, F, G, H, I, /; J, K, L, M, N, O, P, Q, R, S, T, U, V, W, X, Y, Z, `,  ' .' +' @' #' $' %' &' *' =' -' ;' >' ,' u& '' )' !' ~' {' ]' ^' /' (' _' :' <' [' }' |' 1' 2' 3' 4' 5' 6' 7' 8' 9' 0' a' b' c' d' e' f' g' h' i' j' k' l' m' n' o' p' q' r' s' t' 8, u' v' w' x' y' z' A' e, ]> B' C' D' E' F' G' H' I' J' K' L' M' N' O' P' ",
"Q' R' S' T' U' 0> V' W' X' Y' Z' `'  ) .) +) @) #) $) %) &) *) =) -) ;) >) ,) ') )) !) ~) {) ]) ^) /) () _) :) <) [) }) |) 1) 2) 3) 4) 5) ;- 6) 7) 8) 9) 0) a) b) c) d) e) f) g) h) i) j) k) l) m) n) o) p) q) r) s) t) u) u) v) w) x) y) z) A) B) C) D) E) F) G) H) I) J) K) L) M) N) O) P) Q) R) S) T) U) V) W) e, X) B' Y) Z) `)  ! .! +! @! #! $! %! &! *! =! -! ;! ",
"Q' R' >! ,! '! )! !! ~! X' Y' {! ]! ^! /! (! _! :! <! [! }! |! 1! 2! 3! 4! 5! 6! 7! 8! 9! 0! a! b! c! d! e! f! g! h! i! j! k! l! m! n! o! p! q! r! s! t! u! v! w! x! y! z! A! B! C! D! E! F! G! H! I! J! K! L! M! N! O! P! Q! R! S! T! U! V! W! X! Y! Z! `!  ~ .~ +~ @~ #~ $~ %~ &~ *~ =~ -~ ;~ >~ ,~ '~ )~ !~ ~~ {~ ]~ ^~ /~ (~ _~ :~ <> <~ [~ }~ |~ 1~ 2~ 3~ 4~ 5~ 6~ ",
"Q' 7~ 8~ 9~ 0~ a~ b~ c~ d~ e~ f~ g~ h~  ) i~ j~ k~ l~ m~ n~ o~ p~ q~ r~ s~ t~ u~ v~ w~ x~ y~ z~ A~ B~ C~ D~ E~ F~ G~ H~ I~ J~ f! K~ L~ M~ N~ O~ P~ Q~ R~ S~ T~ U~ V~ W~ X~ Y~ Z~ `~  { .{ +{ @{ #{ ${ %{ &{ *{ *{ ={ -{ ;{ >{ ,{ '{ ){ !{ ~{ {{ ]{ ^{ /{ ({ _{ :{ <{ [{ }{ |{ 1{ 2{ 3{ 4{ 5{ 6{ 7{ 8{ 9{ 0{ a{ b{ c{ d{ e{ f{ g{ h{ i{ j{ k{ l{ m{ n{ o{ p{ q{ r{ s{ t{ ",
"u{ v{ w{ x{ y{ z{ A{ B{ C{ D{ E{ F{ G{ H{ I{ J{ K{ L{ M{ N{ O{ P{ Q{ R{ S{ T{ U{ V{ W{ X{ Y{ Z{ `{  ] .] +] @] #] B~ $] %] &] *] =] -] ;] >] ,] '] )] !] ~] {] ]] ]] ^] /] (] _] :] <] [] }] |] 1] 2] 3] 4] 5] 6] 7] 8] 9] 0] a] b] c] d] e] f] g] h] i] j] k] l] m] n] o] p] q] r] s] t] u] v] w] x] y] z] A] B] C] D] E] F] h{ G] H] I] J] K] L] M] N] O] P] Q] R] S] ",
"T] U] V] W] X] Y] Z] `]  ^ .^ +^ @^ #^ $^ %^ &^ *^ =^ -^ ;^ >^ ,^ '^ )^ !^ ~^ {^ ]^ ^^ /^ (^ _^ :^ <^ X{ [^ }^ |^ 1^ 2^ 3^ 4^ 5^ $] 6^ 7^ 8^ 8^ 9^ 0^ a^ b^ c^ d^ e^ f^ g^ h^ i^ j^ k^ l^ m^ n^ o^ p^ q^ r^ s^ t^ u^ v^ w^ x^ y^ z^ A^ B^ C^ D^ E^ F^ G^ H^ I^ J^ K^ L^ M^ N^ O^ P^ Q^ R^ S^ T^ U^ V^ W^ X^ Y^ Z^ `^  / ./ +/ @/ #/ $/ %/ J' &/ */ =/ p{ -/ ;/ >/ ,/ '/ ",
")/ !/ ~/ {/ ]/ ^/ // (/ _/ :/ </ [/ }/ |/ 1/ 2/ 3/ 4/ 5/ 6/ 7/ 8/ 9/ 0/ a/ b/ c/ d/ e/ f/ g/ h/ i/ j/ k/ l/ m/ n/ o/ p/ q/ r/ s/ t/ u/ u/ 8! v/ w/ x/ y/ z/ A/ B/ C/ D/ E/ F/ G/ H/ I/ I/ J/ K/ L/ M/ N/ O/ P/ Q/ R/ S/ T/ U/ V/ W/ X/ Y/ Z/ `/  ( .( +( @( #( $( %( &( *( =( -( ;( >( ,( '( )( !( ~( {( ]( ^( /( g{ (( +/ _( :( <( %/ [( }( |( 1~ o{ p{ 1( 2( 3( 4( 5( ",
"6( 7( 8( 9( 0( a( b( c( d( e( f( g( h( i( j( k( l( m( n( o( p( q( 6/ r( s( t( u( v( w( x( y( z( A( B( C( D( E( F( G( H( I( J( K( L( <^ Y{ Y{ Z{ M( N( O( P( Q( R( S( T( U( V( W( X( Y( Y( Z( `(  _ ._ +_ @_ #_ $_ %_ &_ *_ =_ -_ ;_ >_ ,_ '_ )_ !_ ~_ {_ ]_ ^_ /_ (_ __ :_ <_ [_ }_ |_ 1_ 2_ 3_ 4_ 5_ 6_ 7_ 8_ 9_ 0_ a_ b_ c_ d_ e_ f_ g_ h_ i_ j_ k_ l_ r{ m_ n_ o_ p_ ",
"6( q_ 8( r_ 0( s_ t_ u_ v_ w_ x_ y_ z_ A_ B_ C_ D_ E_ F_ G_ H_ I_ J_ K_ L_ M_ N_ O_ P_ Q_ R_ S_ T_ U_ V_ V_ W_ X_ Y_ Z_ `_  : .: +: @: #: $: %: &: *: =: -: ;: >: ,: ': ): !: ~: {: ]: ^: /: (: _: :: <: [: }: |: 1: 2: 3: 4: 5: 6: 7: 8: 9: 0: a: b: c: d: e: f: g: h: i: j: k: l: m: m: n: o: p: q: r: s: t: u: v: w: x: y: z: A: K] B: C: p, o{ D: E: F: G: H: I: J: ",
"K: L: M: N: O: P: Q: R: S: T: ,; U: V: W: X: Y: Z: `:  < .< +< @< @< #< $< %< &< *< =< -< ;< >< ,< '< '< )< !< ~< {< ]< ^< /< (< _< :< << [< }< |< 1< 1< 2< 3< 4< 5< 6< 7< 8< 9< 0< a< b< c< d< e< f< g< h< i< j< k< l< m< n< o< p< q< r< s< t< u< v< w< x< y< z< A< B< C< D< E< F< G< H< I< J< K< L< M< N< O< P< Q< R< S< T< U< V< W< %! X< Y< Z< `< E:  [ .[ +[ @[ #[ ",
"$[ %[ &[ *[ =[ -[ ^/ b( ;[ >[ ,[ '[ )[ ![ ~[ {[ ][ ^[ /[ ([ _[ :[ <[ <[ [[ }[ |[ 1[ 2[ 3[ 4[ 5[ 6[ 7[ 8[ 9[ 0[ a[ b[ c[ d[ e[ f[ g[ h[ i[ j[ k[ l[ m[ n[ o[ p[ q[ r[ s[ t[ u[ v[ w[ x[ y[ z[ A[ B[ C[ D[ E[ F[ G[ H[ I[ J[ K[ L[ M[ N[ O[ P[ Q[ R[ S[ T[ U[ V[ W[ X[ Y[ Z[ `[  } .} +} @} #} $} %} &} *} =} -} ;} >} ,} '} )} !} ~} {} ]} ^} /} l_ (} _} :} <} [} }} |} ",
"$[ 1} 2} 3} 4} 5} a( 6} 7} 8} N= 9} 0} a} b} c} d} e} f} g} h} i} j} k} l} m} n} o} p} q} r} s} t} u} v} w} x} y} z} A} B} A} C} D} E} F} G} H} I} J} i[ K} L} M} N} O} P} Q} R} S} T} U} V} W} X} Y} Z} `}  | .| +| @| #| $| %| $| &| *| =| -| ;| >| ,| '| )| !| ~| {| ]| ^| /| @} (| _| :| <| [| }| || 1| 2| 3| T< 4| 5| 6| 7| 8| 9| 0| a| b| c| d| e| f| 4( g| h| i| ",
"$[ j| k| l| m| n| o| t_ 0> !! p| q| r| s| t| u| v| w| x| y| z| A| B| C| D| E| F| G| F| H| I| J| K| L| M| N| O| P| Q| R| S| T| U| V| W| X| Y| Z| `|  1 .1 +1 @1 #1 $1 %1 &1 &1 *1 =1 -1 ;1 >1 ,1 '1 )1 !1 ~1 {1 ]1 ^1 /1 (1 _1 :1 <1 [1 }1 |1 11 21 21 31 41 51 61 71 81 91 01 a1 b1 c1 d1 e1 f1 g1 h1 i1 3| j1 k1 l1 m1 n1 o1 p1 q1 r1 s1 b| t1 u1 v1 w1 x1 y1 z1 A1 B1 ",
"C1 j| D1 E1 F1 G1 H1 I1 J1 o* K1 L1 M1 N1 O1 P1 Q1 R1 S1 T1 U1 V1 W1 X1 Y1 Z1 `1  2 .2 +2 @2 #2 $2 %2 %2 &2 *2 =2 -2 ;2 >2 ,2 '2 )2 !2 ~2 {2 ]2 ^2 s} /2 (2 _2 :2 <2 [2 }2 |2 12 22 32 42 52 62 72 82 92 92 02 a2 b2 c2 d2 e2 f2 g2 h2 i2 j2 k2 l2 m2 n2 o2 p2 q2 r2 s2 t2 u2 v2 w2 x2 y2 z2 A2 B2 C2 D2 E2 F2 G2 H2 I2 J2 K2 L2 M2 N2 O2 P2 Q2 R2 S2 T2 U2 V2 5( W2 X2 ",
"C1 j| Y2 Z2 `2 =[  3 .3 +3 0> b~ @3 #3 $3 %3 &3 *3 =3 -3 ;3 >3 ,3 '3 )3 !3 ~3 {3 ]3 ^3 /3 (3 _3 :3 <3 [3 <3 [3 }3 |3 13 23 13 33 43 53 63 73 73 83 93 03 a3 b3 c3 d3 e3 f3 g3 h3 i3 j3 k3 l3 m3 n3 o3 p3 q3 r3 s3 t3 u3 v3 w3 x3 y3 z3 A3 B3 C3 D3 E3 F3 G3 H3 I3 J3 K3 L3 M3 N3 O3 P3 Q3 R3 S3 T3 U3 V3 W3 X3 Y3 Z3 `3  4 .4 +4 @4 #4 $4 %4 &4 *4 =4 -4 ;4 5( >4 ,4 '4 ",
")4 !4 k| ~4 {4 =[ G1 ]4 ^/ J1 ^4 /4 (4 _4 :4 <4 [4 }4 |4 14 24 34 44 54 64 74 84 94 04 a4 b4 c4 d4 d4 e4 f4 f4 g4 g4 h4 i4 j4 i4 k4 <3 l4 l4 m4 n4 m4 o4 p4 q4 r4 s4 t4 u4 v4 w4 x4 y4 z4 A4 B4 C4 D4 E4 F4 G4 H4 H4 I4 J4 K4 K4 L4 M4 N4 O4 P4 Q4 R4 S4 T4 U4 V4 W4 X4 Y4 Z4 `4  5 .5 +5 @5 #5 $5 %5 &5 *5 =5 -5 ;5 >5 ,5 '5 )5 !5 ~5 {5 ]5 ^5 /5 =4 (5 ;4 5( _5 :5 <5 ",
"[5 }5 |5 15 25 35 45 55 65 6} 75 85 95 05 a5 b5 c5 d5 e5 f5 g5 h5 i5 j5 k5 l5 m5 n5 o5 p5 q5 r5 s5 s5 s5 t5 u5 v5 v5 v5 w5 w5 x5 y5 z5 A5 B5 C5 C5 D5 E5 F5 G5 H5 I5 J5 K5 L5 M5 N5 O5 P5 Q5 R5 S5 T5 U5 V5 W5 X5 Y5 Z5 `5  6 .6 +6 @6 #6 $6 $6 %6 &6 *6 =6 -6 ;6 >6 ,6 '6 )6 !6 ~6 {6 ]6 ^6 /6 (6 _6 :6 <6 [6 >5 }6 |6 16 26 36 46 56 66 76 86 96 06 a6 b6 c6 d6 X2 e6 ",
"f6 g6 h6 i6 j6 k6 l6 55 m6 n6 o6 p6 85 q6 r6 s6 t6 u6 v6 w6 x6 y6 z6 A6 B6 C6 D6 E6 F6 G6 H6 I6 J6 J6 J6 J6 K6 L6 L6 L6 M6 M6 N6 O6 P6 Q6 R6 R6 S6 S6 T6 U6 V6 W6 X6 Y6 Z6 `6  7 .7 +7 @7 #7 $7 %7 &7 *7 =7 -7 ;7 >7 ,7 '7 )7 !7 ~7 {7 ]7 ^7 /7 (7 _7 :7 <7 [7 }7 |7 17 27 37 47 57 67 77 87 97 07 a7 b7 c7 d7 e7 f7 g7 h7 i7 j7 k7 l7 m7 n7 o7 p7 q7 r7 s7 t7 u7 v7 w7 ",
"[5 x7 h6 y7 j6 z7 A7 B7 C7 D7 E7 F7 G7 H7 I7 J7 K7 L7 M7 M7 N7 O7 P7 Q7 R7 S7 T7 T7 U7 V7 W7 X7 Y7 Y7 Z7 Y7 `7 `7 `7  8  8  8 .8 +8 @8 #8 $8 %8 &8 *8 =8 -8 ;8 >8 ,8 '8 '8 )8 !8 ~8 {8 ]8 ^8 /8 (8 _8 :8 <8 [8 }8 |8 18 28 38 48 58 68 78 88 98 08 a8 b8 c8 d8 e8 f8 g8 h8 i8 j8 k8 l8 m8 n8 o8 p8 q8 r8 s8 t8 u8 v8 w8 x8 y8 z8 A8 B8 C8 D8 E8 F8 G8 h| H8 I8 J8 K8 L8 ",
"M8 N8 O8 P8 j6 Q8 R8 S8 ]/ T8 U8 V8 W8 X8 Y8 Z8 `8  9 .9 +9 @9 #9 $9 %9 &9 *9 =9 -9 ;9 ;9 >9 ,9 '9 )9 )9 !9 ~9 ~9 {9 ]9 ^9 ^9 /9 (9 _9 :9 <9 [9 }9 |9 19 29 29 39 49 59 69 69 79 89 99 09 a9 b9 c9 d9 e9 e9 f9 g9 h9 i9 j9 k9 l9 m9 m9 m9 n9 o9 p9 q9 r9 s9 t9 u9 v9 w9 x9 y9 z9 A9 B9 C9 D9 q8 E9 F9 F9 G9 H9 I9 J9 K9 L9 M9 N9 O9 P9 Q9 R9 S9 V2 T9 5( U9 V9 W9 X9 Y9 ",
"Z9 `9  0 .0 +0 @0 #0 $0 %0 &0 *0 =0 V8 -0 ;0 >0 ,0 '0 )0 !0 ~0 {0 ]0 ^0 /0 (0 _0 :0 <0 [0 [0 }0 |0 10 20 10 30 20 20 40 40 40 40 50 60 70 80 90 00 a0 b0 c0 c0 d0 e0 f0 g0 g0 h0 i0 j0 k0 l0 m0 n0 o0 p0 q0 r0 s0 t0 u0 v0 w0 w0 x0 y0 z0 A0 B0 C0 D0 E0 F0 G0 w9 H0 I0 y9 J0 K0 L0 M0 M0 N0 O0 P0 Q0 R0 S0 T0 U0 V0 W0 X0 Y0 Z0 `0  a .a R9 U2 +a @a z1 #a $a %a &a *a ",
"}5 =a -a ;a >a ,a r_ W] 'a )a !a !a ~a {a ]a ^a /a (a _a :a <a [a }a |a 1a 2a 3a 4a 5a 6a 7a 8a 9a 9a 9a 0a aa ba ba 0a 0a 0a ba aa 0a ca da ea fa ga ha ia ja ka la ma ma na oa pa qa ra sa ta ua va wa xa xa ya za Aa Ba Ca Da Ea Fa Ga Ha Ia Ja Ja Ka La Ma Na Oa Pa Qa Ra Sa Ta Ua Ua Ua Va Wa Xa Ya Ya Za `a  b .b +b @b #b $b %b &b *b &b =b -b ;b >b ,b 'b )b !b ",
"~b {b -a ]b ^b /b (b _b :b <b [b }b |b 1b 2b 3b 4b 5b 6b 7b 8b 9b 0b ab bb cb db eb fb gb hb ib jb jb kb kb lb mb mb nb ob pb lb mb qb rb sb sb tb ub vb wb xb yb zb Ab Bb Cb Cb Db Eb Fb Gb Hb Ib Jb Kb Lb Mb Aa Nb Ob Pb Qb Rb Rb Sb Tb Ub Vb Wb Xb Yb Zb `b  c Qa .c +c @c #c $c %c %c &c *c =c -c ;c >c ,c ,c Y0 'c )c X0 !c ~c {c &b ]c ]c ^c -b /c ,b (c _c :c &a ",
"<c [c -a ]b ;a }c |c 1c 2c 3c 4c 5c 6c 7c 8c 9c 0c ac bc cc dc ec fc gc hc ic jc kc lc mc nc oc oc pc qc qc rc rc sc tc uc qc vc wc tc xc yc zc Ac Bc Cc Dc Ec Fc Gc Hc Ic Jc Kc Lc Mc Nc Oc Pc Qc Rc Rc Sc Tc Uc Vc Wc Xc Yc Zc `c  d .d +d @d #d $d %d &d *d =d -d ;d >d ,d $c 'd )d !d !d ~d {d ]d ^d /d X0 (d _d :d <d [d s7 {c ]c ]c }d h| -b |d 1d (c 2d 3d 4d 5d ",
"6d 7d 8d 9d 9d 0d ad bd cd dd ed fd gd hd id jd kd ld md nd od pd qd rd sd td ud vd wd xd yd zd Ad Bd Cd Cd Dd Dd Ed Ed Fd Fd Gd Gd Dd Hd Id Jd Kd Ld Md Nd Od Pd Qd Rd Sd Td Ud Vd Wd Xd Yd Zd `d  e .e +e @e #e $e %e &e *e =e -e ;e >e ,e 'e )e !e !e !e ~e {e ]e ^e /e (e _e :e <e [e }e |e 1e 2e 2e 3e <d :d :d 4e 5e 6e 7e 8e 9e 0e ae be ce /c 1d I8 2d &a 5d de ",
"~b ee fe ge he M: ie je ke le me ne oe pe qe re se te ue ve we xe ye ze Ae Be Ce De Ee Fe Ge He Ie Je Ke Ke Le Le Me Me Ne Ne Ne Ne Me Le Oe Je Pe Pe Qe Re Se Te Ue Ve We Xe Ye Ze `e  f .f +f @f #f $f %f &f *f =f -f ;f >f ,f 'f )f !f ~f {f ]f ^f /f (f (f _f :f <f [f }f |f 1f 2f 3f 4f 2f 3e <d <d <d :d 5f 6f 7f 8f 9f 0f af bf H8 H8 cf /c df ef 2d ff gf Y9 de ",
"~b ee {b hf h6 if jf kf lf mf nf of pf qf rf sf tf uf vf wf xf yf zf Af Bf Cf Df Ef Ff Gf Hf If Jf Kf Kf Lf Mf Nf Mf Of Pf Qf Qf Rf Sf Tf Uf Vf Vf Wf Xf Yf Zf `f  g .g +g @g #g $g $g %g %g &g *g =g -g ;g >g ,g 'g )g !g ~g ~g {g ]g ^g /g (g _g :g :g <g [g }g |g 1g 2g 3g 4g 5g 5g 5g 6g 7g 7g 8g 8g 7f 9g 0g ag bg cg 8e dg eg fg eg -b |d gg hg ef 4d ig jg kg lg ",
"mg ng 7d og pg qg rg kf sg tg ug vg wg xg yg zg Ag Bg Cg Dg Eg Fg Gg Hg Ig Jg Kg Lg Mg Mg Ng Og Pg Qg Rg Sg Tg Ug Vg Wg Xg Vg Yg Yg Pg Zg `g  h .h +h +h @h #h $h %h &h *h =h -h #g ;h >h ,h 'h )h !h ~h {h ]h ^h /h (h _h :h <h [h }h |h |h 1h 2h 2h 3h 4h 5h 6h 7h 8h 9h 0h ah bh 7g ch dh eh fh gh hh ih jh kh lh bg mh nh oh ph qh ce /c /c W9 rh I8 4d 2d jg sh lg ",
"mg th ee }5 uh vh wh xh yh >! zh Ah Bh Ch Dh Eh Fh Gh Hh Ih Jh Kh Lh Mh Nh Oh Ph Qh Rh Sh Th Uh Vh Wh Xh Yh Vh Zh `h `h  i .i +i @i #i #i $i %i &i &i *i =i -i -i ;i >i ,i 'i )i !i ~i {i ]i ^i /i (i _i :i <i [i }i |i 1i 2i 3i 4i 5i 6i 7i 8i 9i 0i ai 0i bi ci ci di di ei fi gi hi ii ji ki gh li jh mi ni oi pi qi ri si ti ui vi vi wi xi yi 2d zi 4d 2d Ai sh lg ",
"mg th 7d }5 Bi pg Ci Di Ei Fi Gi Hi Ii Ji Ki Li Mi Ni Oi Pi Qi Ri Ri Si Ti Ui Vi Wi Xi Yi Zi `i  j .j +j .j @j  j #j $j @j @j $j #j @j `i %j &j *j =j -j ;j >j ,j 'j )j )j !j !j ~j {j ]j ^j /j (j _j :j <j [j }j |j 1j 2j 3j 4j 5j 6j 6j 7j 8j 8j 9j 0j aj aj bj cj dj ej fj gj hj ij jj hj ij jj jj kj lj mj nj oj pj qj rj sj tj yi uj vj W9 W9 2d 4d 4d jg Ai wj lg ",
"xj mg ee {b Bi yj vh zj Ei Aj Bj Cj Dj Ej Fj Gj Hj Ij Jj Kj Lj Mj Nj Oj Pj Qj Rj Sj Tj Uj Vj Wj Xj Yj Zj Zj Xj `j  k  k .k .k .k .k +k @k #k $k %k &k *k =k =k -k ;k >k ,k 'k )k !k ~k {k ]k ^k /k /k (k _k :k <k [k }k |k 1k 2k 3k 4k 4k 5k 5k aj 6k 7k 6k 8k 9k 0k ak bk ck dk ek ek fk ek gk hk ik jk kk lk mk nk ok pk qk rk yi uj vj vj W9 2d W9 2d 4d 5d kg sh lg ",
"sk tk uk 7d vk wk xk yk zk Ak Bk Ck Dk Ek Fk Gk Hk Ik Jk Kk Kj Lk Mk Mj Nk Ok Pk Qk Rk Sk Tk Uk Vk Vk Wk Xk Xk Yk Yk Yk Yk Yk Zk `k  l .l +l .l @l #l $l %l &l *l =l -l ;l >l ,l 'l ,l )l )l )l !l !l ~l {l ]l ^l /l (l _l :l <l [l }l }l }l |l 1l 2l 3l 4l 5l 6l 7l 8l 9l 0l al bl bl cl cl ek dk dl el fl fl gl hl il jl kl ll ml nl ol ol pl ql rl sl sl tl ul vl vl ",
"wl xl yl [c zl Al Bl Cl Dl El Fl Gl Hl Il Jl Kl Ll Ml Nl Ol Pl Ql Rl Sl Tl Ul Vl Wl Xl Yl Zl `l  m  m .m +m +m @m #m $m %m +m &m *m =m @m $m &m -m ;m >m ,m 'm )m !m ~m {m ]m ^m /m (m ^m ^m _m :m <m [m }m |m 1m 2m 3m 3m 4m 4m 5m 6m 5m 6m 7m 8m 7m 9m 0m am bm cm cm dm em fm gm hm im gm jm km lm mm mk nm om pm pm kk qm rm sm ol tm tm tm um um um um vm wm xm wm ",
"ym zm Am <c =a Bm Cm Dm Em El Fm Gm Hm Im Jm Km Lm Lm Mm Nm Om Om Pm Sl Qm Qm Rm Sm Tm Um Vm Wm Xm Xm Ym Zm `m `m `m  n  n .n +n @n #n $n %n &n *n =n -n ;n >n ,n 'n )n !n ~n {n ]n ^n ^n /n (n _n :n <n [n }n |n 1n 2n 3n 4n 5n 6n 7n 8n 9n 0n an bn cn dn en fn gn hn in jn kn ln ln ln mn nn mn on pn pm qn rn sn tn tn un vn ol tm tm wn wn um um um xn vm xn xm wm ",
"yn zm zn <c =a Bm Cm Bl An Dl Bn Cn Dn En Fn Gn Hn In Jn Kn Ln Mn Nn On On Pn Qn Rn Sn Tn Un Vn Wn Wn Xn Yn Yn Zn Xn `m `n Xn %n  o .o +o @o #o $o %o &o *o =o -o ;o >o ,o 'o )o !o ~o {o {o ]o ^o /o (o _o :o <o [o }o }o |o 1o 2o 3o 4o 5o 5o cn 6o 7o 8o 9o 0o ao bo co do eo fo ln ln fo go ho io jo ko tn tn tn sn lo sn mo ol tm tm wn wn um xn um wm xn wm no oo ",
"po qo zm 6d [c ro so Cm An to uo vo wo xo yo zo Ao Bo Co Do Eo Eo Fo Go Ho Ho Io Jo Ko Lo Mo No Oo $o Po Po Po Po Qo Ro So Po To Uo Vo Wo Xo Yo Zo Zo `o `o  p  p .p +p @p #p $p %p &p *p =p -p ;p >p ,p ,p 'p )p !p ~p {p ]p ^p /p (p (p _p :p <p [p }p |p 1p 2p 3p 4p 5p 6p 7p 8p 9p 0p 0p go go ap bp bp ko sn tn lo sn lo mo tm wn wn wn cp um xn dp ep dp wm wm fp ",
"gp yn sk 6d <c hp ip so jp An kp vo wo lp mp np op pp qp rp sp tp up vp wp wp xp yp zp Ap Bp Cp Dp Ep Fp Gp Yo Gp Fp Hp Ip Jp Kp Kp Jp Lp Mp Np Op Pp Pp Qp Rp Sp Tp Up Vp Wp Xp Yp Yp Yp Yp Yp Zp `p  q .q +q @q #q ^p $q %q /p &q *q =q -q ;q 5o >q ,q 'q )q !q ~q {q ]q ^q 9p 9p 0p 9p /q 9p go (q _q ap :q tn tn lo lo <q [q tm wn wn cp }q um xn |q 1q oo 2q um 3q ",
"4q 5q 6q 7q 8q 9q 0q aq bq cq dq eq fq gq hq iq jq kq lq mq nq oq pq qq rq sq tq uq uq uq vq wq xq yq zq Aq Aq Bq Cq Dq Eq Gp Fq Gq Gq Aq Hq Hq Hq Hq Iq Jq Kq Lq Mq Nq Oq Pq Qq Rq Sq Tq Tq Uq Vq Wq Xq Yq Zq `q  r .r +r +r @r #r :p $r 8o 8o %r &r *r =r -r ;r >r ,r 'r )r !r ~r {r ]r ^r /r (r _r :r <r [r :r }r |r 1r 2r 3r 4r um 5r %a 4r 6r 7r 7r 7r 7r 8r 8r wm ",
"9r 5q qo 6d [5 8q 0r ar T] br cr dr er fr gr hr jq ir jr mq kr lr mr nr or pr qr rr sr tr ur vr Aq wr xr xq xq yr zr Ar Br Cr xq Dr Dr Er Er Er Er Er Jq Fr Gr Kq Hr Ir Jr Kr Lr Mr Nr Nr Or Uq Pr Qr Rr Sr Tr Ur .r Vr Wr Xr Xr Yr :p Zr `r  s .s +s @s #s $s ,r ,r %s &s &s *s 0p =s -s ;s >s :r :r :r }r ,s }r |r 's |r |r )s 4r um !s ~s |q {s 7r {s 7r 7r 8r 8r wm ",
"9r 9r ]s ^s /s `9 (s K: _s br :s dr <s [s }s |s 1s 2s 3s 4s 5s 6s 7s 8s 9s 0s 0s as bs bs cs ds es fs ds es fs gs hs is js Br fs ks ks ks ls ls ks ls Fr ms ms ns os ps qs nr rs ss ts us vs ws xs ys zs As Bs Cs Cs Ds Es Fs Fs Gs Hs Zr Is 'q Js *r Ks =r Ls Ms %s &s %s Ns &s Os Ps Qs Rs Ss Ts |r }r }r }r |r |r 's 's 's Us Vs Ws 4r Xs Ys 7r 7r {s Zs {s 8r 8r wm ",
"9r 9r yn Am `s [5  t )/ .t +t @t #t $t %t &t *t =t =t -t ;t >t ,t 't )t !t ~t {t ]t ]t ]t ^t cs ls /t /t /t ls (t _t :t <t [t }t |t |t 1t 1t 1t 2t 1t 3t 4t 5t 6t 7t {t 8t 9t 0t at bt bt ct dt et ft gt gt ht it jt jt kt lt lt mt nt ot pt qt rt Ks Ks st tt ut %s &s vt wt 'r xt yt zt At Bt }r |r |r |r |r |r }r 's 's Ct Dt 6r Et Ft 6r 7r {s {s {s Zs Gt 7r 8r wm ",
"9r 9r 6q ~b f6 Ht  t It Jt Kt Lt #t Mt Nt Ot Pt Qt Qt =t Rt ;t St Pr Mr Tt Ut 9t Vt Vt Vt Wt /t Wt Xt Xt Wt /t Yt Zt `t  u .u +u @u @u @u @u @u |t @u #u $u #u %u %u &u &u *u =u -u ;u >u >u ,u 'u )u !u ~u {u {u ]u ^u ^u /u (u _u :u <u [u }u 'q *r |u 1u 2u &s &s 3u 4u 5u {r 6u 7u 8u 9u 0u |r 's 's |r |r |r Ct 's Ct au bu 6r Gt Gt Gt {s {s {s 7r cu |q 8r 8r wm ",
"du 4q eu sk fu gu  t hu Jt Kt iu ju ku lu mu nu ou 3s Qt pu xs ys Pr qu ru Ut su tu uu Vt Wt Wt 4t vu vu 3t wu xu yu zu Au Bu Cu @u @u |t Du Eu Fu Gu Hu Iu Ju Ku Lu Mu Nu Ou Pu Qu Ru >u ,u Su Tu Uu Vu Wu Xu Xu ^u Yu Zu Zu :u `u `u  v .v +v @v #v $v %v %v wt &v *v =v -v xt 6u ;v >v >v ,v 0u 'v 's |r |r )v 's 's !v !v ~v Gt Gt Gt {s {s {v ]v wm ^v /v (v _v {v ",
"du du :v 6q ~b <v  t [v }v |v 1v 2v ku lu lu 3v 4v Qt =t 5v 6v 6v qu 7v 8v 9v 0v av bv cv cv dv Hu Hu ev fv fv gv hv iv jv kv lv @u @u @u mv nv ov Hu Hu Mu Mu Mu pv qv rv sv ct tv uv Su Su vv wv ]u ]u ^u xv xv yv zv Av Bv Cv Dv Dv Ev +v Fv Gv Hv Iv Jv Kv *v -v Lv ,v Lv xt xt Mv ,v 8u Nv Nv Ov 's 's Pv |r 's au !v !v Dt Gt Gt {s {s {s um vm Qv vm xm Zs Rv vm ",
"du du Sv wl mg <v  t [v Tv Uv Vv 2v ku Wv mu Xv Yv Zv Qt `v  w .w +w qu @w #w 9v 9v av bv cv cv $w $w Mu fv #u %w lv hv hv hv &w *w *w =w 4t mv $w $w Mu -w ;w *u >w ,w tv 'w )w !w 'u ~w {w ]w ^w /w (w Yu _w /u /u (u :w <w [w }w }w +v |w |w Fv 1w 2w Jv 3w *v Lv Lv 4w 5w ,v ,v 6w 8u Nv Ov Ov 7w Ct Ct )v )v au !v !v !v Dt Gt Gt {s {s {s 8w 9w 0w xn wm Zs vm xn ",
"aw 9r bw xj mg cw dw ew fw gw hw iw jw Wv kw lw mw nw ow pw qw rw sw tw uw vw #w ww xw av yw uu Mu Mu zw Aw Jr Bw Cw Cw Dw Dw Dw Cw Cw Cw Dw Ew Fw Gw *u Hw Iw Jw Kw ,u Lw Mw Nw Ow Pw Qw Rw ]w Sw /w Tw _u Uw Vw Ww Xw Yw Zw `w Dv }w +v Jv %v  x .x +x @x #x $x %x xt 8u 8u &x Nv &x 8u Nv 8u 7w 7w Ct 's [r 's Ct au *x *x =x Gt {s {s Gt 7r vm vm vm vm vm vm -x Qv ",
";x du bw xj mg cw dw ew >x ,x 'x )x !x ~x kw {x ]x ^x /x (x rw qw rw tw uw vw #w ww _x :x <x av [x [x [x }x |x 1x Ew Ew Dw Dw Dw Dw Dw Dw Ew 2x Jw Jw 'w 3x 4x Kw 5x 6x 7x 8x 9x 0x ax bx cx dx ex fx (u Tw gx (u hx ix jx +v kx }w lx +v 3w mx nx ox px qx rx sx 8u ,v Nv Nv Nv Nv Nv tx 8u &x 7w 7w Ct Ct )v Ct au *x *x *x ~v Gt {s {s {s Zs vm vm vm vm vm ul de de ",
"ux du Sv wl vx wx xx yx zx Ax Bx )x Cx Dx kw Ex Fx Gx Hx Ix Jx rw Kx Lx Lx Mx Nx Mx Ox Px :x Qx Rx Sx ;w Tx pv Ux Vx Ux Ux Wx Xx Fw Yx Yx 2x Zx 'w 'w 'w `x  y .y +y @y #y $y %y &y _w *y =y -y ]w Zu Zu ;y Vw Vw >y ,y 'y )y Jv |w Fv mx !y ~y {y ]y ox ^y /y (y sx 8u _y Ov 'v Nv :y tx 7w Ov <y 's )v [y }y |y |y 1y *x *x ~v Rv 7r {s Rv 7r Zs vm vm vm vm ul de 2y ",
"3y du 9r eu 4y 5y 6y 7y 8y 9y 0y ay by cy dy ey fy gy hy iy jy ky ly my ly my ny oy py py py py qy 'w -u ry sy Sx Sx ty uy vy wy 'w xy xy xy xy yy yy zy qy Ay By vv Cy Dy Ey Fy /w Gy Hy fx Tw Hy Iy Jy Ky Ly My gx Dv ~y &s Ny Oy Oy Py 'r =v ^y ^y ^y Qy Ry Sy :y Ty Uy Vy Wy 0u Nv Vy Vy Vy Xy Yy bu )s Zy `y  z  z  z  z `y {s Ys Ys Rv Rv .z 8r 8r vm +z vl @z #z ",
"$z ;x 4q %z 4y &z *z =z 8y 9y -z ;z >z ,z 'z )z !z ~z {z ]z ^z /z (z _z (z _z my :z <z [z [z [z  y `x `x }z -u |z ;u 1z 2z 3z -u xy qy qy qy qy By )w 4z 5z 6z Uu ]u /w /w ]w 7z ^w 8z -y =y nt 9z 0z cm az bz My cz cz @v Ny Ny dz Py Ns ez =v ^y ^y ^y Qy Ry 7u fz 8u 8u gz hz iz jz <y Vy Vy kz lz mz jz au nz  z  z  z  z oz {s Ys pz Zs Rv 7r 8r Zs vm xm vl qz rz ",
"3y ;x sz %z 4y tz *z =z 8y 9y 0y -z uz vz wz )z lw xz yz zz Az Bz Cz Cz Cz Dz Ez Fz ly Gz Hz my Iz Iz Jz Ay Ay Kz Lz Mz Nz Oz Pz 'w qy qy `x ct Qz Rz Sz vv Tz Uz Vz Wz Xz Yz Zz `z Zu  A Tw .A +A @A #A $A %A &A Gv *A Ny Oy =A -A ;A wt dz >A ,A ^y 'A Qy )A !A !A ~A {A ]A hz jz ^A [y bu mz /A (A _A :A <A Zy nz  z  z  z `y {s Gt 7r 7r 7r 7r Zs wm no [A }A |A 1A ",
"3y ;x 4q eu 2A tz 3A =z 4A 5A 0y 6A -z ay ay 7A 8A 9A 0A aA bA ky Cz Cz Cz Cz Cz (z _z (z ly my |z Iz By Ay Ay oy cA dA eA eA fA Iz 6z 5z Iz gA hA iA Iz jA kA jA lA mA nA oA pA Tw :w qA qA `u rA sA (u gx tA uA pt vA wA xA 5u 3u 6u yA /y zA ^y ^y ^y AA Ry 'A BA CA DA EA FA [y mz [y )s GA HA IA Dt !v Ct JA  z KA  z  z 1y 7r {s 7r 7r 7r oo xn [A LA [A tl MA NA ",
"3y ;x 4q eu 2A OA PA QA RA SA TA 0y 0y uz ay uz UA VA WA XA YA ZA ZA ZA `A ZA  B Cz Dz Cz Cz Dz .B +B By 5z Ay @B Jz +y Su #B $B 5z 5z Iz 5z  y 'w %B &B Nw *B =B -B ;B >B ,B 'B fx qA _u )B !B ~B hx {B ]B ^B =A *r /B (B 2w Oy 2w dz >A zA _B ,A :B )A Ry Qy #x <B [B }B |B 1B }y 2B 3B 4B 5B Xy 6B HA 1y 7B nz nz  z  z  z `y {s 7r 7r 7r 7r 8B 9B [A 0B aB bB cB dB ",
";x ;x eB fB gB hB iB jB kB lB mB nB oB ay >z pB qB rB sB tB uB vB ZA wB wB `A `A xB Cz xB Fz ly yB zB Rz AB 5z By 5z Ay )w BB CB DB ny EB AB FB GB GB HB IB JB KB -B -B yv LB MB qA ;y nt nt NB OB kx uA PB .v QB ,y $v mx Ns Ns /y >A RB *v 8u >A >A >A _B _B SB |B TB |B UB VB Ct Ct )v !v )v WB XB YB 1y ZB `y *x *x *x *x ~v {s 7r `B um  C .C +C @C vm #C 0B $C %C ",
";x ;x &C *C =C -C hB ;C >C ,C 'C 5A )C !C -z ~C {C ]C ^C /C uB (C wB _C (C wB ZA wB xB :C :C Fz ]u ]u jA Sz 4z 5z 5z 5z AB Uu <C [C @B ny jA 'u }C |C 5x Xz 1C -B -B -B yv 2C 3C vA 4C 5C 6C ;y QB Ev 8l 7C 8C 'y Ny Py dz Py 9C zA >A 0C xt &x Ty aC aC _B _B Ry bC cC dC gz Vy Ct Ct Ct )v !v eC {s `B 9B fC gC *x *x *x *x ~v {s 7r `B oo 8w hC iC @C (v jC kC lC mC ",
";x ;x &C nC oC -C hB jB pC qC rC sC TA TA ay tC uC ]C vC wC xC yC zC AC BC wB CC DC wB EC :C xB kA kA kA FC Sz GC vv 5z AB vv HC CB Rz ly Sz IC JC JB KC fx Tw 1C -B LB 2C LC MC YA %A NC OC )q PC kx +v Ny QC Yw 3w RC yA dz SC zA >A >A Nv Nv aC _B _B _B _B TC gz gz gz Vy <y }r Pv )v !v !v UC VC 7r `B fC gC *x *x *x *x 1y 7r 7r Zs wm 2q WC $C wm (v XC YC ZC mC ",
";x ;x &C `C oC  D OA .D +D qC @D SA #D $D rC %D &D *D =D -D ;D yC >D >D ,D ,D 'D )D DC wB EC xB xv xv kA !D HC kA ^u GC Sz Sz ^w HC ~D Dz {D ]D 1C ^D -B /D /D (D _D (D :D :D :D <D [D }D |D 1D +v +v +v Jv uA Ny 2D RC dz /y >A zA _B aC aC Ov _B _B _B >A >A :y gz Vy Vy Vy <y )v )v )v ~v !v 3D 4D 5D oz *x *x *x *x *x *x .z 8r 8r vm +z vm 6D 7D 8D 9D 0D aD bD cD ",
"dD dD eD `C oC fD gD hD +D qC iD 8y jD #D kD lD &D %D mD =D =D AC ,D ,D AC nD oD 'D )D DC pD qD xv yv yv -B kA xv xv jA FC FC 1C rD {D  B sD 1C tD tD tD uD uD LB vD wD :D :D xD .A yD zD &A AD +v +v Jv Jv 3w BD 2D {y dz zA >A zA _B aC aC Ov _B _B _B _B _B TC Ov 7w 7w 7w 7w 's Ct !v !v =x CD DD ED FD WB *x *x *x .z .z GD 8r 8r vm +z vm Zs oo HD ID JD KD bD cD ",
"LD MD ND OD PD QD RD SD TD UD VD VD WD XD YD ZD `D 0y uz  E >z .E +E @E @E 'D +E #E AC @E )D (C yv -B yv uD ~B /u $E xv MB Xu ^u {u {D %E xv ^D xv LB LC <D $E &E xv *E =E -E <D ;E >E Ky ;E ,E 'E )E !E ~E !E mx yA Ns {E ]E ox zA _B Ty Nv Ov aC Ov Uy Ov Ov Ov 7w 7w Ct <y Ct )v ^E /E !v HA (E _E xn :E <E :E :E :E 7r 7r 7r 7r vm vm wm [A xm oo [A LA LA aD [E }E ",
"|E 1E 1E OD &C 2E  D 3E TD UD 4E 5E 6E 7E 8E 9E 0E aE {C bE cE dE eE eE fE >D 'D gE hE +E >D fE iE uD tD yv yv $E $E $E jE <D $E -B -B -B -B -B LB LC :D 1p kE ,D 2C lE mE nE 1D bz bz oE pE qE rE sE tE tE rE Iv uE Ns vE >v Ty _B aC Nv Nv Ov Ov 7w wE 7w 7w 7w 7w Ct Ct )v )v Dt Pv xE !v ~v 7r {s Gt {s {s 7r 7r 7r 7r 7r 7r 7r vm oo oo yE [A [A LA LA LA @C zE AE ",
"BE 1E CE OD &C DE EE FE hD +D GE 5E 6E HE IE JE KE LE -z &D pB dE +E +E ME NE fE OE PE eE >D 'D QE zv RE fx RE /u $E $E SE lt lt yv yv 2C uD uD ~B :D :D TE bz UE hx VE Gv WE XE YE YE pE ZE `E  F .F +F @F #F $F %F &F *F =F 9u aC 7w Ov <y Ct <y Ct wE wE wE 7w Ct Ct !v !v !v )v )v -F xE ;F {s {s {s 7r 7r 7r 7r 7r 7r 7r 7r 7r vm wm 8w [A >F [A LA LA LA 0B ,F cD ",
"BE ND ND 'F OD DE fD FE )F !F VD ~F {F 7E ]F ^F 7E $D /F (F _F #E _F :F <F 'D @E [F eE ME fE >D }F _u /w ]w /w ~B Ww $E LC LC LC Es |F 2C yv uD _C 'D 'D @E +E +E YE pt 1F Ly 2F 1D 3F pE 4F 4F +F 5F tE 6F 7F 8F 9F 0F =F aF Uy 7w 7w Ct Ct au au au au Ct !v bF )v )v xE xE HA *x *x *x *x *x {s 7r 7r 8r 8r 8r 8r 8r 8r 8r 8r 8r vm vm cF [A @C @C @C LA dF 0B zE eF ",
"BE ND ND 'F OD DE fD FE fF !F gF GE 5E HE ]F ^F hF iF jF kF lF mF nF [F oF eE eE [F eE ME fE >D Dv pF qF /w ,B lE :D <D <D Ww $E rF sF LC :D tF zC >D >D @E +E +E }D uF uF vF 2F wF xF 4F 4F 4F yF zF Hv +F +F AF BF CF DF EF FF 7w 7w Ct Ct !v Ct Ct )v )v !v GF )v Yy HF ]v HA *x *x *x *x *x {s 7r 7r 8r 8r 8r 8r 8r 8r 8r 8r 8r vm vm vm [A @C @C @C LA dF 0B zE eF ",
"BE ND IF ND eD JF fD FE fF !F KF GE LF MF MF HE NF `D OF PF QF RF SF TF UF VF [F [F WF oF eE XF Fv *A YF ,B /D ZF Ww `F  G *E <D .G UE -E XF +G @G @G @G #G $G OC bz %G &G 5o *G =G `E pE pE -G ;G >G AF AF ,G 'G BF DF )G DF !G ~G {G {G {G {G {G ]G ]G Xy Xy Pv bu xE Us HA oz ~v ~v ~v oz 7r :E 7r 7r Zs Zs 8r 8r 8r ^G ^G ^G ^G vm +z vm @C @C @C @C LA LA 0B /G cD ",
"(G 'F IF _G &C :G EE <G [G hD }G KF KF |G 1G |G 2G 3G /F 4G 5G 6G 7G 7G TF TF 8G [F [F 9G 9G 0G 9G aG hx bG >D cG dG eG fG eG gG eE +E +E +E $G hG YE bz oE bz )E @F rE rE iG jG TF TF Hv 6F ,G kG lG mG nG oG pG pG 9F qG qG rG sG tG tG tG tG tG uG vG wG vG {G =x *x 1y 1y oz {s {s ]v wm vm 8r 8r 8r vm vm vm +z +z vm vm vm +z +z +z +z +z LA LA LA LA LA ID xG cD ",
"BE IF IF IF OD yG zG AG [G fF KF }G KF BG iD CG ]F DG EG FG 6A GG 7G 7G TF HG IG JG JG 8G JG VF KG LG 4F cG eE MG Ly Is Is bz (p eE +E +E +E eE NG YE OG PG QG `E tE RG sE 6F ,G SG SG TG 8F 'G UG CF VG DG oG uE WG aF qG rG sG sG tG tG tG tG YB <q XG vG YG YG YG ZG ZG ZG `G 7r 7r Rv wm wm 8r 8r ^G +z xm vm vm vm vm vm vm +z +z +z +z +z LA LA LA LA LA  H xG cD ",
".H IF +H ND @H #H zG $H %H [G &H KF KF *H =H -H ;H ]F 2G >H ,H VG 'H mG mG mG )H 7G !H 5j ~H kF 7G `E {H Is ]H ]H 1D 1D ^H 1D ]H ]H $G ]H /H 9G (H ZE pE XE pE +F rE #v yF pG ,G BF BF TG oG WG UG WG _H HE :H <H [H =F }H sG |H 1H vG <q <q vG 2H FD YB FD FD YG YG YG YB YB fC 7r 7r Zs vm vm 8r 8r xm no 3H no +z +z +z +z +z +z +z +z +z +z LA LA LA LA dF  H 4H 5H ",
"6H +H +H ND 7H #H 8H 9H 0H FE aH }G }G *H *H |G bH bH cH DG dH eH fH gH SG ~r hH 7G 7G TF *G *G iH 'G 'G +F VF 9G 9G 9G jH VF [F 9G KG kH 9G 9G lH iG +F +F mH nH *s oH pH pG qH SG SG rH sH tH VG !G uH vH wH xH yH }H }H }H <q <q YB <q YB YG cp wn pl wn zH zH gC gC AH AH ~v {s 7r Zs vm vm vm vm [A 3H >F @C +z +z +z +z +z +z +z +z +z +z LA LA LA LA dF BH CH DH ",
"BE 7H EH IF FH GH 8H HH 0H FE IH }G JH =H *H |G bH KH ;H DG 7E LH _H hF MH SG SG NH OH ~H )H kF MH PH QH rE RH KG 9G 9G SH RF ]H 9G KG [F [F TH tE rE Ks tE +F qH *s *s oH *s 'G MH MH UH VH WH ~r XH NF VD YH }H }H }H ZH 2H XG <q YB YB YG YG cp `H ml cp  I Dt  z  z nz nz .I Gt {s Zs vm vm vm vm [A +I @I no +z +z +z +z +z +z +z +z +z +z @C #I dF LA dF $I %I &I ",
"*I =I -I ;I >I ,I 'I )I !I 0H ~I {I IH ]I ^I /I (I _I vH :I <I [I 3G nG DG }I |I MH MH ~r )H SG MH MH NF MH )H ~H ~H TF TF TF TF TF TF )H )H ~r )H )H ~r ~r LH 8F 1I VH (q ho 2I 3I 3I 4I 4I 3I 5I 6I 7I 8I 9I lo 0I [q aI rm bI cI dI eI eI eI cp }q }q wj fI <E eC nz }y kz mz 1y .z 7r gI gI lg lg qz hI de iI iI iI iI iI #I jI jI jI jI LA kI kI kI kI kI lI mI nI ",
"*I =I oI pI qI rI sI tI !I 0H uI vI wI xI KF KF yI zI AI hF %D ]F ]F DG 1G BI CI LH LH ~r DI LH EI ~r _H BF SG FI GI EI )H )H RH 7G ~H )H ~r ~r ~r ~r ~r ~r LH LH HI HI II JI KI 3I 3I :H LI LI MI 9I NI tn OI PI QI QI QI QI RI SI cI eI eI eI wj sh }q TI UI <E {s .I VI kz mz =x ~v 7r gI gI lg lg WI XI @z iI XI XI XI XI YI LA LA LA LA LA BH BH BH BH BH MA ZI `I ",
"*I =I  J .J rI +J 'I @J !I 0H ~I #J $J IH IH JH %J &J *J =J -J ;J ]F DG XD >J [I _H _H MH MH _H BF ,J iH SG SG ~r )H ~r )H )H )H tH oG )H FI FI ~r DI 'J ~r ~r KI )J 3I :H 4I !J 5E gF 5E vH ~J {J {J ]J MI ^J /J (J (J SI SI (J cI cI _J eI :J ff ff <J [J }J 3q {s Gt |J 2B }y =x {s 7r lg lg lg lg qz BH kI XI XI XI XI XI 1J LA LA LA LA LA hI BH XI BH BH 2J mI `I ",
"*I 3J  J pI 4J 5J sI 6J 7J !I 8J 9J vI IH IH 0J aJ GE bJ cJ dJ eJ fJ (I (I (I 6E gJ gJ hJ hJ hJ MH MH MH MH LH SG _H iJ SG SG LH jJ XH ~r kJ lJ mJ 3I nJ oJ oJ pJ qJ qJ rJ 5E sJ gF tJ gF gF gF IH &H &H GE MI uJ vJ wJ xJ xJ yJ zJ AJ AJ BJ CJ AJ DJ AJ AJ DJ EJ wj FJ eC eC `y eC 7r vm lg @z lg gI GJ XI XI XI XI XI XI XI XI 1J 1J 1J 1J 1J HJ IJ JJ KJ IJ LJ mI nI ",
"*I 3J  J pI 4J 5J sI 6J 7J !I 9J MJ 9J NJ #J {I OJ (I PJ QJ RJ SJ 5E vH 5E 5E 5E :H :H 3I 4I 4I 3I 3I 3I :H 3I TJ LH LH LH LH UJ VJ WJ XJ qJ YJ ZJ `J 4I 4I 4I  K tJ tJ tJ tJ gF gF GE GE 4E 4E AI .K {J {J +K @K #K $K $K %K _J zJ AJ AJ CJ CJ &K *K Y9 Y9 Y9 TI sh wj Gt Gt eC =K vm vm @z @z lg gI GJ XI XI XI BH BH XI XI XI BH BH BH BH BH cB -K ;K IJ IJ >K ,K CH ",
"'K )K  J !K !K 5J sI sI ~K {K ]K ^K /K (K _K IH xI &H IH :K <K AI GE ~J vH vH GE wH [K 3I :H :H vH AI AI }K tJ 7I XJ |K 1K 1K 7I oJ pJ 2K 5E rJ 3K 4K 5K 6K 7K 8K 9K 0K aK bK cK dK eK vJ fK gK tn un hK gK iK jK kK lK lK mK nK oK pK oK oK qK rK sK tK uK uK TI lg ul sh 3q lg @z qz vK wK wK xK xK yK $I vK MA MA YI YI lI JJ IJ YI IJ IJ IJ xG zK AK BK CK IJ >K DK ",
"EK EK )K  J  J FK 5J rI sI 'I ]K ~I $J #K (K GK $J wI HK GE KF ~J GE IK GE gF JK KK LK :H :H :H gF tJ gF IK .K gF vH rJ rJ rJ tJ MK NK OK OK OK PK ZJ QK RK el SK hK TK UK VK %J WK XK YK TK ZK qn nm nm ll ml `K  L  L .L +L @L #L #L #L #L $L K8 /c %L &L &L *L =L =L V9 tK =L -L -L wK yK yK wK yK ;L >L -L MA IJ IJ LJ IJ KJ IJ IJ IJ IJ IJ ,L 'L )L !L CK xG xG CK ",
"EK ~L oI  J  J FK 5J rI +J sI {L ]L ^L /L (L _L #J wI :L %K <L [L }L |L 1L 2L *J *J 8I GE AI AI XK 3L 4L 4L 3L *J gF GE gF gF .K 5L 6L bK bK bK 7L RK 8L 9L qk 0L aL TK bL cL dL cL eL fL gL hL iL iL jL kL yi lL mL mL nL mL oL oL oL #L #L pL qL rL sL qL qL tL uL uL vL &L &L tK tK wL xL xL xL yL yL xL zL AL IJ IJ KJ KJ IJ BL >K IJ IJ IJ 'L CL 'L CK !L >K xG CK ",
")K )K EK DL oI EL rI rI sI sI FL GL ^L HL AJ zJ IL #J vI #K %K {J {J {J {J %K %K {J {J JL xJ xJ bK bK KL bK bK LL aK xJ ML aK bK NL OL UK OL OL PL QL RK RL SL TL si UL OL VL WL XL YL ZL bL `L mk jL  M .M uj +M '4 '4 @M #M @M @M @M @M $M %M #M #M #M &M *M =M -M uL =M uL tL &L ;M &L &L ;M ;M &L tK >M >M HJ KJ KJ IJ KJ KJ )L CK CK !L !L CK CK CK !L !L ,M BK )L ",
"EK ~L  J DL DL pI 5J sI sI sI {K 'M MJ )M kK +L IL !M $J ~M (K %K %K %K %K %K 6L KL KL KL KL KL {M {M ]M ^M ^M bK KL /M (M bK ^M UK UK _M UK OL RL ML /M li :M <M [M }M |M ZL 1M 2M UL 3M YL ui fl jL 4M tj 5M 6M 7M B1 B1 8M 9M H8 H8 #M #M #M #M #M #M $M &M &M 0M aM bM cM *M uL `I uL &L ;M ;M CH >M CH CH HJ KJ KJ jC KJ dM eM CL fM gM gM gM gM gM !L !L >K >K CK ",
"~L ~L )K DL hM iM jM EL 5J sI kM lM mM nM mM oM pM qM rM KL KL @K /L /L sM tM uM uM uM uM uM uM {M {M {M vM {M wM {M xM ZK yM zM fK AM BM CM OL DM EM FM GM HM GM IM JM HM [M KM aL LM ui MM NM OM NM PM 2y ;b QM RM b6 SM B1 TM UM UM UM VM WM UM WM WM XM YM ZM &M aM /d `M  N .N .N +N @N #N $N nI nI %N &N dM HJ HJ mI 4H BK *N =N BK -N BK BK BK BK BK BK ;N >N ,N ",
"'N EK )K EK hM )N !N !N ~N 5J rI 'I sI {N {N ]N ^N /N `K (N sM uM _N ]M :N _N {M {M {M {M {M {M VK VK VK VK VK NL ae <N [N }N |N qk OL 1N 2N 3N 4N 5N 5N 5N 6N 7N 7N 7N 7N 7N 8N 9N ZL 0N aN bN cN bN bN dN >4 eN eN fN gN hN hN |} iN jN kN kN iN jN jN lN mN nN oN nN lN oN oN pN qN rN sN tN uN uN uL ;K 'L mI CH vN CH CH vN vN CH CH CH wN xN xN xN xN xN yN zN AN ",
"'N EK EK EK hM )N !N !N ~N 5J sI 'I sI kM BN BN CN DN EN kK FN !M GN !M !M GN GN HN HN UL IN IN IN IN IN IN EM JN [M KN LN MN NN ON PN QN RN ZL 5N SN TN UN VN WN WN WN WN WN XN UN UN YN YN p_ ZN `N  O  O .O +O +O @O #O +O +O $O %O %O %O %O kN kN jN kN lN lN &O %O *O =O -O rN ;O >O ,O 'O )O )O !O &N &N &N !O >N ~O ~O  N {O ]O ~O fM eM xN xN xN xN xN yN zN AN ",
"^O ~L ~L ~L DL )N !N !N /O rI sI rI rI (O %M _O :O :O <O [O {M }O !M !M !M !M |O 1O 1O 2O 2O 2O 3O DM DM 4O DM b6 5O 6O FM 7O 8O 9O 0O 0O aO 8N bO bO cO dO eO fO fO fO fO fO fO gO hO hO gO iO jO kO lO mO mO nO oO oO pO oO qO rO sO tO tO tO uO vO vO vO wO xO mN *O mN mN mN yO zO zO >O AO BO sN CO DO EO DO EO FO CO GO HO IO JO KO LO MO xN xN vN CH xN NO zN OO ",
"PO QO ~L ~L DL )N RO !N SO rI rI rI TO UO VO VO WO :O XO YO vM YL ZO `O  P ZO `O  P dL DM DM DM .P +P +P 5N 5N @P #P 4N $P %P &P bg *P 9g =P -P WN ;P gO >P t{ ,P 'P 'P 'P 'P )P !P ~P !P !P ~P {P ]P ^P /P (P ]P _P :P <P [P }P |P 1P 2P 3P 4P 5P 5P 6P 7P 6P wO 8P 9P 8P 9P 9P 0P *O aP AO AO bP bP ,O JO cP pN dP EO dP FO eP eP eP fP gP hP xN xN iP iP jP kP lP mP ",
"PO QO EK )K DL nP RO !N SO rI rI EL (O oP $M VO pP HH qP rP IN sP tP 3O uP 3O 3O vP WL WL WL WL WL +P 5N 5N 5N FM wP xP yP zP *P *P AP BP CP DP EP 'P FP GP GP HP IP IP JP JP KP LP MP NP OP PP QP RP SP TP UP VP WP XP YP XP ZP `P  Q .Q +Q +Q @Q #Q mO $Q %Q &Q 6P *Q 6P *Q =Q -Q ;Q *O mN mN >Q >Q ,Q 'Q sN )Q fP !Q ~Q {Q !Q fP fP ~Q ]Q JO xN xN xN iP iP NO zN AN ",
"^O ^O 'N ^Q /Q (Q !N RO !N _Q :Q <Q (O [Q }Q |Q CN <O 1Q 2Q 1Q 3Q 4Q 5Q 5Q uP 6Q 7Q 8Q 9Q 8Q 0Q aQ aQ bQ bQ cQ dQ eQ dO cO fQ gQ hQ iQ jQ kQ lQ mQ nQ oQ pQ qQ pQ pQ pQ pQ pQ rQ sQ tQ uQ vQ wQ u8 xQ yQ zQ MP AQ UP BQ UP CQ DQ EQ FQ CQ GQ HQ IQ JQ KQ KQ KQ LQ MQ NQ OQ PQ QQ RQ *Q SQ SQ SQ ,Q TQ TQ AO UQ VQ WQ tN WQ JO XQ YQ HO OO ,O mP OO OO mP mP ZQ mP mP `Q ",
"^O ^O ^O ^O  R )N RO RO !N :Q .R <Q +R @R X2 #R $R %R &R vP uP *R 5Q 5Q =R -R ;R >R ,R >R >R ,R 'R 'R )R !R ~R {R {R {R ]R ^R /R (R _R :R <R [R }R |R 1R 2R 3R 4R 5R 5R 6R 6R 6R 7R 8R 9R 9R 0R aR aR bR cR dR eR fR gR hR iR jR jR kR lR  Q mR s, nR oR pR qR rR sR sR tR uR vR *Q =Q 6P SQ wR xR *O *O ,Q yR zR ,Q AR AR TQ cP sN YQ mP YQ BR mP OO OO mP ZQ CR CR mP ",
"^O ^O PO ^O 'N DR RO !N !N :Q ER FR GR HH HR $O IR JR KR LR MR =R NR OR PR QR RR SR TR 'R 'R 'R UR VR WR XR YR ZR `R  S `R .S +S @S #S $S %S &S *S =S -S ;S >S ,S 'S 'S )S 'S !S !S ~S {S ]S !S !S ^S /S (S _S :S <S [S [S [S }S |S 1S 2S 3S 4S 5S 6S 7S 8S 9S 0S aS bS bS cS uR uR dS eS eS fS gS gS hS iS jS kS lS mS nS nS nS YQ IO HO oS oS mP BR BR BR pS qS ZQ HO ",
"^O ^O ^O ^O 'N )N RO RO RO !N rS 8M sS KR tS uS vS wS xS tS yS zS AS BS PR >R gO CS CS UR DS ES FS GS HS }R HS IS pQ JS JS |R KS LS MS NS OS PS {S QS )S RS SS TS US US VS WS XS YS ZS `S  T .T +T @T #T $T %T %T %T &T *T =T -T ;T >T ,T 'T )T !T ~T {T ]T !T ^T /T (T _T :T <T [T uR dS dS eS eS }T |T 1T 2T 3T 4T 5T 6T 7T 8T 9T 9T AR AR 9T 9T 9T 0T 0T 9T 0T aT 0T ",
"PO PO ^Q ^O 'N )N RO RO !N :Q bT cT %O dT eT dT vS fT gT hT iT jT kT lT mT nT oT pT qT qT qT rT sT tT KP pQ uT vT wT xT yT zT AT BT BT CT -S DT ET FT GT HT IT JT KT KT KT LT MT NT OT PT QT RT ST TT UT VT UT WT XT YT ZT `T `T `T =T  U .U +U @U #U $U %U %U &U &U *U =U -U ;U +Q >U ,U 'U )U !U )U ~U ~U {U ]U ^U /U /U ^U (U _U _U _U _U _U 0T 0T aT 0T 9T 0T 0T 9T ",
":U :U <U <U [U /Q /Q /Q }U |U <Q 1U <Q dT 2U 3U 4U 5U 6U 7U 8U 9U 0U lT aU oT bU ~P cU dU eU fU sQ rQ gU hU iU jU kU lU BT mU nU oU pU qU rU HT sU tU uU vU wU xU yU zU AU BU CU zU BU DU EU FU GU HU IU IU JU KU LU MU NU OU PU QU RU SU TU UU VU WU XU YU ZU `U  V .V +V @V *U #V $V %V &V *V QQ =V -V ;V ~U >V ,V 'V (U )V )V 8T !V mS _U _U 0T 0T 0T 0T 0T 9T 9T ~V ",
"{V wR wR SQ =Q <U 'N ^Q ]V ]V ^V |U /V (V _V 3U :V <V [V }V [P |V 1V 2V 3V 4V 5V cU 6V 7V 8V eU 9V iU BT mU 0V YS aV mU bV cV dV eV fV gV hV iV jV kV kV lV mV nV lV lV oV oV pV qV qV oV rV sV rV tV tV tV uV vV wV xV xV KU yV zV AV RU BV CV DV EV FV GV HV YU IV JV %V .V @V KV LV MV NV OV PV QV RV SV nP TV UV TV VV PO PO WV XV 8T nS _U YV YV YV ZV YV `V  W  W ",
"{V wR wR SQ =Q <U 'N ^Q ]V ]V [U .W +W @W #W $W oO %W &W *W =W oT nT -W ;W >W ,W 'W )W !W ~W {W ]W ^W )S ]S /W 0V (W _W :W <W [W }W |W 1W 2W 3W 4W 5W 6W 7W 8W 9W 0W aW bW cW dW eW bW fW gW hW iW jW kW kW lW mW nW oW pW qW rW sW tW AV uW vW wW xW DV yW zW AW AW IV BW  V @V CW DW EW FW GW HW IW JW KW LW MW pR NW OW TV PO PW QW RW SW TW _U _U _U YV _U  W YV  W ",
"wR SQ =Q wR =Q <U ^Q 'N ]V ]V ^V .W $W (V UW VW &W }V :P WW XW ;W YW wT ZW MP `W  X .X (S +X AT @X #X $X {S %X &X *X eV =X -X ;X >X ,X 'X )X !X cW ~X {X ]X ~X ^X /X (X _X :X _X <X [X <X }X |X 1X 2X 3X 4X 4X 5X 6X 7X 8X 9X 0X aX bX cX dX eX fX gX hX xW iX jX kX lX mX nX oX 'S pX qX rX sX tX uX $V vX wX xX yX zX AX AX AX BX CX CX DX EX (U FX FX GX HX GX HX IX ",
"{V wR -Q {V SQ JX ^Q ]V ]V ]V KX LX $W UW UW eT }V MX NX -W OX YW PX dR NP QX RX SX TX TX (S UX VS VX WX eV XX YX ZX `X  Y .Y +Y @Y #Y $Y %Y &Y *Y =Y =Y /X -Y ;Y >Y >Y ,Y ,Y 'Y )Y !Y ~Y {Y ]Y :X _X ^Y _X /Y (Y _Y :Y <Y [Y }Y |Y 1Y 2Y 3Y 4Y 5Y 6Y gX 7Y yV 8Y 9Y 0Y aY bY cY dY $U eY fY gY hY iY QV vX jY kY lY yX zX AX mY nY BX oY pY qY DX rY rY rY EX sY tY tY ",
"wR wR wR <U [U uY  R ]V ]V vY wY xY yY &W zY *W AY BY CY DY EY SP FY GY `W HY 8R IY JY KY LY GT MY KT NY zU OY PY QY QY RY SY TY UY VY WY XY YY ZY `Y  Z .Z +Z @Z #Z $Z %Z &Z *Z =Z -Z ;Z *Z >Z ,Z 'Z )Z !Z ~Z {Z ]Z ^Z 5X /Z (Z _Z :Z <Z [Z 2Y }Z |Z 1Z 2Z 3Z 4Z 5Z 6Z 7Z 8Z 9Z 0Z aZ bZ cZ dZ qX eZ fZ gZ hZ uX iZ jZ kZ lZ mY mZ nZ oZ oZ pZ qZ rY EX EX rZ sY sZ sY ",
"SQ SQ 'N 'N tZ uZ uZ vZ wZ xZ xZ yZ yZ zZ zZ AZ BZ NX CZ DZ EZ FZ GZ HZ IY IZ KY JZ KZ LZ MZ NZ OZ jV PZ QZ RZ SZ TZ UZ VZ WZ XZ YZ ZZ `Z  ` .` +` @` @Z #` $` %` &` *` =` =` -` ;` #` >` ,` '` )` !` ~` {` ]` ^` /` (` _` :` <` [` }` |` 1` 2` 3` 4` 5` 6` 7` 8` wW xW 9` 0` kX a` b` c` d` e` dY f` g` h` i` uX j` k` l` m` mZ n` oY oZ oY o` CX p` q` rY r` s` t` u` ",
"v` v` w` ;V SV tZ x` tZ y` z` aS /T A` B` 0S AZ C` D` E` (P F` G` H` I` J` K` @T L` M` N` O` }W oV oV iW fW P` Q` P` R` S` T` U` V` W` X` Y` Z` ``   .. .+ .@ .# .$ .$ .% .% .# .& .% .* .= .- .,` ; .+ .> ., .' .) .! .~ .{ .] .^ ./ .( ._ .: .< .[ .} .aX | .1 .2 .8` 3 .4 .4 .5 .6 .7 .8 .9 .0 .a .b .c .d .QV j` j` e .k` f .g .h .h .i .j .k .CX sZ EX rY sZ t` u` ",
"l .l .m .OW y` n .n .o .xZ >U p .q .q .eY q .r .s .t .u .jR v .w .J` x .y .#T z .MZ A .B .sV C .D .aW cW E .1X F .G .H .I .J .K .L .M .f1 N .O .P .Q .R .S .T .U .V .W .X .Y .V .X .Z .` . .....+..@..#..$..%..&..*..=..-..;..>..,..'..)..!..!..~..{..]..^../..(.._..:..<..[..3Z }..|..|..1..2..2..3..4..5..6..6..7..8..9..j` j` 0..a..b..b..c..d..e..f..g..h..sZ t` t` ",
"i..j..}T ~U !U y` y` xZ >U >U k..q .eY eY l..GQ m..n..o..p..w .q..TX r..LT s..t..u..v..QZ w..x..dW [X ^Y y..z..A..B..C..D..E..F..G..H..I..J..K..L..M..N..O..P..Q..R..R..S..S..S..T..T..U..V..W..X..Y..Z..`.. +..+.++.@+.#+.$+.%+.&+.*+.=+.-+.;+.>+.,+.'+.: .)+.!+.~+.{+.]+.^+./+.(+.4 ._+.:+.7 .8 .<+.[+.}+.|+.1+.2+.3+.4+.8..5+.k` 6+.6+.7+.8+.j .j .9+.f..0+.a+.t` t` ",
"b+.c+.~U ~U d+.y` xZ z` >U >U e+.q .f+.+V g+.h+.i+.j+.;T k+.l+.`T m+.n+.KU }W o+.p+.q+.iW r+.s+._X t+.u+.@Z v+.w+.#` x+.y+.z+.A+.B+.C+.D+.E+.F+.G+.H+.I+.J+.K+.L+.L+.L+.M+.M+.N+.O+.P+.Q+.R+.S+.T+.U+.V+.S..W+.X+.Y+.Z+.`+. @..@.+@.@@.#@.$@.%@.&@.*@.=@.-@.;@.>@.,@.'@.)@.5` !@.~@.{@.]@.^@./@.|..(@._@.:@.<@.[@.}@.|@.3+.1@.2@.3@.3@.4@.7+.8+.5@.j .6@.9+.o` f..t` t` ",
"OW eS 7@.y` y` xZ z` yZ 8@.9@.0@.a@.b@.c@.{T d@.e@.f@.g@.h@.i@.j@.k@.sU B .uV l@.m@.n@.o@.p@.)Z q@.r@.s@.t@.u@.v@.w@.x@.y@.z@.A@.B@.C@.D@.E@.F@.G@.H@.I@.J@.K@.L@.M@.N@.O@.P@.Q@.P@.R@.S@.R@.R@.T@.U@.V@.W@.W@.X@.Y@.Z@.`@. #..#.+#.@#.##.$#.%#.&#.*#.&@.;+.=#.-#.}` ;#.3` >#.,#.'#.)#.!#.~#.^@.{#.]#.^#./#.(#._#.:#.<#.<#.3+.[#.}#.|#.e .1#.2#.6+.8+.3#.3#.4#.5#.6@.6#.",
"NW }T 7#.y` y` 8#.,U 9#.0#.a#.b#.b#.+V {T c#.d#.e#.f#.=T g#.h#.i#.j#.k#.l#.m#.n#.o#.o@.p#.q#.r#.r@.s#.t#.u#.y+.Q .v#.w#.x#.y#.z#.A#.B#.M+.C#.D#.E#.F#.G#.H#.I#.J#.K#.L#.L#.M#.N#.O#.O#.P#.Q#.R#.S#.T#.U#.V#.W#.X#.Y#.Z#.`#. $..$.+$.@$.#$.$$.%$.&$.*$.=$.-$.;$.^ .>$.,$.'$.)$.!$.~$.{$.]$.^$.~#./$.{#.]#.^#./#.($.($._$.<#.:$.<$.8..[$.|#.6+.7+.}$.}$.}$.|$.|$.1$.2$.3$.",
"OW }T 4$.5$.y` 6$.9#.7$.a#.q .8$.9$.0$.%U a$.b$.c$.d$.e$.f$.KU g$.h$.l@.i$.j$.k$.l$.m$.n$.o$.p$.q$.r$.y+.s$....t$.u$.v$.w$.x$.y$.z$.A$.B$.C$.D$.E$.F$.G$.H$.I$.J$.K$.L$.M$.N$.O$.P$.Q$.R$.S$.T$.U$.V$.W$.X$.Y$.Z$.`$. %..%.+%.@%.#%.$%.%%.&%.*%.=%.-%.;%.>%.,%.'%.)%.!%.~%.{%.]%.^%./%.(%._%.:%.<%.[%.}%.|%.1%./#.2%.3%._$.4%.5%.6%.7%.8%.[$.9%.3@.}$.|$.|$.|$.0%.a%.b%.",
"OW OW c%.d%.y` ,U _T e+.*U f+.9$.9$.%U $U e%.f%.g%.SU h%.i%.j%.k%.l%.m%.n%.p@.o%.p%.r#.q%.r%.s%.t%.u%.v%.w%.C@.x%.y%.L+.z%.A%.B%.C%.D%.E%.F%.G%.H%.I%.J%.K%.L%.M%.N%.O%.P%.Q%.Q%.R%.R%.R%.S%.T%.U%.V%.W%.X%.Y%.Z%.`%. &..&.+&.@&.#&.$&.%&.&&.%%.&%.*&.=&.-&.;&.>&.,&.'&.)&.!&.~&.{&.]&./%.^&./&.(&._&.:&.}%.<&.[&.}&.|&.1&.2&.3&.5%.4&.5&.7%.8%.3@.4@.}$.}$.|$.6&.7&.8&.",
"}T OW c%.y` xZ 9&.0&.e+.*U f+.a&.b&.c&.V# FV d&.g@.e&.f&.g&.h&.9X i&.j&.k&.l&.m&.n&.o&.p&.,` q&.r&.s&.t&.T..u&.P+.v&.w&.x&.y&.z&.A&.B&.C&.D&.K%.E&.F&.G&.H&.I&.J&.K&.L&.M&.K&.N&.M&.M&.O&.P&.Q&.R&.S&.T&.U&.V&.W&.X&.Y&.Z&.`&. *..*.+*.@*.#*.$*.%*.&*.**.=*.-*.;*.>*.,*.'*.)*.!*.~*.{*.]*.^*./*.(*._*.:*.<*.}%.[*.[&.}*.2%.1&.|*.1*.3&.2*.1@.5&.3*.4*.5*.6*.7*.8*.9*.0*.",
"a*.~U ~U 4$.b*.c*.d*.e*.@V f*.g*.h*.i*.j*.k*.l*.g#.zV m*.n*.o*.p*.q*.r*.s*.t*.u*.v*.w*.x*.B+.y*.`..z*.R..A*.U@.K@.B*.C*.D*.E*.F*.G*.H*.I*.J*.K*.L*.M*.N*.O*.P*.Q*.R*.S*.T*.U*.U*.V*.V*.W*.X*.X*.Y*.Z*.`*. =..=.+=.@=.#=.$=.%=.&=.*=.==.-=.;=.>=.,=.'=.)=.!=.~=.{=.]=.^=./=.(=._=.:=.<=.[=.}=.|=.1=.2=.3=.4=.5=.6=.7=.8=.9=.}*.|&.|*.0=.a=.b=.c=.d=.e=.f=.g=.7*.h=.i=.j=.",
"~U k=.~U KQ UV c*.l=.m=.n=. V YU o=.8Z 9Y p=.hX q=.r=.s=.t=.u=.v=.}` k&.w=.x=.y=.z=.A=.s$.B=.Y..C=.D=.E=.F=.G=.H=.I=.J=.K=.L=.M=.N=.O=.N&.P=.Q=.R=.S=.T=.U=.V=.W=.X=.Y=.Z=.`=. -..-..-.+-.@-.@-.#-.$-.%-.&-.*-.=-.--.;-.>-.,-.W&.'-.)-.!-.~-.{-.]-.^-./-.)=.(-._-.:-.<-.[-.}-.|-.1-.2-.3-.4-.5-.6-.7-.8-.9-.0-.a-.b-.c-.d-.e-.f-.|&.g-.h-.i-.j-.k-.}#.e=.f=.6*.l-.l-.m-.",
"~U ~U c+.n-.UV o-.QV m=. V ZU p-.o=.8Z 9Y p=.q-.yV r-.s-.t-.u-.v-.w-.x-.y-.z-.A-.B-.C-.D-.E-.C=.F-.E=.F=.G-.H-.I-.J-.K-.L-.M-.N-.O-.P-.Q-.R-.S-.T-.U-.V-.W-.X-.Y-.Z-.`-. ;..;.+;.@;.#;.+;.$;.%;.&;.*;.=;.-;.;;.>;.,;.';.);.!;.~;.{;.];.^;./;.(;.-=._;.:;.<;.[;.};.|;.1;.2;.3;.4;.5;.6;.7;.8;.9;.0;.a;.b;.c;.d;.e;.b-.f;.g;.9=.h;.i;.|*.g-.j;.k;.l;.m;.e=.e=.5*.h=.l-.m-."};
