/* XPM */
static char *N[] = {
/* columns rows colors chars-per-pixel */
"128 128 77 1 ",
"  c blue",
". c #0101FF",
"X c #0202FF",
"o c #0404FF",
"O c #0505FF",
"+ c #0707FF",
"@ c #0B0BFF",
"# c #0E0EFF",
"$ c #1111FF",
"% c #1313FF",
"& c #1414FF",
"* c #1717FF",
"= c #1B1BFF",
"- c #1E1EFF",
"; c #2323FF",
": c #2727FF",
"> c #2C2CFF",
", c #3030FF",
"< c #3232FF",
"1 c #3636FF",
"2 c #3B3BFF",
"3 c #4242FF",
"4 c #4646FF",
"5 c #4747FF",
"6 c #4D4DFF",
"7 c #5454FF",
"8 c #5858FF",
"9 c #5959FF",
"0 c #5E5EFF",
"q c #5F5FFF",
"w c #6060FF",
"e c #6464FF",
"r c #6666FF",
"t c #6A6AFF",
"y c #7070FF",
"u c #7171FF",
"i c #7979FF",
"p c #7C7CFF",
"a c #8282FF",
"s c #8383FF",
"d c #8888FF",
"f c #8E8EFF",
"g c #9494FF",
"h c #9595FF",
"j c #9A9AFF",
"k c #A0A0FF",
"l c #A6A6FF",
"z c #A7A7FF",
"x c #A8A8FF",
"c c #ACACFF",
"v c #B2B2FF",
"b c #B9B9FF",
"n c #BCBCFF",
"m c #BEBEFF",
"M c #C4C4FF",
"N c #CACAFF",
"B c #CDCDFF",
"V c #CECEFF",
"C c #D3D3FF",
"Z c #D9D9FF",
"A c #DCDCFF",
"S c #E0E0FF",
"D c #E1E1FF",
"F c #E5E5FF",
"G c #E7E7FF",
"H c #E8E8FF",
"J c #EBEBFF",
"K c #EEEEFF",
"L c #F1F1FF",
"P c #F4F4FF",
"I c #F6F6FF",
"U c GhostWhite",
"Y c #FAFAFF",
"T c #FCFCFF",
"R c #FDFDFF",
"E c #FEFEFF",
"W c white",
/* pixels */
"WWWWWWWWWWWWWWWWWWWWWWWWWWWWWWWWWWWWWWWWWWWWWWWWWWWWWWWWWWWWWWWWWWWWWWWWWWWWWWWWWWWWWWWWWWWWWWWWWWWWWWWWWWWWWWWWWWWWWWWWWWWWWWWW",
"                WWWWWWWWWWWWW   WWW       WW       WW        W         W         W        W         W         W         W       ",
"                            WWWWWWWWWWWW    WW       W        W         W        W         W         W        W         W       ",
"                                  WWWWWWWWWWWWWWWWWW  WW       W        W         W        W         W        W         W       ",
"                                       WWWWWW   WW  WWWWWWWWWWWWWW       W        W         W        W         W        W       ",
"                                             WWWWWWWW     W     WWWWWWWWWWW        W        W        W         W        W       ",
"                                                WWWWWWWW   WW      W       WWWWWWWWWWWW      W        W        W        W       ",
"                                                    WWWWWWWWWW      W       W       W  WWWWWWWWWWWW   W        W        W       ",
"                                                       WWWW  WWWWW   W       W       W       W     WWWWWWWWWWWWW         W      ",
"                                                          WWWW  W WWWWWW     W       W        W        W       WWWWWWWWWWWW     ",
"                                                             WWWWWW    WWWWWW W       W       W        W        W        W WWWWW",
"                                                                WWWW    WW   WWWWWW    W       W       W        W        W      ",
"                                                                  WWWWW   W     W  WWWWW       W       W        W        W      ",
"                                                                    WWWWWWWW     W      WWWWW  W        W       W        W      ",
"                                                                      WWW  WWW    W     W    WWWWWW     W       W        W      ",
"                                                                        WWW  WWWW W      W      W  WWWWWW       W        W      ",
"                                                                           WW W  WWW      W      W      WWWWWW   W       W      ",
"                                                                            WWWW    WWWW  W      W       W    WWWWW      W      ",
"                                                                              WWW    W  WWWW      W      W       W WWWWW W      ",
"                                                                               WWWW   W    WWW    W      W       W      WWWWWW  ",
"                                                                                 W WWW W    W WWW W       W      W       W    WW",
"                                                                                  WWW WW     W   WWWW     W      W       W      ",
"                                                                                    WW  WW   W     W WWW  W       W      W      ",
"                                                                                      W  WWW  W     W   WWW       W       W     ",
"                                                                                       WW W WWW     W      WWWW   W       W     ",
"                                                                                        WW W  WWW    W     W   WWWW       W     ",
"                                                                                         WWWW   WWW  W     W      WWW     W     ",
"                                                                                           WW   W  WWW      W     W  WWW  W     ",
"                                                                                            WWW  W   WW     W      W    WWWW    ",
"                                                                                             WWWWW    WWW   W      W      W WWW ",
"                                                                                              WW WW    W WWWW      W      W    W",
"                                                                                               WW WW   W    WW     W      W     ",
"                                                                                                WW WW   W    WWW   W      W     ",
"                                                                                                 W  WWW W    W  WW W      W     ",
"                                                                                                  WWW  WW     W   WWW     W     ",
"                                                                                                   WWW  WW    W     WWW   W     ",
"                                                                                                    WWW  WW   W     W  WW W     ",
"                                                                                                     WW   WWW W     W    WW     ",
"                                                                                                     W W  W  WWW    W      WW   ",
"                                                                                                      WWW W    W    W      W WW ",
"                                                                                                       WWW W   WWW   W     W   W",
"                                                                                                        WWWW   W  W  W     W    ",
"                                                                                                         W  W   W  WWW     W    ",
"                                                                                                          W WW  W    W     W    ",
"                                                                                                          W  WW W    WWW   W    ",
"                                                                                                           W W W W   W  W  W    ",
"                                                                                                            WW  WW    W  WWW    ",
"                                                                                                            WWW  W    W    WW   ",
"                                                                                                             WW  WW   W    W W  ",
"                                                                                                             W W  WWW W    W  WW",
"                                                                                                              WW  W  WW    W    ",
"                                                                                                               WW W   W    W    ",
"                                                                                                               WWW W   W   W    ",
"                                        eWWWWWWWWWWWWWWK$                 ,WWWWWWWWWWWWx                        W WW   WW   W   ",
"                                        eWWWWWWWWWWWWWWWd                 ,WWWWWWWWWWWWx                        WW W   W W  W   ",
"                                        eWWWWWWWWWWWWWWWI=                ,WWWWWWWWWWWWx                         W WW  W  W W   ",
"                                        eWWWWWWWWWWWWWWWWj                ,WWWWWWWWWWWWx                          W W  W   WW   ",
"                                        eWWWWWWWWWWWWWWWWW:               ,WWWWWWWWWWWWx                          W WW W    WW  ",
"                                        eWWWWWWWWWWWWWWWWWc               ,WWWWWWWWWWWWx                          WWW WW    W W ",
"                                        eWWWWWWWWWWWWWWWWWW1              ,WWWWWWWWWWWWx                           W W WW   W  W",
"                                        eWWWWWWWWWWWWWWWWWWm              ,WWWWWWWWWWWWx                           WWW  W   W   ",
"                                        eWWWWWWWWWWWWWWWWWWW5             ,WWWWWWWWWWWWx                            WW  WW  W   ",
"                                        eWWWWWWWWWWWWWWWWWWWV             ,WWWWWWWWWWWWx                            WW  WW  W   ",
"                                        eWWWWWWWWWWWWWWWWWWWW9            ,WWWWWWWWWWWWx                             WW W W W   ",
"                                        eWWWWWWWWWWWWWWWWWWWWA+           ,WWWWWWWWWWWWx                             WW W  WW   ",
"                                        eWWWWWWWWWWWWWWWWWWWWWt           ,WWWWWWWWWWWWx                             WWW W  W   ",
"                                        eWWWWWWWWWWWWWWWWWWWWWJ@          ,WWWWWWWWWWWWx                              W WW  WW  ",
"                                        eWWWWWWWWWWWWWWWWWWWWWWi          ,WWWWWWWWWWWWx                              WWWW  W W ",
"                                        eWWWWWWWWWWWWWWWWWWWWWWP&         ,WWWWWWWWWWWWx                               W W   WW ",
"                                        eWWWWWWWWWWWWSWWWWWWWWWWf         ,WWWWWWWWWWWWx                               W W   W W",
"                                        eWWWWWWWWWWWWiGWWWWWWWWWU=        ,WWWWWWWWWWWWx                                WWW  W  ",
"                                        eWWWWWWWWWWWWteWWWWWWWWWWk        ,WWWWWWWWWWWWx                                W WW W  ",
"                                        eWWWWWWWWWWWWy+CWWWWWWWWWW>       ,WWWWWWWWWWWWx                                W WW W  ",
"                                        eWWWWWWWWWWWWy 7WWWWWWWWWWv       ,WWWWWWWWWWWWx                                WWW WW  ",
"                                        eWWWWWWWWWWWWy  NWWWWWWWWWW2      ,WWWWWWWWWWWWx                                 WW WW  ",
"                                        eWWWWWWWWWWWWy  3WWWWWWWWWWM      ,WWWWWWWWWWWWx                                 WW  W  ",
"                                        eWWWWWWWWWWWWy   bWWWWWWWWWW6     ,WWWWWWWWWWWWx                                 WW  WW ",
"                                        eWWWWWWWWWWWWy   ,WWWWWWWWWWC     ,WWWWWWWWWWWWx                                  WW WW ",
"                                        eWWWWWWWWWWWWy    lWWWWWWWWWW0    ,WWWWWWWWWWWWx                                  WW W W",
"                                        eWWWWWWWWWWWWy    :UWWWWWWWWWS+   ,WWWWWWWWWWWWx                                  WW W W",
"                                        eWWWWWWWWWWWWy     hWWWWWWWWWWt   ,WWWWWWWWWWWWx                                  WWWW  ",
"                                        eWWWWWWWWWWWWy     &IWWWWWWWWWK$  ,WWWWWWWWWWWWx                                   WWW  ",
"                                        eWWWWWWWWWWWWy      aWWWWWWWWWWa  ,WWWWWWWWWWWWx                                   W W  ",
"                                        eWWWWWWWWWWWWy      #JWWWWWWWWWP& ,WWWWWWWWWWWWx                                   WWWW ",
"                                        eWWWWWWWWWWWWy       yWWWWWWWWWWh ,WWWWWWWWWWWWx                                    WWW ",
"                                        eWWWWWWWWWWWWy       @SWWWWWWWWWU;,WWWWWWWWWWWWx                                    W W ",
"                                        eWWWWWWWWWWWWy        0WWWWWWWWWWl,WWWWWWWWWWWWx                                    W W ",
"                                        eWWWWWWWWWWWWy         CWWWWWWWWWWwWWWWWWWWWWWWx                                    W WW",
"                                        eWWWWWWWWWWWWy         6WWWWWWWWWWSWWWWWWWWWWWWx                                    WWWW",
"                                        eWWWWWWWWWWWWy          MWWWWWWWWWWWWWWWWWWWWWWx                                     WW ",
"                                        eWWWWWWWWWWWWy          2WWWWWWWWWWWWWWWWWWWWWWx                                     WW ",
"                                        eWWWWWWWWWWWWy           vWWWWWWWWWWWWWWWWWWWWWx                                     WW ",
"                                        eWWWWWWWWWWWWy           >WWWWWWWWWWWWWWWWWWWWWx                                     WW ",
"                                        eWWWWWWWWWWWWy            jWWWWWWWWWWWWWWWWWWWWx                                     WW ",
"                                        eWWWWWWWWWWWWy            =IWWWWWWWWWWWWWWWWWWWx                                     WW ",
"                                        eWWWWWWWWWWWWy             gWWWWWWWWWWWWWWWWWWWx                                      WW",
"                                        eWWWWWWWWWWWWy             $PWWWWWWWWWWWWWWWWWWx                                      WW",
"                                        eWWWWWWWWWWWWy              iWWWWWWWWWWWWWWWWWWx                                      WW",
"                                        eWWWWWWWWWWWWy              @GWWWWWWWWWWWWWWWWWx                                      WW",
"                                        eWWWWWWWWWWWWy               tWWWWWWWWWWWWWWWWWx                                      WW",
"                                        eWWWWWWWWWWWWy               +AWWWWWWWWWWWWWWWWx                                      WW",
"                                        eWWWWWWWWWWWWy                7WWWWWWWWWWWWWWWWx                                       W",
"                                        eWWWWWWWWWWWWy                 VWWWWWWWWWWWWWWWx                                       W",
"                                        eWWWWWWWWWWWWy                 5WWWWWWWWWWWWWWWx                                       W",
"                                        eWWWWWWWWWWWWy                  mWWWWWWWWWWWWWWx                                       W",
"                                                                                                                               W",
"                                                                                                                               W",
"                                                                                                                               W",
"                                                                                                                               W",
"                                                                                                                               W",
"                                                                                                                               W",
"                                                                                                                               W",
"                                                                                                                               W",
"                                                                                                                                ",
"                                                                                                                                ",
"                                                                                                                                ",
"                                                                                                                                ",
"                                                                                                                                ",
"                                                                                                                                ",
"                                                                                                                                ",
"                                                                                                                                ",
"                                                                                                                                ",
"                                                                                                                                ",
"                                                                                                                                ",
"                                                                                                                                ",
"                                                                                                                                ",
"                                                                                                                                ",
"                                                                                                                                "
};
