/* XPM */
static char *N_soft[] = {
/* columns rows colors chars-per-pixel */
"128 128 76 1 ",
"  c #6A8CAF",
". c #6B8CAF",
"X c #6B8DB0",
"o c #6C8EB0",
"O c #6D8EB1",
"+ c #6E8FB1",
"@ c #7091B2",
"# c #7292B3",
"$ c #7494B4",
"% c #7595B5",
"& c #7695B5",
"* c #7796B6",
"= c #7A98B7",
"- c #7C9AB8",
"; c #7E9CBA",
": c #819EBB",
"> c #84A0BD",
", c #86A2BE",
"< c #87A3BF",
"1 c #8AA4C0",
"2 c #8CA7C2",
"3 c #91AAC4",
"4 c #93ACC5",
"5 c #97AFC7",
"6 c #9BB2C9",
"7 c #9DB4CB",
"8 c #9EB4CB",
"9 c #A1B6CC",
"0 c #A2B7CD",
"q c #A4B9CE",
"w c #A6BACF",
"e c #A8BCD0",
"r c #ABBFD2",
"t c #ACBFD2",
"y c #B1C3D5",
"u c #B2C4D6",
"i c #B6C7D8",
"p c #B7C7D8",
"a c #B9C9DA",
"s c #BDCCDC",
"d c #C0CFDD",
"f c #C1CFDE",
"g c #C4D1DF",
"h c gainsboro",
"j c #C7D4E1",
"k c #CBD7E3",
"l c #CCD7E3",
"z c #CCD8E4",
"x c #CFDAE5",
"c c #D2DCE7",
"v c #D6DFE9",
"b c #D8E1EA",
"n c #D9E2EB",
"m c #DDE4EC",
"M c #E0E7EE",
"N c #E2E8EF",
"B c #E2E9F0",
"V c #E5EBF1",
"C c #E9EEF3",
"Z c #EBEFF4",
"A c #EDF1F5",
"S c #EDF1F6",
"D c #F0F3F7",
"F c #F1F4F7",
"G c #F2F5F8",
"H c #F3F6F9",
"J c #F5F7FA",
"K c #F7F9FB",
"L c #F9FAFC",
"P c #FAFBFC",
"I c #FBFCFD",
"U c #FCFDFD",
"Y c #FDFEFE",
"T c #FEFEFE",
"R c #FEFFFF",
"E c white",
/* pixels */
"hhhhhhhhhhhhhhhhhhhhhhhhhhhhhhhhhhhhhhhhhhhhhhhhhhhhhhhhhhhhhhhhhhhhhhhhhhhhhhhhhhhhhhhhhhhhhhhhhhhhhhhhhhhhhhhhhhhhhhhhhhhhhhhh",
"                hhhhhhhhhhhhh   hhh       hh       hh        h         h         h        h         h         h         h       ",
"                            hhhhhhhhhhhh    hh       h        h         h        h         h         h        h         h       ",
"                                  hhhhhhhhhhhhhhhhhh  hh       h        h         h        h         h        h         h       ",
"                                       hhhhhh   hh  hhhhhhhhhhhhhh       h        h         h        h         h        h       ",
"                                             hhhhhhhh     h     hhhhhhhhhhh        h        h        h         h        h       ",
"                                                hhhhhhhh   hh      h       hhhhhhhhhhhh      h        h        h        h       ",
"                                                    hhhhhhhhhh      h       h       h  hhhhhhhhhhhh   h        h        h       ",
"                                                       hhhh  hhhhh   h       h       h       h     hhhhhhhhhhhhh         h      ",
"                                                          hhhh  h hhhhhh     h       h        h        h       hhhhhhhhhhhh     ",
"                                                             hhhhhh    hhhhhh h       h       h        h        h        h hhhhh",
"                                                                hhhh    hh   hhhhhh    h       h       h        h        h      ",
"                                                                  hhhhh   h     h  hhhhh       h       h        h        h      ",
"                                                                    hhhhhhhh     h      hhhhh  h        h       h        h      ",
"                                                                      hhh  hhh    h     h    hhhhhh     h       h        h      ",
"                                                                        hhh  hhhh h      h      h  hhhhhh       h        h      ",
"                                                                           hh h  hhh      h      h      hhhhhh   h       h      ",
"                                                                            hhhh    hhhh  h      h       h    hhhhh      h      ",
"                                                                              hhh    h  hhhh      h      h       h hhhhh h      ",
"                                                                               hhhh   h    hhh    h      h       h      hhhhhh  ",
"                                                                                 h hhh h    h hhh h       h      h       h    hh",
"                                                                                  hhh hh     h   hhhh     h      h       h      ",
"                                                                                    hh  hh   h     h hhh  h       h      h      ",
"                                                                                      h  hhh  h     h   hhh       h       h     ",
"                                                                                       hh h hhh     h      hhhh   h       h     ",
"                                                                                        hh h  hhh    h     h   hhhh       h     ",
"                                                                                         hhhh   hhh  h     h      hhh     h     ",
"                                                                                           hh   h  hhh      h     h  hhh  h     ",
"                                                                                            hhh  h   hh     h      h    hhhh    ",
"                                                                                             hhhhh    hhh   h      h      h hhh ",
"                                                                                              hh hh    h hhhh      h      h    h",
"                                                                                               hh hh   h    hh     h      h     ",
"                                                                                                hh hh   h    hhh   h      h     ",
"                                                                                                 h  hhh h    h  hh h      h     ",
"                                                                                                  hhh  hh     h   hhh     h     ",
"                                                                                                   hhh  hh    h     hhh   h     ",
"                                                                                                    hhh  hh   h     h  hh h     ",
"                                                                                                     hh   hhh h     h    hh     ",
"                                                                                                     h h  h  hhh    h      hh   ",
"                                                                                                      hhh h    h    h      h hh ",
"                                                                                                       hhh h   hhh   h     h   h",
"                                                                                                        hhhh   h  h  h     h    ",
"                                                                                                         h  h   h  hhh     h    ",
"                                                                                                          h hh  h    h     h    ",
"                                                                                                          h  hh h    hhh   h    ",
"                                                                                                           h h h h   h  h  h    ",
"                                                                                                            hh  hh    h  hhh    ",
"                                                                                                            hhh  h    h    hh   ",
"                                                                                                             hh  hh   h    h h  ",
"                                                                                                             h h  hhh h    h  hh",
"                                                                                                              hh  h  hh    h    ",
"                                                                                                               hh h   h    h    ",
"                                                                                                               hhh h   h   h    ",
"                                        qEEEEEEEEEEEEEEJ$                 ,EEEEEEEEEEEEz                        h hh   hh   h   ",
"                                        qEEEEEEEEEEEEEEEa                 ,EEEEEEEEEEEEz                        hh h   h h  h   ",
"                                        qEEEEEEEEEEEEEEEP=                ,EEEEEEEEEEEEz                         h hh  h  h h   ",
"                                        qEEEEEEEEEEEEEEEEg                ,EEEEEEEEEEEEz                          h h  h   hh   ",
"                                        qEEEEEEEEEEEEEEEEE:               ,EEEEEEEEEEEEz                          h hh h    hh  ",
"                                        qEEEEEEEEEEEEEEEEEx               ,EEEEEEEEEEEEz                          hhh hh    h h ",
"                                        qEEEEEEEEEEEEEEEEEE<              ,EEEEEEEEEEEEz                           h h hh   h  h",
"                                        qEEEEEEEEEEEEEEEEEEn              ,EEEEEEEEEEEEz                           hhh  h   h   ",
"                                        qEEEEEEEEEEEEEEEEEEE4             ,EEEEEEEEEEEEz                            hh  hh  h   ",
"                                        qEEEEEEEEEEEEEEEEEEEB             ,EEEEEEEEEEEEk                            hh  hh  h   ",
"                                        qEEEEEEEEEEEEEEEEEEEE8            ,EEEEEEEEEEEEx                             hh h h h   ",
"                                        qEEEEEEEEEEEEEEEEEEEEZ+           ,EEEEEEEEEEEEz                             hh h  hh   ",
"                                        qEEEEEEEEEEEEEEEEEEEEEq           ,EEEEEEEEEEEEz                             hhh h  h   ",
"                                        qEEEEEEEEEEEEEEEEEEEEEH@          ,EEEEEEEEEEEEz                              h hh  hh  ",
"                                        qEEEEEEEEEEEEEEEEEEEEEEu          ,EEEEEEEEEEEEz                              hhhh  h h ",
"                                        qEEEEEEEEEEEEEEEEEEEEEEK$X        ,EEEEEEEEEEEEz                               h h   hh ",
"                                        qEEEEEEEEEEEEZEEEEEEEEEEs         ,EEEEEEEEEEEEz                               h h   h h",
"                                        qEEEEEEEEEEEEyDEEEEEEEEEP-        ,EEEEEEEEEEEEz                                hhh  h  ",
"                                        qEEEEEEEEEEEEyqEEEEEEEEEEj        ,EEEEEEEEEEEEz                                h hh h  ",
"                                        qEEEEEEEEEEEEy CEEEEEEEEEE,       ,EEEEEEEEEEEEz                                h hh h  ",
"                                        qEEEEEEEEEEEEe 6EEEEEEEEEEc       ,EEEEEEEEEEEEz                                hhh hh  ",
"                                        qEEEEEEEEEEEEy  mEEEEEEEEEE2      ,EEEEEEEEEEEEz                                 hh hh  ",
"                                        qEEEEEEEEEEEEe  3EEEEEEEEEEm      ,EEEEEEEEEEEEz                                 hh  h  ",
"                                        qEEEEEEEEEEEEy   vEEEEEEEEEE5     ,EEEEEEEEEEEEz                                 hh  hh ",
"                                        qEEEEEEEEEEEEe  X,EEEEEEEEEEVX    ,EEEEEEEEEEEEz                                  hh hh ",
"                                        qEEEEEEEEEEEUy    kEEEEEEEEEE9    ,EEEEEEEEEEEEz                                  hh h h",
"                                        qEEEEEEEEEEEUe  XX-UEEEEEEEEEA+   ,EEEEEEEEEEEEz                                  hh h h",
"                                        qEEEEEEEEEEEEe     sEEEEEEEEEEe   ,EEEEEEEEEEEEx                                  hhhh  ",
"                                        qEEEEEEEEEEEUy    X$PEEEEEEEEEH#  ,EEEEEEEEEEEEk                                   hhh  ",
"                                        qEEEEEEEEEEEEy    XXiEEEEEEEEEEiX ,EEEEEEEEEEEEz                                   h h  ",
"                                        qEEEEEEEEEEEEe      #HEEEEEEEEEP$ ,EEEEEEEEEEEEz                                   hhhh ",
"                                        qEEEEEEEEEEEUy       yEEEEEEEEEEs ,EEEEEEEEEEEEz                                    hhh ",
"                                        qEEEEEEEEEEEUe       XSEEEEEEEEEE;,EEEEEEEEEEEEz                                    h h ",
"                                        qEEEEEEEEEEEEy        8EEEEEEEEEEk,EEEEEEEEEEEEz                                    h h ",
"                                        qEEEEEEEEEEEUe        XVEEEEEEEEEE9EEEEEEEEEEEEz                                    h hh",
"                                        qEEEEEEEEEEEEe         5EEEEEEEEEEAEEEEEEEEEEEEz                                    hhhh",
"                                        qEEEEEEEEEEEUy          mEEEEEEEEEEEEEEEEEEEEEEz                                     hh ",
"                                        qEEEEEEEEEEEEy          2EEEEEEEEEEEEEEEEEEEEEEz                                     hh ",
"                                        qEEEEEEEEEEEEe           cEEEEEEEEEEEEEEEEEEEEEz                                     hh ",
"                                        qEEEEEEEEEEEEe           :EEEEEEEEEEEEEEEEEEEEEz                                     hh ",
"                                        qEEEEEEEEEEEEy          XXjEEEEEEEEEEEEEEEEEEEEz                                     hh ",
"                                        qEEEEEEEEEEEEe            -PEEEEEEEEEEEEEEEEEEEz                                     hh ",
"                                        qEEEEEEEEEEEUy             sEEEEEEEEEEEEEEEEEEEz                                      hh",
"                                        qEEEEEEEEEEEEy            X$KEEEEEEEEEEEEEEEEEEz                                      hh",
"                                        qEEEEEEEEEEEEe              yEEEEEEEEEEEEEEEEEEz                                      hh",
"                                        qEEEEEEEEEEEUy              #DEEEEEEEEEEEEEEEEEz                                      hh",
"                                        qEEEEEEEEEEEEe               eEEEEEEEEEEEEEEEEEz                                      hh",
"                                        qEEEEEEEEEEEEy               +ZEEEEEEEEEEEEEEEEz                                      hh",
"                                        qEEEEEEEEEEEEe                7EEEEEEEEEEEEEEEEz                                       h",
"                                        qEEEEEEEEEEEUy                XMEEEEEEEEEEEEEEEz                                       h",
"                                        qEEEEEEEEEEEUe                 4EEEEEEEEEEEEEEEz                                       h",
"                                        qEEEEEEEEEEEEeX                 bEEEEEEEEEEEEEEz                                       h",
"                                                      X                                                                        h",
"                                                                                                                               h",
"                                                                                                                               h",
"                                                                                                                               h",
"                                                                                                                               h",
"                                                                                                                               h",
"                                                                                                                               h",
"                                                                                                                               h",
"                                                                                                                                ",
"                                                                                                                                ",
"                                                                                                                                ",
"                                                                                                                                ",
"                                                                                                                                ",
"                                                                                                                                ",
"                                                                                                                                ",
"                                                                                                                                ",
"                                                                                                                                ",
"                                                                                                                                ",
"                                                                                                                                ",
"                                                                                                                                ",
"                                                                                                                                ",
"                                                                                                                                ",
"                                                                                                                                "
};
