/* XPM */
static char * exit1_xpm[] = {
"120 120 11327 3",
"   	c #0A3640",
".  	c #123A41",
"+  	c #1F4146",
"@  	c #294448",
"#  	c #334A4C",
"$  	c #3E4D4C",
"%  	c #49524E",
"&  	c #535850",
"*  	c #5A5D53",
"=  	c #636254",
"-  	c #6D6556",
";  	c #756857",
">  	c #7D6D5A",
",  	c #86725C",
"'  	c #8E755D",
")  	c #94795F",
"!  	c #9C7D5F",
"~  	c #A08160",
"{  	c #BB9F7B",
"]  	c #AC8864",
"^  	c #B88A66",
"/  	c #BD8C65",
"(  	c #C59168",
"_  	c #C99469",
":  	c #CD9769",
"<  	c #D39A6B",
"[  	c #D89B6A",
"}  	c #DC9E6B",
"|  	c #E1A06C",
"1  	c #E7A36E",
"2  	c #EBA46F",
"3  	c #EDA56F",
"4  	c #F1A86F",
"5  	c #F5AA71",
"6  	c #FBB075",
"7  	c #FCAE72",
"8  	c #FFAF72",
"9  	c #FFB173",
"0  	c #FBB171",
"a  	c #FDB573",
"b  	c #FFB572",
"c  	c #FDB672",
"d  	c #FCB672",
"e  	c #FDB574",
"f  	c #FEB773",
"g  	c #FEB974",
"h  	c #FEBA74",
"i  	c #FDBA73",
"j  	c #FBBD76",
"k  	c #FBBE76",
"l  	c #FCBF77",
"m  	c #FDC077",
"n  	c #FEC075",
"o  	c #FDBF78",
"p  	c #FEBE78",
"q  	c #FCBE77",
"r  	c #FDBC75",
"s  	c #F8C079",
"t  	c #F8C17B",
"u  	c #FDBE73",
"v  	c #FEBE74",
"w  	c #FFBE74",
"x  	c #FFBD73",
"y  	c #FEBC73",
"z  	c #FDBB74",
"A  	c #FABB73",
"B  	c #FBBC74",
"C  	c #FFB873",
"D  	c #FCB870",
"E  	c #FBB76E",
"F  	c #FCB56F",
"G  	c #FDB370",
"H  	c #FCB572",
"I  	c #FDBB78",
"J  	c #FFB979",
"K  	c #FFB677",
"L  	c #FFB073",
"M  	c #FDA76C",
"N  	c #FEA46B",
"O  	c #FFA267",
"P  	c #FDA065",
"Q  	c #FD9D64",
"R  	c #FC9A64",
"S  	c #FC9862",
"T  	c #FC9564",
"U  	c #FC9264",
"V  	c #F98E60",
"W  	c #FD8B61",
"X  	c #FC885F",
"Y  	c #FC845C",
"Z  	c #FF805A",
"`  	c #FF7D5C",
" . 	c #FE785B",
".. 	c #FA775C",
"+. 	c #F4795E",
"@. 	c #EA6F58",
"#. 	c #E26B56",
"$. 	c #D86855",
"%. 	c #CD6554",
"&. 	c #C36252",
"*. 	c #BE6357",
"=. 	c #B15B51",
"-. 	c #A7584E",
";. 	c #9E544D",
">. 	c #96524C",
",. 	c #8F524D",
"'. 	c #844D49",
"). 	c #7C4947",
"!. 	c #754748",
"~. 	c #70464B",
"{. 	c #684048",
"]. 	c #5E3C44",
"^. 	c #563A42",
"/. 	c #503942",
"(. 	c #4A3641",
"_. 	c #40333D",
":. 	c #39313D",
"<. 	c #322F3C",
"[. 	c #2C2C39",
"}. 	c #09353F",
"|. 	c #113940",
"1. 	c #1E4045",
"2. 	c #284348",
"3. 	c #32494B",
"4. 	c #48524D",
"5. 	c #51564F",
"6. 	c #585B51",
"7. 	c #616053",
"8. 	c #6B6454",
"9. 	c #736756",
"0. 	c #7A6B58",
"a. 	c #83705B",
"b. 	c #8B745C",
"c. 	c #92775E",
"d. 	c #997B5D",
"e. 	c #9D7F5E",
"f. 	c #9F805D",
"g. 	c #A98661",
"h. 	c #B38764",
"i. 	c #B98A64",
"j. 	c #BF8E66",
"k. 	c #C89467",
"l. 	c #CD9768",
"m. 	c #D3996A",
"n. 	c #D79B69",
"o. 	c #DA9C6A",
"p. 	c #E2A06C",
"q. 	c #E6A26E",
"r. 	c #E9A36E",
"s. 	c #ECA56D",
"t. 	c #EEA56D",
"u. 	c #F4A970",
"v. 	c #F8AC71",
"w. 	c #FBAD71",
"x. 	c #FDAE73",
"y. 	c #FBB073",
"z. 	c #FDB274",
"A. 	c #FEB273",
"B. 	c #FDB372",
"C. 	c #FDB373",
"D. 	c #FDB473",
"E. 	c #FDB571",
"F. 	c #FDB772",
"G. 	c #FBB975",
"H. 	c #FCBA74",
"I. 	c #FCBB74",
"J. 	c #FCBB73",
"K. 	c #FDB974",
"L. 	c #FABB76",
"M. 	c #F6C580",
"N. 	c #F7B975",
"O. 	c #F8BC79",
"P. 	c #F9BC79",
"Q. 	c #FCB971",
"R. 	c #FDBA72",
"S. 	c #FEBA72",
"T. 	c #FEB971",
"U. 	c #FDB871",
"V. 	c #FCB673",
"W. 	c #FCBA76",
"X. 	c #FBBB77",
"Y. 	c #FBB371",
"Z. 	c #FEB170",
"`. 	c #FDB16F",
" + 	c #FDB16E",
".+ 	c #FEAF6F",
"++ 	c #FEAD6D",
"@+ 	c #FBAC6C",
"#+ 	c #FBAE6F",
"$+ 	c #FEB073",
"%+ 	c #FDAC70",
"&+ 	c #FDA66D",
"*+ 	c #FCA169",
"=+ 	c #FD9E67",
"-+ 	c #FD9D65",
";+ 	c #FC9B63",
">+ 	c #FC9963",
",+ 	c #FD9762",
"'+ 	c #FC9462",
")+ 	c #FA8F61",
"!+ 	c #F98D61",
"~+ 	c #F8885E",
"{+ 	c #FE855F",
"]+ 	c #FF825E",
"^+ 	c #FF7F5C",
"/+ 	c #FF7D5A",
"(+ 	c #FD7A5A",
"_+ 	c #F87558",
":+ 	c #F27359",
"<+ 	c #E97158",
"[+ 	c #DE6C56",
"}+ 	c #D66854",
"|+ 	c #CC6554",
"1+ 	c #C36353",
"2+ 	c #B95F51",
"3+ 	c #BA665B",
"4+ 	c #A9594E",
"5+ 	c #A1564E",
"6+ 	c #97524C",
"7+ 	c #8F504A",
"8+ 	c #864D49",
"9+ 	c #7E4A47",
"0+ 	c #784747",
"a+ 	c #704345",
"b+ 	c #6C4349",
"c+ 	c #643E46",
"d+ 	c #5B3B43",
"e+ 	c #543941",
"f+ 	c #4D3742",
"g+ 	c #473540",
"h+ 	c #3E323D",
"i+ 	c #37303D",
"j+ 	c #312F3D",
"k+ 	c #2C2D3D",
"l+ 	c #09343F",
"m+ 	c #1E3F44",
"n+ 	c #274247",
"o+ 	c #3D4D4C",
"p+ 	c #47514D",
"q+ 	c #4F554E",
"r+ 	c #575A50",
"s+ 	c #5F5F52",
"t+ 	c #696354",
"u+ 	c #716756",
"v+ 	c #776957",
"w+ 	c #816F5A",
"x+ 	c #88735B",
"y+ 	c #8F765D",
"z+ 	c #94785B",
"A+ 	c #9B7C5E",
"B+ 	c #A18160",
"C+ 	c #A78461",
"D+ 	c #AF8663",
"E+ 	c #B48964",
"F+ 	c #B88B64",
"G+ 	c #C08F66",
"H+ 	c #C29266",
"I+ 	c #C89468",
"J+ 	c #D09969",
"K+ 	c #D59C6C",
"L+ 	c #D99C6B",
"M+ 	c #DD9F6C",
"N+ 	c #E0A06D",
"O+ 	c #EAA56F",
"P+ 	c #EDA66F",
"Q+ 	c #F1A870",
"R+ 	c #F3AA70",
"S+ 	c #F8AC73",
"T+ 	c #FCB076",
"U+ 	c #FBB176",
"V+ 	c #FCB275",
"W+ 	c #FCB174",
"X+ 	c #FDB173",
"Y+ 	c #FDB171",
"Z+ 	c #FEB271",
"`+ 	c #FEB372",
" @ 	c #FCB573",
".@ 	c #FBB572",
"+@ 	c #FCB571",
"@@ 	c #F8B674",
"#@ 	c #F9CB89",
"$@ 	c #FAB575",
"%@ 	c #FBB472",
"&@ 	c #FCB471",
"*@ 	c #FDB471",
"=@ 	c #FCB16F",
"-@ 	c #FDB271",
";@ 	c #FBB06F",
">@ 	c #FCAE6E",
",@ 	c #FDAC6D",
"'@ 	c #FDAB6D",
")@ 	c #FCAB6C",
"!@ 	c #FFA86B",
"~@ 	c #FDA669",
"{@ 	c #FBA667",
"]@ 	c #FCA468",
"^@ 	c #FBA36C",
"/@ 	c #FCA16B",
"(@ 	c #FD9E69",
"_@ 	c #FD9C68",
":@ 	c #FD9966",
"<@ 	c #FE9765",
"[@ 	c #FD9663",
"}@ 	c #FD9362",
"|@ 	c #FC9061",
"1@ 	c #FC8F60",
"2@ 	c #F88C61",
"3@ 	c #F89169",
"4@ 	c #F78660",
"5@ 	c #FC815F",
"6@ 	c #FF7F5F",
"7@ 	c #FE7C5C",
"8@ 	c #FC785A",
"9@ 	c #F57558",
"0@ 	c #EF7258",
"a@ 	c #E66F57",
"b@ 	c #DC6D55",
"c@ 	c #D36A55",
"d@ 	c #CB6753",
"e@ 	c #C26352",
"f@ 	c #BF685A",
"g@ 	c #B05D51",
"h@ 	c #A95A50",
"i@ 	c #99544D",
"j@ 	c #914F4C",
"k@ 	c #9B6260",
"l@ 	c #824D4B",
"m@ 	c #794847",
"n@ 	c #734546",
"o@ 	c #6C4247",
"p@ 	c #714D54",
"q@ 	c #5F3C44",
"r@ 	c #583944",
"s@ 	c #503842",
"t@ 	c #493641",
"u@ 	c #433340",
"v@ 	c #3B313D",
"w@ 	c #35313B",
"x@ 	c #2F2D3A",
"y@ 	c #292A38",
"z@ 	c #08343E",
"A@ 	c #123940",
"B@ 	c #1D3F44",
"C@ 	c #31484A",
"D@ 	c #3B4C4B",
"E@ 	c #444F4C",
"F@ 	c #4E554F",
"G@ 	c #545951",
"H@ 	c #5D5E52",
"I@ 	c #676254",
"J@ 	c #6C6554",
"K@ 	c #8A7F6E",
"L@ 	c #7C6C57",
"M@ 	c #857159",
"N@ 	c #8C755D",
"O@ 	c #91765B",
"P@ 	c #987A5D",
"Q@ 	c #9E7F61",
"R@ 	c #A38261",
"S@ 	c #AA8562",
"T@ 	c #AF8863",
"U@ 	c #B48965",
"V@ 	c #BB8D67",
"W@ 	c #BE9067",
"X@ 	c #C29267",
"Y@ 	c #C59267",
"Z@ 	c #D5A578",
"`@ 	c #E2B88B",
" # 	c #D69F71",
".# 	c #D79E6E",
"+# 	c #D99E6D",
"@# 	c #E1A16D",
"## 	c #E4A46F",
"$# 	c #E8A66F",
"%# 	c #EBA770",
"&# 	c #ECA871",
"*# 	c #F1A872",
"=# 	c #F3AA72",
"-# 	c #F2AE74",
";# 	c #F6B075",
"># 	c #F8AD73",
",# 	c #FBAF73",
"'# 	c #FDB073",
")# 	c #FDAF72",
"!# 	c #FEB071",
"~# 	c #FFB172",
"{# 	c #FEB171",
"]# 	c #FEB172",
"^# 	c #FCB172",
"/# 	c #F9B173",
"(# 	c #FAB170",
"_# 	c #FDB273",
":# 	c #F9B172",
"<# 	c #FFAF70",
"[# 	c #FEB06F",
"}# 	c #FEB070",
"|# 	c #FDB071",
"1# 	c #FCAF70",
"2# 	c #FEAE70",
"3# 	c #FDAD70",
"4# 	c #FCAC6E",
"5# 	c #FDAD6E",
"6# 	c #FDAA6C",
"7# 	c #FEA96B",
"8# 	c #FEA76A",
"9# 	c #FDA66A",
"0# 	c #FBA66A",
"a# 	c #FEA369",
"b# 	c #FAA369",
"c# 	c #F5A266",
"d# 	c #FD9F68",
"e# 	c #FE9C6A",
"f# 	c #FD9967",
"g# 	c #FD9867",
"h# 	c #FD9666",
"i# 	c #FD9565",
"j# 	c #FE9163",
"k# 	c #FE9062",
"l# 	c #FE8E62",
"m# 	c #FE8A61",
"n# 	c #FD8960",
"o# 	c #FB8560",
"p# 	c #FA8360",
"q# 	c #F9815E",
"r# 	c #FD7F60",
"s# 	c #FC7C5E",
"t# 	c #F7765A",
"u# 	c #F1735A",
"v# 	c #E87058",
"w# 	c #E16F58",
"x# 	c #DA6D58",
"y# 	c #D16A55",
"z# 	c #C86652",
"A# 	c #C06350",
"B# 	c #B7604F",
"C# 	c #AF5D50",
"D# 	c #AA5C51",
"E# 	c #A25750",
"F# 	c #92514D",
"G# 	c #8D4F4E",
"H# 	c #864D4D",
"I# 	c #7D4A4C",
"J# 	c #75474A",
"K# 	c #6E4348",
"L# 	c #684248",
"M# 	c #624249",
"N# 	c #5B3C44",
"O# 	c #543943",
"P# 	c #4C3742",
"Q# 	c #453540",
"R# 	c #3F3340",
"S# 	c #39323F",
"T# 	c #33303D",
"U# 	c #2D2C3B",
"V# 	c #26293A",
"W# 	c #07333D",
"X# 	c #11383F",
"Y# 	c #1D3E43",
"Z# 	c #274246",
"`# 	c #304748",
" $ 	c #394B4A",
".$ 	c #434E4C",
"+$ 	c #4D544E",
"@$ 	c #5C5D52",
"#$ 	c #656254",
"$$ 	c #6A6453",
"%$ 	c #877D6D",
"&$ 	c #796A56",
"*$ 	c #826F59",
"=$ 	c #89745B",
"-$ 	c #8F765B",
";$ 	c #95785C",
">$ 	c #9B7C5F",
",$ 	c #A0805F",
"'$ 	c #A58361",
")$ 	c #A98562",
"!$ 	c #B18965",
"~$ 	c #B58A65",
"{$ 	c #B98E65",
"]$ 	c #BD9066",
"^$ 	c #C19268",
"/$ 	c #C19468",
"($ 	c #C59669",
"_$ 	c #D09E70",
":$ 	c #D09C6D",
"<$ 	c #D29C6C",
"[$ 	c #D59D6B",
"}$ 	c #D99F6D",
"|$ 	c #DCA26D",
"1$ 	c #DFA36D",
"2$ 	c #E2A46E",
"3$ 	c #E3A66F",
"4$ 	c #E9A671",
"5$ 	c #EDA872",
"6$ 	c #EDB37B",
"7$ 	c #EEB178",
"8$ 	c #F4AB72",
"9$ 	c #F6AA70",
"0$ 	c #F7AB70",
"a$ 	c #FAAC71",
"b$ 	c #FDAF71",
"c$ 	c #F8AE72",
"d$ 	c #FAB67A",
"e$ 	c #F9AF73",
"f$ 	c #FFAC74",
"g$ 	c #FEAC71",
"h$ 	c #FCAD6E",
"i$ 	c #FEAA71",
"j$ 	c #FCAB71",
"k$ 	c #FCAA70",
"l$ 	c #FCA96F",
"m$ 	c #FDA86F",
"n$ 	c #FCA86D",
"o$ 	c #FEA56C",
"p$ 	c #FFA46B",
"q$ 	c #FEA26A",
"r$ 	c #FEA16B",
"s$ 	c #FCA16A",
"t$ 	c #FE9F6B",
"u$ 	c #F59F6A",
"v$ 	c #F8B27E",
"w$ 	c #FA9969",
"x$ 	c #FF9768",
"y$ 	c #FE9566",
"z$ 	c #FD9465",
"A$ 	c #FB9163",
"B$ 	c #FD8C61",
"C$ 	c #FD8A61",
"D$ 	c #FE8861",
"E$ 	c #FB845E",
"F$ 	c #FC835F",
"G$ 	c #FE8160",
"H$ 	c #FC7F60",
"I$ 	c #F97D5F",
"J$ 	c #F6795C",
"K$ 	c #F17559",
"L$ 	c #EC7358",
"M$ 	c #E57059",
"N$ 	c #DB6E57",
"O$ 	c #D46B57",
"P$ 	c #CE6857",
"Q$ 	c #C56654",
"R$ 	c #BC6351",
"S$ 	c #B76050",
"T$ 	c #A75A50",
"U$ 	c #A15850",
"V$ 	c #99554F",
"W$ 	c #91524D",
"X$ 	c #8A4F4C",
"Y$ 	c #854C4C",
"Z$ 	c #7E4A4C",
"`$ 	c #7D4E52",
" % 	c #72474C",
".% 	c #6A4148",
"+% 	c #644047",
"@% 	c #5C3D45",
"#% 	c #583C45",
"$% 	c #503743",
"%% 	c #423440",
"&% 	c #3C313F",
"*% 	c #35303F",
"=% 	c #302E3C",
"-% 	c #2A2A3A",
";% 	c #242639",
">% 	c #08323D",
",% 	c #12373F",
"'% 	c #264246",
")% 	c #3A4A4A",
"!% 	c #434F4B",
"~% 	c #4C544D",
"{% 	c #535650",
"]% 	c #5B5B52",
"^% 	c #646154",
"/% 	c #6F6655",
"(% 	c #786B58",
"_% 	c #7E6E58",
":% 	c #86735C",
"<% 	c #8B7459",
"[% 	c #91775B",
"}% 	c #9A7E62",
"|% 	c #9C7E5F",
"1% 	c #A38363",
"2% 	c #A58362",
"3% 	c #AA8563",
"4% 	c #B6906A",
"5% 	c #B38B63",
"6% 	c #B78E65",
"7% 	c #BA9067",
"8% 	c #BB9168",
"9% 	c #CBA47A",
"0% 	c #C3966A",
"a% 	c #C8986B",
"b% 	c #CD996C",
"c% 	c #CF9B6B",
"d% 	c #D29D6C",
"e% 	c #D6A06E",
"f% 	c #D8A06D",
"g% 	c #D9A16E",
"h% 	c #DBA270",
"i% 	c #DFA370",
"j% 	c #E3A570",
"k% 	c #E6A76F",
"l% 	c #EDA76F",
"m% 	c #EFA76F",
"n% 	c #F9AA6E",
"o% 	c #FBAB6F",
"p% 	c #FCAB70",
"q% 	c #FDAA71",
"r% 	c #FCA970",
"s% 	c #F9AA71",
"t% 	c #FCA871",
"u% 	c #FDA96F",
"v% 	c #FBA86D",
"w% 	c #FBAA6E",
"x% 	c #FEA96E",
"y% 	c #FEA86E",
"z% 	c #FEA76D",
"A% 	c #FCA56B",
"B% 	c #FDA56B",
"C% 	c #FDA56C",
"D% 	c #FCA36D",
"E% 	c #FCA26C",
"F% 	c #FDA06C",
"G% 	c #FD9D6B",
"H% 	c #FE9C69",
"I% 	c #FE9A68",
"J% 	c #F99867",
"K% 	c #F79867",
"L% 	c #FB9567",
"M% 	c #FD9166",
"N% 	c #FD9265",
"O% 	c #FD8F63",
"P% 	c #FB8D61",
"Q% 	c #FB8F63",
"R% 	c #FA8962",
"S% 	c #FD8662",
"T% 	c #F88460",
"U% 	c #F79F7A",
"V% 	c #F38160",
"W% 	c #F97C5D",
"X% 	c #F67B5D",
"Y% 	c #EF795D",
"Z% 	c #E8765D",
"`% 	c #E2755E",
" & 	c #E17660",
".& 	c #D86D57",
"+& 	c #CF6A57",
"@& 	c #CA6957",
"#& 	c #C16454",
"$& 	c #B96153",
"%& 	c #B96357",
"&& 	c #AE5C50",
"*& 	c #A75B50",
"=& 	c #9F5850",
"-& 	c #98554D",
";& 	c #92534F",
">& 	c #8B504D",
",& 	c #844D4C",
"'& 	c #7E4A4B",
")& 	c #79494B",
"!& 	c #74494C",
"~& 	c #6A4348",
"{& 	c #664148",
"]& 	c #5F3E46",
"^& 	c #593C45",
"/& 	c #523842",
"(& 	c #4D3642",
"_& 	c #473440",
":& 	c #3F323D",
"<& 	c #39313E",
"[& 	c #312F3B",
"}& 	c #272A3B",
"|& 	c #212638",
"1& 	c #09323D",
"2& 	c #13373F",
"3& 	c #1D3D43",
"4& 	c #244145",
"5& 	c #2F4648",
"6& 	c #394949",
"7& 	c #424E4B",
"8& 	c #4B534D",
"9& 	c #52554F",
"0& 	c #5A5A51",
"a& 	c #625F52",
"b& 	c #696353",
"c& 	c #6E6654",
"d& 	c #756A57",
"e& 	c #7D6D58",
"f& 	c #83715A",
"g& 	c #89755C",
"h& 	c #8E785D",
"i& 	c #A38B6F",
"j& 	c #957A5C",
"k& 	c #9E8060",
"l& 	c #A38160",
"m& 	c #A78562",
"n& 	c #A78560",
"o& 	c #AD8A64",
"p& 	c #B48F68",
"q& 	c #B48E67",
"r& 	c #B69067",
"s& 	c #C5A27A",
"t& 	c #BE946A",
"u& 	c #C2956A",
"v& 	c #C5976B",
"w& 	c #C79768",
"x& 	c #C99969",
"y& 	c #CC9B6B",
"z& 	c #CF9D6D",
"A& 	c #D09D6C",
"B& 	c #D8AC7F",
"C& 	c #D3A373",
"D& 	c #D8A371",
"E& 	c #DCA26E",
"F& 	c #E0A26E",
"G& 	c #E2A26E",
"H& 	c #E3A46E",
"I& 	c #E5A46F",
"J& 	c #E8A56E",
"K& 	c #ECA66F",
"L& 	c #EEA66F",
"M& 	c #F0A66F",
"N& 	c #F5A671",
"O& 	c #F8A66F",
"P& 	c #FAA670",
"Q& 	c #F8A972",
"R& 	c #FBAC76",
"S& 	c #FBA46F",
"T& 	c #FDA36E",
"U& 	c #FEA46E",
"V& 	c #FFA46E",
"W& 	c #FDA36D",
"X& 	c #FEA26C",
"Y& 	c #FDA16C",
"Z& 	c #FEA06B",
"`& 	c #FC9D69",
" * 	c #FC9C69",
".* 	c #FD9B69",
"+* 	c #FE9A69",
"@* 	c #FE9869",
"#* 	c #FF9868",
"$* 	c #FE9766",
"%* 	c #FD9566",
"&* 	c #FC9365",
"** 	c #FB9064",
"=* 	c #FE8E64",
"-* 	c #FE8D63",
";* 	c #FF8B63",
">* 	c #FC8560",
",* 	c #FD8361",
"'* 	c #FA8260",
")* 	c #F88061",
"!* 	c #EF7F5F",
"~* 	c #EF7A5E",
"{* 	c #EE785B",
"]* 	c #E8765B",
"^* 	c #E2735B",
"/* 	c #DA7059",
"(* 	c #D4705B",
"_* 	c #D3705C",
":* 	c #CC6A55",
"<* 	c #C46755",
"[* 	c #BE6553",
"}* 	c #B96454",
"|* 	c #BB6B5E",
"1* 	c #AB5B52",
"2* 	c #A75A52",
"3* 	c #9E5850",
"4* 	c #97564F",
"5* 	c #91534D",
"6* 	c #8C524F",
"7* 	c #864E4D",
"8* 	c #804C4B",
"9* 	c #7A494B",
"0* 	c #734548",
"a* 	c #6C4246",
"b* 	c #684348",
"c* 	c #613F45",
"d* 	c #493441",
"e* 	c #453441",
"f* 	c #3E313F",
"g* 	c #37313E",
"h* 	c #302E3B",
"i* 	c #2A2B3C",
"j* 	c #26293C",
"k* 	c #202639",
"l* 	c #1C3D42",
"m* 	c #244044",
"n* 	c #2E4547",
"o* 	c #384847",
"p* 	c #414E4A",
"q* 	c #49534C",
"r* 	c #51544E",
"s* 	c #595951",
"t* 	c #605F52",
"u* 	c #666352",
"v* 	c #6C6654",
"w* 	c #736A57",
"x* 	c #7A6C58",
"y* 	c #7F6F59",
"z* 	c #84725A",
"A* 	c #89755B",
"B* 	c #90795D",
"C* 	c #947A5D",
"D* 	c #9C8062",
"E* 	c #A58563",
"F* 	c #A3825F",
"G* 	c #A18462",
"H* 	c #C5AC8B",
"I* 	c #AB8A65",
"J* 	c #AE8C65",
"K* 	c #B08D66",
"L* 	c #B59068",
"M* 	c #B79067",
"N* 	c #BB9268",
"O* 	c #BE9369",
"P* 	c #C19568",
"Q* 	c #C29769",
"R* 	c #C59869",
"S* 	c #C69A6A",
"T* 	c #C99B6B",
"U* 	c #CFA97E",
"V* 	c #CBA174",
"W* 	c #E1BA8C",
"X* 	c #D39F6F",
"Y* 	c #D69F6F",
"Z* 	c #D89F6F",
"`* 	c #D9A06C",
" = 	c #DBA16D",
".= 	c #DDA16C",
"+= 	c #DFA16C",
"@= 	c #E0A26D",
"#= 	c #E3A774",
"$= 	c #EAAE7C",
"%= 	c #EAA470",
"&= 	c #ECA16D",
"*= 	c #F0A16D",
"== 	c #F1A36F",
"-= 	c #F8A672",
";= 	c #F7A06C",
">= 	c #FAA06C",
",= 	c #FBA06C",
"'= 	c #FB9F6C",
")= 	c #FC9E6B",
"!= 	c #FDA06E",
"~= 	c #FC9B69",
"{= 	c #FC9B6A",
"]= 	c #FE9968",
"^= 	c #FE9769",
"/= 	c #FF9568",
"(= 	c #FF9369",
"_= 	c #FF9368",
":= 	c #FE9266",
"<= 	c #FE9166",
"[= 	c #FD8E65",
"}= 	c #FD8D65",
"|= 	c #FF8A62",
"1= 	c #FD8862",
"2= 	c #FD8562",
"3= 	c #F98462",
"4= 	c #F78262",
"5= 	c #F67D5F",
"6= 	c #EF7E5D",
"7= 	c #EE7B5D",
"8= 	c #EC785D",
"9= 	c #E6765B",
"0= 	c #E0755B",
"a= 	c #D9735C",
"b= 	c #D4705A",
"c= 	c #D06F58",
"d= 	c #C96B56",
"e= 	c #C56855",
"f= 	c #BF6654",
"g= 	c #B86453",
"h= 	c #B46354",
"i= 	c #AD5E50",
"j= 	c #A85D52",
"k= 	c #A35952",
"l= 	c #9D574F",
"m= 	c #8F534E",
"n= 	c #8A524E",
"o= 	c #844F4D",
"p= 	c #7E4B4A",
"q= 	c #7A4A4B",
"r= 	c #734649",
"s= 	c #6D4347",
"t= 	c #674146",
"u= 	c #614045",
"v= 	c #5C3D43",
"w= 	c #563B43",
"x= 	c #523A45",
"y= 	c #56414C",
"z= 	c #463343",
"A= 	c #413242",
"B= 	c #392F3F",
"C= 	c #352F3F",
"D= 	c #302E3D",
"E= 	c #292B3D",
"F= 	c #24293B",
"G= 	c #1F2538",
"H= 	c #09313D",
"I= 	c #13363F",
"J= 	c #214046",
"K= 	c #2F4A4E",
"L= 	c #2F4547",
"M= 	c #405150",
"N= 	c #404E49",
"O= 	c #48534B",
"P= 	c #50554E",
"Q= 	c #57594F",
"R= 	c #5D5D50",
"S= 	c #636152",
"T= 	c #696554",
"U= 	c #706856",
"V= 	c #766A56",
"W= 	c #7B6D58",
"X= 	c #81715A",
"Y= 	c #84745B",
"Z= 	c #89765B",
"`= 	c #907A5D",
" - 	c #91795A",
".- 	c #B39A79",
"+- 	c #987E5D",
"@- 	c #B39A7C",
"#- 	c #9E8564",
"$- 	c #A58864",
"%- 	c #A78964",
"&- 	c #AB8C66",
"*- 	c #AE8D67",
"=- 	c #B18F67",
"-- 	c #B49167",
";- 	c #B69268",
">- 	c #BA9268",
",- 	c #BD9569",
"'- 	c #C0976B",
")- 	c #C1986B",
"!- 	c #C3996C",
"~- 	c #C4996D",
"{- 	c #C6996E",
"]- 	c #C89C6E",
"^- 	c #CB9D6D",
"/- 	c #CC9E6E",
"(- 	c #CE9E6E",
"_- 	c #D09E6D",
":- 	c #D29E6D",
"<- 	c #D49F6D",
"[- 	c #D69F6E",
"}- 	c #D8A06E",
"|- 	c #D8A06F",
"1- 	c #DCA16F",
"2- 	c #E1A16E",
"3- 	c #E59F6D",
"4- 	c #EAA16F",
"5- 	c #F0A271",
"6- 	c #F2A574",
"7- 	c #F1A472",
"8- 	c #F2A06E",
"9- 	c #F19D6A",
"0- 	c #EF9C69",
"a- 	c #F29A69",
"b- 	c #F59A6A",
"c- 	c #F69A6A",
"d- 	c #F7986A",
"e- 	c #F79768",
"f- 	c #F99669",
"g- 	c #F99569",
"h- 	c #FA9369",
"i- 	c #FA9269",
"j- 	c #FA9069",
"k- 	c #FA8F66",
"l- 	c #FA8D65",
"m- 	c #FA8C65",
"n- 	c #FA8B65",
"o- 	c #F98964",
"p- 	c #F78762",
"q- 	c #F78560",
"r- 	c #F28460",
"s- 	c #EF8262",
"t- 	c #F39F81",
"u- 	c #EB9375",
"v- 	c #E37B5D",
"w- 	c #E2785C",
"x- 	c #DE785B",
"y- 	c #DA755B",
"z- 	c #D77359",
"A- 	c #D1715B",
"B- 	c #CC6F5C",
"C- 	c #C86D5A",
"D- 	c #C36A56",
"E- 	c #BD6753",
"F- 	c #BB6555",
"G- 	c #B46355",
"H- 	c #AF6156",
"I- 	c #AA5F54",
"J- 	c #A55C52",
"K- 	c #9F5951",
"L- 	c #99574E",
"M- 	c #95544D",
"N- 	c #89514E",
"O- 	c #834F4C",
"P- 	c #7D4C4C",
"Q- 	c #784A4B",
"R- 	c #73474A",
"S- 	c #6C4449",
"T- 	c #78565B",
"U- 	c #74545A",
"V- 	c #5D3F45",
"W- 	c #583D45",
"X- 	c #513A43",
"Y- 	c #4E3945",
"Z- 	c #483642",
"`- 	c #423344",
" ; 	c #3E3142",
".; 	c #4D4454",
"+; 	c #312D3F",
"@; 	c #2C2B3D",
"#; 	c #27293C",
"$; 	c #22273B",
"%; 	c #1D2538",
"&; 	c #062F3A",
"*; 	c #1E3D42",
"=; 	c #284448",
"-; 	c #2D4345",
";; 	c #354645",
">; 	c #3E4C48",
",; 	c #455049",
"'; 	c #4F554D",
"); 	c #56584E",
"!; 	c #5B5C4F",
"~; 	c #606051",
"{; 	c #676453",
"]; 	c #6D6754",
"^; 	c #736956",
"/; 	c #786C58",
"(; 	c #7E705A",
"_; 	c #82735A",
":; 	c #86755B",
"<; 	c #8A775A",
"[; 	c #8F795B",
"}; 	c #D0C3A6",
"|; 	c #8D7C5C",
"1; 	c #9F8768",
"2; 	c #9D8361",
"3; 	c #9F8462",
"4; 	c #A38865",
"5; 	c #A68965",
"6; 	c #A88B65",
"7; 	c #AB8D66",
"8; 	c #AD8F66",
"9; 	c #AF9066",
"0; 	c #B29067",
"a; 	c #B49267",
"b; 	c #B79368",
"c; 	c #B99569",
"d; 	c #BA9669",
"e; 	c #BF976C",
"f; 	c #C1986C",
"g; 	c #C2996B",
"h; 	c #C4996B",
"i; 	c #C59A6C",
"j; 	c #C79A6D",
"k; 	c #C99A6C",
"l; 	c #CB9B6C",
"m; 	c #CD9B6D",
"n; 	c #CF9B6C",
"o; 	c #D29D6B",
"p; 	c #D59D6C",
"q; 	c #D79C6B",
"r; 	c #DD9E6D",
"s; 	c #E6A474",
"t; 	c #ECA577",
"u; 	c #EDA87A",
"v; 	c #F2B283",
"w; 	c #ECA072",
"x; 	c #E99B6C",
"y; 	c #E59869",
"z; 	c #E69668",
"A; 	c #E99669",
"B; 	c #EB9569",
"C; 	c #EC9368",
"D; 	c #EC9167",
"E; 	c #ED9267",
"F; 	c #ED9167",
"G; 	c #EE8F66",
"H; 	c #EE8D67",
"I; 	c #EE8C66",
"J; 	c #EE8A64",
"K; 	c #ED8963",
"L; 	c #ED8764",
"M; 	c #EC8563",
"N; 	c #EB8362",
"O; 	c #EA8261",
"P; 	c #E98060",
"Q; 	c #E58060",
"R; 	c #E27D62",
"S; 	c #DC7E63",
"T; 	c #D87B60",
"U; 	c #D6785D",
"V; 	c #D8745C",
"W; 	c #D2745B",
"X; 	c #CE715A",
"Y; 	c #CA6F59",
"Z; 	c #C36E58",
"`; 	c #C06B59",
" > 	c #BB6958",
".> 	c #B66755",
"+> 	c #B26656",
"@> 	c #AE6355",
"#> 	c #A96055",
"$> 	c #A45E55",
"%> 	c #A05D53",
"&> 	c #9D5A51",
"*> 	c #965751",
"=> 	c #90554E",
"-> 	c #8C534D",
";> 	c #87524D",
">> 	c #82504E",
",> 	c #7D4D4C",
"'> 	c #774A4B",
")> 	c #724749",
"!> 	c #6C4547",
"~> 	c #674348",
"{> 	c #624248",
"]> 	c #5E4047",
"^> 	c #583D44",
"/> 	c #523A43",
"(> 	c #4F3B45",
"_> 	c #594853",
":> 	c #443542",
"<> 	c #403343",
"[> 	c #3C3141",
"}> 	c #342D3E",
"|> 	c #302C3E",
"1> 	c #2B2A3C",
"2> 	c #25283B",
"3> 	c #20273A",
"4> 	c #1C2437",
"5> 	c #0A313C",
"6> 	c #12353D",
"7> 	c #1C3B41",
"8> 	c #243F44",
"9> 	c #2E4445",
"0> 	c #354746",
"a> 	c #3E4C49",
"b> 	c #445049",
"c> 	c #4D534C",
"d> 	c #54574E",
"e> 	c #595B4E",
"f> 	c #5E5E50",
"g> 	c #656253",
"h> 	c #6B6554",
"i> 	c #716855",
"j> 	c #7B6F59",
"k> 	c #7E7058",
"l> 	c #88795F",
"m> 	c #A4947B",
"n> 	c #BBAF99",
"o> 	c #E7E1CC",
"p> 	c #BCB59D",
"q> 	c #B8A484",
"r> 	c #A38A67",
"s> 	c #9C8462",
"t> 	c #9D8765",
"u> 	c #A08765",
"v> 	c #A38965",
"w> 	c #A48A65",
"x> 	c #A68C64",
"y> 	c #A88E66",
"z> 	c #AB8F66",
"A> 	c #AC8F66",
"B> 	c #AE9067",
"C> 	c #B19368",
"D> 	c #B39369",
"E> 	c #B5946A",
"F> 	c #B79569",
"G> 	c #B9966A",
"H> 	c #BD966B",
"I> 	c #BF966C",
"J> 	c #C0976C",
"K> 	c #C1976B",
"L> 	c #C4976C",
"M> 	c #C5976A",
"N> 	c #C7976A",
"O> 	c #C9986A",
"P> 	c #CB9969",
"Q> 	c #CB9868",
"R> 	c #D09B6C",
"S> 	c #D69E70",
"T> 	c #DEA477",
"U> 	c #E2A97B",
"V> 	c #E2B88E",
"W> 	c #F2D2AB",
"X> 	c #E5AC84",
"Y> 	c #E09C72",
"Z> 	c #DA956B",
"`> 	c #DC936A",
" , 	c #DB9269",
"., 	c #E0926B",
"+, 	c #E19069",
"@, 	c #E28E68",
"#, 	c #E18E66",
"$, 	c #E18D65",
"%, 	c #E18B65",
"&, 	c #E18A65",
"*, 	c #E08864",
"=, 	c #E08664",
"-, 	c #E08564",
";, 	c #E18363",
">, 	c #DF8363",
",, 	c #DE8062",
"', 	c #DC7E61",
"), 	c #DC7C60",
"!, 	c #D97A5F",
"~, 	c #D8785F",
"{, 	c #D4775E",
"], 	c #D2765D",
"^, 	c #CA745B",
"/, 	c #C9715A",
"(, 	c #C4725B",
"_, 	c #C26D5A",
":, 	c #BE6B5A",
"<, 	c #B86B57",
"[, 	c #B66958",
"}, 	c #AE6555",
"|, 	c #AA6354",
"1, 	c #A76355",
"2, 	c #A36054",
"3, 	c #9F5D54",
"4, 	c #9A5B52",
"5, 	c #975A51",
"6, 	c #935750",
"7, 	c #8E554F",
"8, 	c #89544F",
"9, 	c #83514E",
"0, 	c #804F4E",
"a, 	c #7B4D4E",
"b, 	c #754A4C",
"c, 	c #71474A",
"d, 	c #6C4548",
"e, 	c #634248",
"f, 	c #593D44",
"g, 	c #675057",
"h, 	c #4F3942",
"i, 	c #4C3A44",
"j, 	c #443540",
"k, 	c #423441",
"l, 	c #3D3241",
"m, 	c #38303F",
"n, 	c #332E3E",
"o, 	c #2E2C3D",
"p, 	c #2A2A3D",
"q, 	c #24283B",
"r, 	c #1F273A",
"s, 	c #1A2437",
"t, 	c #0B2F3C",
"u, 	c #13353E",
"v, 	c #1C3A40",
"w, 	c #243E43",
"x, 	c #2E4345",
"y, 	c #364847",
"z, 	c #3C4A49",
"A, 	c #434F4A",
"B, 	c #4B534B",
"C, 	c #52554D",
"D, 	c #585A4E",
"E, 	c #5E5D50",
"F, 	c #646153",
"G, 	c #696454",
"H, 	c #6E6754",
"I, 	c #736957",
"J, 	c #7A6F55",
"K, 	c #807358",
"L, 	c #8A7C63",
"M, 	c #948572",
"N, 	c #E1DCCA",
"O, 	c #938B73",
"P, 	c #988666",
"Q, 	c #958161",
"R, 	c #968363",
"S, 	c #958362",
"T, 	c #9A8565",
"U, 	c #9D8766",
"V, 	c #9F8865",
"W, 	c #A18A65",
"X, 	c #A38C65",
"Y, 	c #A48C66",
"Z, 	c #A58D66",
"`, 	c #A68E65",
" ' 	c #A98F67",
".' 	c #AA9067",
"+' 	c #AE9269",
"@' 	c #B1936A",
"#' 	c #B2936A",
"$' 	c #B4946A",
"%' 	c #B5956A",
"&' 	c #B6956A",
"*' 	c #B79469",
"=' 	c #BA9469",
"-' 	c #BC9569",
";' 	c #BE956A",
">' 	c #C0966A",
",' 	c #C1966B",
"'' 	c #C39469",
")' 	c #CD9C70",
"!' 	c #D5A277",
"~' 	c #DBA97B",
"{' 	c #DBB791",
"]' 	c #EDD1AF",
"^' 	c #DEAD88",
"/' 	c #DE9F77",
"(' 	c #D3946F",
"_' 	c #CE8F67",
":' 	c #DBA37C",
"<' 	c #CE8D66",
"[' 	c #D38C67",
"}' 	c #D48A66",
"|' 	c #D68A65",
"1' 	c #D68964",
"2' 	c #D58864",
"3' 	c #D58664",
"4' 	c #D38462",
"5' 	c #D48262",
"6' 	c #D68062",
"7' 	c #D57F62",
"8' 	c #D27E62",
"9' 	c #D17D61",
"0' 	c #D07A5F",
"a' 	c #CE785F",
"b' 	c #CB765E",
"c' 	c #CB765F",
"d' 	c #CC7863",
"e' 	c #CB7863",
"f' 	c #CE8473",
"g' 	c #BF6E5E",
"h' 	c #B86B59",
"i' 	c #B66B5A",
"j' 	c #B4695B",
"k' 	c #AF6859",
"l' 	c #A86455",
"m' 	c #C18174",
"n' 	c #A15F53",
"o' 	c #9E5F53",
"p' 	c #9B5D53",
"q' 	c #975B51",
"r' 	c #935950",
"s' 	c #905750",
"t' 	c #8C554F",
"u' 	c #875956",
"v' 	c #7D4F4E",
"w' 	c #7A4E4E",
"x' 	c #744A4C",
"y' 	c #704749",
"z' 	c #6C4649",
"A' 	c #684449",
"B' 	c #5A3E45",
"C' 	c #553C43",
"D' 	c #4F3A41",
"E' 	c #4D3944",
"F' 	c #473641",
"G' 	c #433540",
"H' 	c #403342",
"I' 	c #393240",
"J' 	c #342F3E",
"K' 	c #2F2C3D",
"L' 	c #2E2F41",
"M' 	c #25273C",
"N' 	c #22263B",
"O' 	c #1D263A",
"P' 	c #182437",
"Q' 	c #0A2E3B",
"R' 	c #12343D",
"S' 	c #1B393F",
"T' 	c #233D42",
"U' 	c #2D4244",
"V' 	c #3B4948",
"W' 	c #424E49",
"X' 	c #49524A",
"Y' 	c #4F554C",
"Z' 	c #56594D",
"`' 	c #5B5B4F",
" ) 	c #616052",
".) 	c #676353",
"+) 	c #6C6553",
"@) 	c #706855",
"#) 	c #746A56",
"$) 	c #776D58",
"%) 	c #7D715B",
"&) 	c #7E735B",
"*) 	c #7F7359",
"=) 	c #BCB498",
"-) 	c #847858",
";) 	c #8A7B5E",
">) 	c #AC9C83",
",) 	c #918063",
"') 	c #948262",
")) 	c #948363",
"!) 	c #968464",
"~) 	c #988664",
"{) 	c #9A8764",
"]) 	c #9C8965",
"^) 	c #9E8B66",
"/) 	c #9F8B66",
"() 	c #A08C65",
"_) 	c #A38E66",
":) 	c #A48F66",
"<) 	c #A78F68",
"[) 	c #A99069",
"}) 	c #AA9068",
"|) 	c #AB9068",
"1) 	c #AC9068",
"2) 	c #AE9068",
"3) 	c #AF9169",
"4) 	c #B29168",
"5) 	c #B39169",
"6) 	c #B59168",
"7) 	c #B69168",
"8) 	c #B7916B",
"9) 	c #BB946D",
"0) 	c #C19B75",
"a) 	c #C1956E",
"b) 	c #C89C74",
"c) 	c #D09F78",
"d) 	c #CF9D76",
"e) 	c #DEAC84",
"f) 	c #D29A71",
"g) 	c #CB926A",
"h) 	c #C48C67",
"i) 	c #C68D6A",
"j) 	c #C28A67",
"k) 	c #C68A67",
"l) 	c #C88766",
"m) 	c #C88765",
"n) 	c #CB8563",
"o) 	c #CA8462",
"p) 	c #CA8362",
"q) 	c #CA8262",
"r) 	c #C88061",
"s) 	c #C97F60",
"t) 	c #CA7D60",
"u) 	c #C97C60",
"v) 	c #C5795E",
"w) 	c #C5775E",
"x) 	c #C2765D",
"y) 	c #BF745C",
"z) 	c #C07561",
"A) 	c #C57B6A",
"B) 	c #D09182",
"C) 	c #E2BEB2",
"D) 	c #BF8277",
"E) 	c #AD6958",
"F) 	c #AB6857",
"G) 	c #A96558",
"H) 	c #A46356",
"I) 	c #A36357",
"J) 	c #9F6155",
"K) 	c #9A5D54",
"L) 	c #965C52",
"M) 	c #935951",
"N) 	c #8F5850",
"O) 	c #8B554F",
"P) 	c #88534F",
"Q) 	c #84524E",
"R) 	c #80504D",
"S) 	c #7A4F4E",
"T) 	c #774C4D",
"U) 	c #72494B",
"V) 	c #70484C",
"W) 	c #6B4549",
"X) 	c #674449",
"Y) 	c #5F4046",
"Z) 	c #563C44",
"`) 	c #523B43",
" ! 	c #4E3A44",
".! 	c #4A3745",
"+! 	c #443442",
"@! 	c #403341",
"#! 	c #3B2F41",
"$! 	c #363041",
"%! 	c #312D40",
"&! 	c #2D2B3F",
"*! 	c #3B3C4F",
"=! 	c #24273E",
"-! 	c #20253B",
";! 	c #1B2539",
">! 	c #162336",
",! 	c #1B383F",
"'! 	c #233C42",
")! 	c #2C4144",
"!! 	c #334645",
"~! 	c #3A4A48",
"{! 	c #404E48",
"]! 	c #55584D",
"^! 	c #5A5B4F",
"/! 	c #5E5E51",
"(! 	c #646152",
"_! 	c #6E6957",
":! 	c #6F6855",
"<! 	c #716A56",
"[! 	c #756D5B",
"}! 	c #776D5B",
"|! 	c #7B725C",
"1! 	c #81775C",
"2! 	c #93876B",
"3! 	c #85775B",
"4! 	c #867A5E",
"5! 	c #887E60",
"6! 	c #8B7F5F",
"7! 	c #8E8061",
"8! 	c #8E8262",
"9! 	c #908363",
"0! 	c #918464",
"a! 	c #938464",
"b! 	c #948565",
"c! 	c #968664",
"d! 	c #978765",
"e! 	c #9A8966",
"f! 	c #9C8A66",
"g! 	c #9D8B67",
"h! 	c #9E8B67",
"i! 	c #A18C68",
"j! 	c #A18D68",
"k! 	c #A28D67",
"l! 	c #A38D66",
"m! 	c #A48D67",
"n! 	c #A58C67",
"o! 	c #A78D68",
"p! 	c #A98D67",
"q! 	c #AA8D67",
"r! 	c #AC8D69",
"s! 	c #AC8C68",
"t! 	c #AE8C68",
"u! 	c #B28F6A",
"v! 	c #B58F6A",
"w! 	c #BB946E",
"x! 	c #BF9874",
"y! 	c #C39973",
"z! 	c #C2976F",
"A! 	c #C09270",
"B! 	c #BB8C6B",
"C! 	c #BB8966",
"D! 	c #B98764",
"E! 	c #BA8866",
"F! 	c #BB8564",
"G! 	c #BE8464",
"H! 	c #BD8363",
"I! 	c #BF8262",
"J! 	c #BD7F60",
"K! 	c #C68A6D",
"L! 	c #BE7E61",
"M! 	c #BD7C61",
"N! 	c #BC7B61",
"O! 	c #BC7960",
"P! 	c #BA775E",
"Q! 	c #C88C75",
"R! 	c #BA7962",
"S! 	c #B7745C",
"T! 	c #B5735A",
"U! 	c #B2715B",
"V! 	c #B47361",
"W! 	c #B77666",
"X! 	c #B07264",
"Y! 	c #C99A90",
"Z! 	c #A96B61",
"`! 	c #A36657",
" ~ 	c #9F6556",
".~ 	c #A06258",
"+~ 	c #9D6157",
"@~ 	c #975E54",
"#~ 	c #945C53",
"$~ 	c #915B53",
"%~ 	c #8E5953",
"&~ 	c #8A5752",
"*~ 	c #865651",
"=~ 	c #835450",
"-~ 	c #7F514F",
";~ 	c #7B4F4E",
">~ 	c #774D4D",
",~ 	c #734C4E",
"'~ 	c #704A4C",
")~ 	c #6C484C",
"!~ 	c #69484D",
"~~ 	c #654349",
"{~ 	c #624348",
"]~ 	c #5E4046",
"^~ 	c #593E45",
"/~ 	c #553D45",
"(~ 	c #513C44",
"_~ 	c #4E3B44",
":~ 	c #483743",
"<~ 	c #453444",
"[~ 	c #3E3444",
"}~ 	c #746E7A",
"|~ 	c #4D4958",
"1~ 	c #2E2C3F",
"2~ 	c #2A2A3E",
"3~ 	c #272A3E",
"4~ 	c #22283C",
"5~ 	c #1E243B",
"6~ 	c #1A243A",
"7~ 	c #152337",
"8~ 	c #12333D",
"9~ 	c #1A383E",
"0~ 	c #223C41",
"a~ 	c #2B4143",
"b~ 	c #324644",
"c~ 	c #394947",
"d~ 	c #404D48",
"e~ 	c #465148",
"f~ 	c #4C554B",
"g~ 	c #52574C",
"h~ 	c #575A4F",
"i~ 	c #5B5D50",
"j~ 	c #676351",
"k~ 	c #6C6754",
"l~ 	c #6E6A56",
"m~ 	c #868270",
"n~ 	c #736D5A",
"o~ 	c #766F5B",
"p~ 	c #79715B",
"q~ 	c #7E775E",
"r~ 	c #7F765F",
"s~ 	c #81785D",
"t~ 	c #837C5C",
"u~ 	c #857D5E",
"v~ 	c #877D61",
"w~ 	c #877F61",
"x~ 	c #888062",
"y~ 	c #8B8164",
"z~ 	c #8D8265",
"A~ 	c #8D8365",
"B~ 	c #8F8465",
"C~ 	c #908563",
"D~ 	c #928565",
"E~ 	c #948665",
"F~ 	c #948766",
"G~ 	c #958866",
"H~ 	c #978968",
"I~ 	c #988867",
"J~ 	c #988866",
"K~ 	c #998966",
"L~ 	c #9A8965",
"M~ 	c #9A8967",
"N~ 	c #9C8867",
"O~ 	c #9D8967",
"P~ 	c #9E8967",
"Q~ 	c #A18966",
"R~ 	c #A38968",
"S~ 	c #A48967",
"T~ 	c #A68867",
"U~ 	c #A68865",
"V~ 	c #A98865",
"W~ 	c #B08E68",
"X~ 	c #B08F69",
"Y~ 	c #AF8C68",
"Z~ 	c #AE8768",
"`~ 	c #AE8666",
" { 	c #AD8461",
".{ 	c #B18768",
"+{ 	c #BA9275",
"@{ 	c #B18064",
"#{ 	c #B27D61",
"${ 	c #B07D60",
"%{ 	c #B27E60",
"&{ 	c #B17B5E",
"*{ 	c #B88267",
"={ 	c #B0785E",
"-{ 	c #AF775F",
";{ 	c #B0775F",
">{ 	c #B0755F",
",{ 	c #AF745E",
"'{ 	c #AB725D",
"){ 	c #AB715C",
"!{ 	c #AA6E5B",
"~{ 	c #AA6D5A",
"{{ 	c #A76B5A",
"]{ 	c #A66B5B",
"^{ 	c #A76C5F",
"/{ 	c #A86E60",
"({ 	c #A66E62",
"_{ 	c #9B665A",
":{ 	c #AB7E72",
"<{ 	c #966157",
"[{ 	c #965E56",
"}{ 	c #915D55",
"|{ 	c #8E5C54",
"1{ 	c #8C5954",
"2{ 	c #885954",
"3{ 	c #855653",
"4{ 	c #815451",
"5{ 	c #7D5351",
"6{ 	c #7B5150",
"7{ 	c #774F50",
"8{ 	c #744D4F",
"9{ 	c #704B4E",
"0{ 	c #6C4A4E",
"a{ 	c #6A484E",
"b{ 	c #715359",
"c{ 	c #7A5E64",
"d{ 	c #60434B",
"e{ 	c #5B3F46",
"f{ 	c #583E45",
"g{ 	c #543D44",
"h{ 	c #503C45",
"i{ 	c #4C3B45",
"j{ 	c #4A3944",
"k{ 	c #453742",
"l{ 	c #423544",
"m{ 	c #403545",
"n{ 	c #393242",
"o{ 	c #352F42",
"p{ 	c #2F2D40",
"q{ 	c #2C2B40",
"r{ 	c #27293D",
"s{ 	c #23283C",
"t{ 	c #21283C",
"u{ 	c #1D253B",
"v{ 	c #18243A",
"w{ 	c #142237",
"x{ 	c #092D3A",
"y{ 	c #11333C",
"z{ 	c #19373D",
"A{ 	c #223B40",
"B{ 	c #2A4042",
"C{ 	c #314543",
"D{ 	c #374947",
"E{ 	c #3D4C47",
"F{ 	c #444F47",
"G{ 	c #4B5349",
"H{ 	c #50564A",
"I{ 	c #55594D",
"J{ 	c #595C4E",
"K{ 	c #5F5F50",
"L{ 	c #656352",
"M{ 	c #676451",
"N{ 	c #6A6853",
"O{ 	c #8D8A77",
"P{ 	c #706D58",
"Q{ 	c #716C58",
"R{ 	c #8D8775",
"S{ 	c #75735A",
"T{ 	c #7A765E",
"U{ 	c #7C7560",
"V{ 	c #7D775D",
"W{ 	c #7F795E",
"X{ 	c #817B61",
"Y{ 	c #827C5F",
"Z{ 	c #837D60",
"`{ 	c #847F62",
" ] 	c #867F63",
".] 	c #877F63",
"+] 	c #898163",
"@] 	c #898062",
"#] 	c #8A8162",
"$] 	c #8B8263",
"%] 	c #8C8363",
"&] 	c #8C8262",
"*] 	c #8D8262",
"=] 	c #8F8363",
"-] 	c #908463",
";] 	c #918463",
">] 	c #908365",
",] 	c #928464",
"'] 	c #948466",
")] 	c #958466",
"!] 	c #978568",
"~] 	c #99856A",
"{] 	c #998467",
"]] 	c #9A8265",
"^] 	c #9A8163",
"/] 	c #AC9173",
"(] 	c #9D8161",
"_] 	c #9E8162",
":] 	c #A08061",
"<] 	c #A17E60",
"[] 	c #9F7F62",
"}] 	c #A98E74",
"|] 	c #9E7B61",
"1] 	c #A27D63",
"2] 	c #A57A62",
"3] 	c #A67962",
"4] 	c #A57960",
"5] 	c #A5775D",
"6] 	c #A7785E",
"7] 	c #A5755D",
"8] 	c #A6745D",
"9] 	c #A6745E",
"0] 	c #A5735E",
"a] 	c #A5705D",
"b] 	c #A56F5C",
"c] 	c #A36F5C",
"d] 	c #A06B5B",
"e] 	c #A36C5C",
"f] 	c #9F695B",
"g] 	c #9D685B",
"h] 	c #9B675B",
"i] 	c #9A6659",
"j] 	c #976457",
"k] 	c #966156",
"l] 	c #8F5F56",
"m] 	c #9D726A",
"n] 	c #8F5C56",
"o] 	c #8B5C52",
"p] 	c #895B53",
"q] 	c #875853",
"r] 	c #835552",
"s] 	c #7F5451",
"t] 	c #7E5654",
"u] 	c #795150",
"v] 	c #765050",
"w] 	c #744E4F",
"x] 	c #714E4F",
"y] 	c #6E4C4F",
"z] 	c #6A494E",
"A] 	c #67484D",
"B] 	c #64454A",
"C] 	c #63454C",
"D] 	c #5D424A",
"E] 	c #5A404A",
"F] 	c #583F46",
"G] 	c #553E45",
"H] 	c #533D46",
"I] 	c #4C3A43",
"J] 	c #483943",
"K] 	c #41353F",
"L] 	c #3F3442",
"M] 	c #3C3442",
"N] 	c #3A3442",
"O] 	c #322E41",
"P] 	c #3A384D",
"Q] 	c #2B2B41",
"R] 	c #25283E",
"S] 	c #242940",
"T] 	c #272E44",
"U] 	c #1A2339",
"V] 	c #162238",
"W] 	c #112135",
"X] 	c #0B2D39",
"Y] 	c #12333C",
"Z] 	c #1A373E",
"`] 	c #223C40",
" ^ 	c #283F41",
".^ 	c #2F4343",
"+^ 	c #374745",
"@^ 	c #3C4B46",
"#^ 	c #434F48",
"$^ 	c #48524A",
"%^ 	c #4E564C",
"&^ 	c #51574C",
"*^ 	c #565B4F",
"=^ 	c #5B5E51",
"-^ 	c #606153",
";^ 	c #626353",
">^ 	c #656553",
",^ 	c #696956",
"'^ 	c #6B6A57",
")^ 	c #7F7F6C",
"!^ 	c #858571",
"~^ 	c #73725C",
"{^ 	c #888670",
"]^ 	c #76735C",
"^^ 	c #79765D",
"/^ 	c #78775D",
"(^ 	c #7A775E",
"_^ 	c #7D785F",
":^ 	c #7E7A60",
"<^ 	c #7F7A60",
"[^ 	c #7F7B60",
"}^ 	c #807B60",
"|^ 	c #827C61",
"1^ 	c #817D61",
"2^ 	c #807B5F",
"3^ 	c #827D62",
"4^ 	c #837F64",
"5^ 	c #847F63",
"6^ 	c #857F63",
"7^ 	c #868063",
"8^ 	c #867F62",
"9^ 	c #888063",
"0^ 	c #8A7F63",
"a^ 	c #8A7E63",
"b^ 	c #8C8067",
"c^ 	c #8C7F65",
"d^ 	c #8D7D63",
"e^ 	c #8E7E63",
"f^ 	c #8E7D62",
"g^ 	c #8F7C62",
"h^ 	c #917B61",
"i^ 	c #907A61",
"j^ 	c #907960",
"k^ 	c #91775F",
"l^ 	c #94775F",
"m^ 	c #94765E",
"n^ 	c #9D856D",
"o^ 	c #957861",
"p^ 	c #977862",
"q^ 	c #97765F",
"r^ 	c #96745E",
"s^ 	c #987460",
"t^ 	c #99725D",
"u^ 	c #99705B",
"v^ 	c #996F59",
"w^ 	c #996E59",
"x^ 	c #986D59",
"y^ 	c #9A6E5B",
"z^ 	c #986C5A",
"A^ 	c #976B5B",
"B^ 	c #966A59",
"C^ 	c #966859",
"D^ 	c #956759",
"E^ 	c #946558",
"F^ 	c #926559",
"G^ 	c #916459",
"H^ 	c #8E6258",
"I^ 	c #8C6056",
"J^ 	c #8B5E57",
"K^ 	c #8A5C57",
"L^ 	c #885B56",
"M^ 	c #855A55",
"N^ 	c #845953",
"O^ 	c #7F5752",
"P^ 	c #7C5552",
"Q^ 	c #785452",
"R^ 	c #765251",
"S^ 	c #987F7E",
"T^ 	c #7B5C5D",
"U^ 	c #6E4D50",
"V^ 	c #6C4D4F",
"W^ 	c #694B4E",
"X^ 	c #67494D",
"Y^ 	c #66484C",
"Z^ 	c #62464B",
"`^ 	c #614549",
" / 	c #5D4247",
"./ 	c #594146",
"+/ 	c #564046",
"@/ 	c #523E46",
"#/ 	c #4F3D47",
"$/ 	c #4B3A45",
"%/ 	c #473845",
"&/ 	c #443744",
"*/ 	c #413544",
"=/ 	c #3F3443",
"-/ 	c #3B3342",
";/ 	c #393241",
">/ 	c #312E3E",
",/ 	c #2C2C3F",
"'/ 	c #282A3E",
")/ 	c #22293E",
"!/ 	c #1C253B",
"~/ 	c #18253D",
"{/ 	c #17273F",
"]/ 	c #12243B",
"^/ 	c #092B37",
"// 	c #10313A",
"(/ 	c #18363C",
"_/ 	c #213B3F",
":/ 	c #273F41",
"</ 	c #2E4242",
"[/ 	c #354644",
"}/ 	c #3B4A47",
"|/ 	c #414D48",
"1/ 	c #465049",
"2/ 	c #4A534A",
"3/ 	c #51594E",
"4/ 	c #53594D",
"5/ 	c #575C4E",
"6/ 	c #5D6052",
"7/ 	c #606254",
"8/ 	c #767768",
"9/ 	c #676857",
"0/ 	c #6A6B59",
"a/ 	c #6B6D5A",
"b/ 	c #6D6F5B",
"c/ 	c #6E6E59",
"d/ 	c #706F5A",
"e/ 	c #74735D",
"f/ 	c #75745D",
"g/ 	c #75745C",
"h/ 	c #76745C",
"i/ 	c #77755D",
"j/ 	c #78775E",
"k/ 	c #79785D",
"l/ 	c #79785E",
"m/ 	c #7A795F",
"n/ 	c #79795E",
"o/ 	c #78785E",
"p/ 	c #7C7B61",
"q/ 	c #7E7D63",
"r/ 	c #7F7F65",
"s/ 	c #807F66",
"t/ 	c #7E7C62",
"u/ 	c #7D7960",
"v/ 	c #80795F",
"w/ 	c #807961",
"x/ 	c #807962",
"y/ 	c #807760",
"z/ 	c #817761",
"A/ 	c #817962",
"B/ 	c #887E68",
"C/ 	c #82755F",
"D/ 	c #84755F",
"E/ 	c #85745D",
"F/ 	c #86735B",
"G/ 	c #86715B",
"H/ 	c #887360",
"I/ 	c #8A7363",
"J/ 	c #897262",
"K/ 	c #866E5A",
"L/ 	c #8A6F5C",
"M/ 	c #8B6F5B",
"N/ 	c #8B6E5C",
"O/ 	c #8D6E5D",
"P/ 	c #8C6B5B",
"Q/ 	c #8B6A57",
"R/ 	c #8C6957",
"S/ 	c #8B6855",
"T/ 	c #8B6756",
"U/ 	c #8D6757",
"V/ 	c #8D6557",
"W/ 	c #8C6455",
"X/ 	c #8B6356",
"Y/ 	c #8B6255",
"Z/ 	c #8A6157",
"`/ 	c #8A645C",
" ( 	c #875F56",
".( 	c #855E56",
"+( 	c #845E56",
"@( 	c #825C54",
"#( 	c #7F5A55",
"$( 	c #7E5853",
"%( 	c #7D5853",
"&( 	c #7C5753",
"*( 	c #7A5651",
"=( 	c #785552",
"-( 	c #755452",
";( 	c #725251",
">( 	c #6E504F",
",( 	c #6B4D4E",
"'( 	c #694C4E",
")( 	c #674A4E",
"!( 	c #65484D",
"~( 	c #62474C",
"{( 	c #61474C",
"]( 	c #5D444C",
"^( 	c #594149",
"/( 	c #5A444C",
"(( 	c #554048",
"_( 	c #533F47",
":( 	c #4E3C46",
"<( 	c #473844",
"[( 	c #413644",
"}( 	c #3F3444",
"|( 	c #3C3343",
"1( 	c #383241",
"2( 	c #373443",
"3( 	c #343242",
"4( 	c #1F263B",
"5( 	c #1A243B",
"6( 	c #17233C",
"7( 	c #13213B",
"8( 	c #10213A",
"9( 	c #0A2C37",
"0( 	c #11323B",
"a( 	c #19363D",
"b( 	c #203A3E",
"c( 	c #263E40",
"d( 	c #2D4142",
"e( 	c #334444",
"f( 	c #394946",
"g( 	c #3F4C47",
"h( 	c #454F48",
"i( 	c #49534B",
"j( 	c #646D65",
"k( 	c #525A4F",
"l( 	c #545A4D",
"m( 	c #5A5E50",
"n( 	c #5E6153",
"o( 	c #616454",
"p( 	c #626555",
"q( 	c #636656",
"r( 	c #646755",
"s( 	c #686B58",
"t( 	c #6A6C59",
"u( 	c #6C6E5B",
"v( 	c #6D705C",
"w( 	c #6E705C",
"x( 	c #6D705B",
"y( 	c #6E705B",
"z( 	c #70725C",
"A( 	c #6F725C",
"B( 	c #6F725B",
"C( 	c #6F725A",
"D( 	c #6F715A",
"E( 	c #6F735B",
"F( 	c #70725A",
"G( 	c #6F735A",
"H( 	c #737761",
"I( 	c #767B64",
"J( 	c #777B64",
"K( 	c #787D69",
"L( 	c #797E6D",
"M( 	c #767966",
"N( 	c #73735E",
"O( 	c #73725F",
"P( 	c #757361",
"Q( 	c #74715F",
"R( 	c #74705D",
"S( 	c #75725E",
"T( 	c #8B8974",
"U( 	c #A5A38F",
"V( 	c #75715F",
"W( 	c #787165",
"X( 	c #786E5C",
"Y( 	c #786958",
"Z( 	c #7A6C60",
"`( 	c #7D6F64",
" _ 	c #7C6A5B",
"._ 	c #7C6657",
"+_ 	c #7E6A5D",
"@_ 	c #7D675B",
"#_ 	c #7F6657",
"$_ 	c #7F6557",
"%_ 	c #7E6456",
"&_ 	c #7F6254",
"*_ 	c #7E6153",
"=_ 	c #7F6153",
"-_ 	c #7F5F53",
";_ 	c #7E5F53",
">_ 	c #7F5E55",
",_ 	c #7F6059",
"'_ 	c #7E5D57",
")_ 	c #7E5D58",
"!_ 	c #7C5D59",
"~_ 	c #7A5B54",
"{_ 	c #7C5C57",
"]_ 	c #765651",
"^_ 	c #755652",
"/_ 	c #745552",
"(_ 	c #735351",
"__ 	c #715351",
":_ 	c #705250",
"<_ 	c #6B4F4E",
"[_ 	c #6A4D4E",
"}_ 	c #664C4D",
"|_ 	c #654C4F",
"1_ 	c #61494C",
"2_ 	c #60484B",
"3_ 	c #60474C",
"4_ 	c #5E454A",
"5_ 	c #5A4349",
"6_ 	c #574248",
"7_ 	c #58444C",
"8_ 	c #5D4A54",
"9_ 	c #5E4D58",
"0_ 	c #4F3F49",
"a_ 	c #4D3B46",
"b_ 	c #4A3A45",
"c_ 	c #473A45",
"d_ 	c #443845",
"e_ 	c #413645",
"f_ 	c #3D3544",
"g_ 	c #3B3343",
"h_ 	c #393243",
"i_ 	c #363141",
"j_ 	c #322E3F",
"k_ 	c #2F2C3E",
"l_ 	c #2D2B3E",
"m_ 	c #292A3E",
"n_ 	c #25283D",
"o_ 	c #21273C",
"p_ 	c #1B263D",
"q_ 	c #16233A",
"r_ 	c #132239",
"s_ 	c #102238",
"t_ 	c #10323B",
"u_ 	c #1F393D",
"v_ 	c #2C4142",
"w_ 	c #304343",
"x_ 	c #374846",
"y_ 	c #3C4A46",
"z_ 	c #424E48",
"A_ 	c #465149",
"B_ 	c #515C53",
"C_ 	c #4D574C",
"D_ 	c #51594D",
"E_ 	c #565C4F",
"F_ 	c #5B6052",
"G_ 	c #5F6255",
"H_ 	c #7D8074",
"I_ 	c #606454",
"J_ 	c #646857",
"K_ 	c #666959",
"L_ 	c #676B5A",
"M_ 	c #686D5A",
"N_ 	c #686D59",
"O_ 	c #696E5A",
"P_ 	c #676E59",
"Q_ 	c #686E5A",
"R_ 	c #686E59",
"S_ 	c #686F59",
"T_ 	c #676E57",
"U_ 	c #666E57",
"V_ 	c #666D56",
"W_ 	c #656C56",
"X_ 	c #6A715C",
"Y_ 	c #6C7561",
"Z_ 	c #6F7966",
"`_ 	c #909784",
" : 	c #9EA593",
".: 	c #6F7A6A",
"+: 	c #6E7565",
"@: 	c #6A6F5E",
"#: 	c #676E5E",
"$: 	c #686D5D",
"%: 	c #686B5B",
"&: 	c #696A59",
"*: 	c #686958",
"=: 	c #696B59",
"-: 	c #696B5D",
";: 	c #696A5D",
">: 	c #6E716D",
",: 	c #6D6B61",
"': 	c #6C655A",
"): 	c #6D675C",
"!: 	c #6D6355",
"~: 	c #6D6254",
"{: 	c #6D6051",
"]: 	c #6F6254",
"^: 	c #706258",
"/: 	c #73685F",
"(: 	c #706055",
"_: 	c #726053",
":: 	c #746461",
"<: 	c #715F5C",
"[: 	c #725C54",
"}: 	c #725B51",
"|: 	c #715A50",
"1: 	c #715B51",
"2: 	c #715950",
"3: 	c #705851",
"4: 	c #705752",
"5: 	c #705853",
"6: 	c #715954",
"7: 	c #705652",
"8: 	c #6F5653",
"9: 	c #6E5553",
"0: 	c #765D5B",
"a: 	c #6B5352",
"b: 	c #6A5152",
"c: 	c #695051",
"d: 	c #685050",
"e: 	c #664E50",
"f: 	c #654E4F",
"g: 	c #644D4D",
"h: 	c #634C4D",
"i: 	c #614B4E",
"j: 	c #604B4E",
"k: 	c #5C494D",
"l: 	c #7A686B",
"m: 	c #5A474B",
"n: 	c #58454C",
"o: 	c #59464C",
"p: 	c #54424A",
"q: 	c #524149",
"r: 	c #513F4A",
"s: 	c #483A47",
"t: 	c #7B717F",
"u: 	c #443746",
"v: 	c #473846",
"w: 	c #463845",
"x: 	c #433845",
"y: 	c #403745",
"z: 	c #3E3646",
"A: 	c #393343",
"B: 	c #383344",
"C: 	c #363142",
"D: 	c #403E4F",
"E: 	c #323144",
"F: 	c #23273B",
"G: 	c #1F263C",
"H: 	c #1C263C",
"I: 	c #19243D",
"J: 	c #15233C",
"K: 	c #12223C",
"L: 	c #142640",
"M: 	c #0A2C38",
"N: 	c #0F303A",
"O: 	c #17343B",
"P: 	c #1E383C",
"Q: 	c #253D3F",
"R: 	c #2B4041",
"S: 	c #2F4243",
"T: 	c #364746",
"U: 	c #3B4946",
"V: 	c #414D47",
"W: 	c #48544B",
"X: 	c #4B574C",
"Y: 	c #4F5A4D",
"Z: 	c #535B4E",
"`: 	c #64685B",
" < 	c #5D6253",
".< 	c #5D6254",
"+< 	c #5F6455",
"@< 	c #616758",
"#< 	c #616757",
"$< 	c #616858",
"%< 	c #636A59",
"&< 	c #636A58",
"*< 	c #616A57",
"=< 	c #606957",
"-< 	c #606A57",
";< 	c #606A56",
">< 	c #5F6A56",
",< 	c #5F6955",
"'< 	c #5D6855",
")< 	c #626D5A",
"!< 	c #64705F",
"~< 	c #677565",
"{< 	c #6B7869",
"]< 	c #677465",
"^< 	c #667062",
"/< 	c #626B5C",
"(< 	c #5D6758",
"_< 	c #5D675C",
":< 	c #5C6459",
"<< 	c #5C6355",
"[< 	c #5D6256",
"}< 	c #5E6357",
"|< 	c #5D6359",
"1< 	c #5E6259",
"2< 	c #626763",
"3< 	c #606059",
"4< 	c #636664",
"5< 	c #5F5F5C",
"6< 	c #646360",
"7< 	c #625D55",
"8< 	c #615B53",
"9< 	c #6E6C6A",
"0< 	c #625C57",
"a< 	c #635A53",
"b< 	c #645A53",
"c< 	c #675B56",
"d< 	c #6A686E",
"e< 	c #686368",
"f< 	c #645753",
"g< 	c #645551",
"h< 	c #64534D",
"i< 	c #64524D",
"j< 	c #64514C",
"k< 	c #64524E",
"l< 	c #655659",
"m< 	c #68595E",
"n< 	c #655455",
"o< 	c #645051",
"p< 	c #635051",
"q< 	c #615053",
"r< 	c #65575E",
"s< 	c #62545C",
"t< 	c #605158",
"u< 	c #5D4F55",
"v< 	c #5C4D51",
"w< 	c #5B4A4D",
"x< 	c #5B494C",
"y< 	c #59484C",
"z< 	c #56464B",
"A< 	c #54444A",
"B< 	c #615358",
"C< 	c #53444B",
"D< 	c #52444B",
"E< 	c #50424A",
"F< 	c #4F414A",
"G< 	c #51434D",
"H< 	c #564B59",
"I< 	c #746E7F",
"J< 	c #C3BFCD",
"K< 	c #777185",
"L< 	c #53495D",
"M< 	c #453A49",
"N< 	c #403644",
"O< 	c #3E3745",
"P< 	c #423C4C",
"Q< 	c #383444",
"R< 	c #332F41",
"S< 	c #332F42",
"T< 	c #2F2C40",
"U< 	c #2B2C3F",
"V< 	c #292B3E",
"W< 	c #24273C",
"X< 	c #22273C",
"Y< 	c #1B253D",
"Z< 	c #18243C",
"`< 	c #15223B",
" [ 	c #102038",
".[ 	c #0F1F39",
"+[ 	c #0B2B36",
"@[ 	c #10303A",
"#[ 	c #18343C",
"$[ 	c #1E383D",
"%[ 	c #243C40",
"&[ 	c #2A3F40",
"*[ 	c #5A6765",
"=[ 	c #4F5C59",
"-[ 	c #43504B",
";[ 	c #465249",
">[ 	c #48544A",
",[ 	c #4D594E",
"'[ 	c #4F5A50",
")[ 	c #525C4F",
"![ 	c #555F51",
"~[ 	c #575F52",
"{[ 	c #576053",
"][ 	c #5D6658",
"^[ 	c #899184",
"/[ 	c #5C6456",
"([ 	c #5B6555",
"_[ 	c #5B6556",
":[ 	c #5C6556",
"<[ 	c #5B6656",
"[[ 	c #5B6757",
"}[ 	c #5A6655",
"|[ 	c #5A6554",
"1[ 	c #586553",
"2[ 	c #586554",
"3[ 	c #586453",
"4[ 	c #576352",
"5[ 	c #566252",
"6[ 	c #556253",
"7[ 	c #556153",
"8[ 	c #586657",
"9[ 	c #5C6C5C",
"0[ 	c #5D6E60",
"a[ 	c #5C6E62",
"b[ 	c #5C6E61",
"c[ 	c #5C6D61",
"d[ 	c #5A6B60",
"e[ 	c #58655A",
"f[ 	c #55625B",
"g[ 	c #54615D",
"h[ 	c #54615F",
"i[ 	c #525D58",
"j[ 	c #545E57",
"k[ 	c #535D56",
"l[ 	c #535B54",
"m[ 	c #545C55",
"n[ 	c #555B56",
"o[ 	c #555A55",
"p[ 	c #565C5C",
"q[ 	c #565B5C",
"r[ 	c #575A5A",
"s[ 	c #565A59",
"t[ 	c #575A5B",
"u[ 	c #575C60",
"v[ 	c #58595A",
"w[ 	c #585759",
"x[ 	c #606065",
"y[ 	c #605F64",
"z[ 	c #666972",
"A[ 	c #58575D",
"B[ 	c #5B5A60",
"C[ 	c #5F5F66",
"D[ 	c #584F4C",
"E[ 	c #594D4A",
"F[ 	c #584C49",
"G[ 	c #584B4B",
"H[ 	c #5C5359",
"I[ 	c #595057",
"J[ 	c #5A5259",
"K[ 	c #584C4F",
"L[ 	c #574C50",
"M[ 	c #574E57",
"N[ 	c #5B5661",
"O[ 	c #5A5661",
"P[ 	c #5E606D",
"Q[ 	c #59545F",
"R[ 	c #585461",
"S[ 	c #585560",
"T[ 	c #534C56",
"U[ 	c #524A52",
"V[ 	c #51464E",
"W[ 	c #50454C",
"X[ 	c #4F434A",
"Y[ 	c #4D4148",
"Z[ 	c #4D414A",
"`[ 	c #4D4149",
" } 	c #4A3F48",
".} 	c #483E48",
"+} 	c #473D47",
"@} 	c #453B47",
"#} 	c #3F3847",
"$} 	c #777284",
"%} 	c #3D3646",
"&} 	c #3B3544",
"*} 	c #393443",
"=} 	c #353242",
"-} 	c #343142",
";} 	c #312F41",
">} 	c #303040",
",} 	c #2D2D40",
"'} 	c #2B2C40",
")} 	c #292B3F",
"!} 	c #25293D",
"~} 	c #20273F",
"{} 	c #1D253F",
"]} 	c #19253D",
"^} 	c #16233D",
"/} 	c #12213A",
"(} 	c #112139",
"_} 	c #0D1E37",
":} 	c #102F39",
"<} 	c #17333B",
"[} 	c #1E373D",
"}} 	c #233A40",
"|} 	c #283E40",
"1} 	c #314443",
"2} 	c #6B7877",
"3} 	c #596764",
"4} 	c #445048",
"5} 	c #47534A",
"6} 	c #4B584F",
"7} 	c #5B675C",
"8} 	c #505C4E",
"9} 	c #525E50",
"0} 	c #545E51",
"a} 	c #5F685C",
"b} 	c #677166",
"c} 	c #546052",
"d} 	c #576253",
"e} 	c #5A6659",
"f} 	c #687568",
"g} 	c #576558",
"h} 	c #546254",
"i} 	c #546255",
"j} 	c #546153",
"k} 	c #546053",
"l} 	c #525F53",
"m} 	c #4F5E51",
"n} 	c #4F5E52",
"o} 	c #4E5D51",
"p} 	c #505F54",
"q} 	c #526559",
"r} 	c #54675C",
"s} 	c #536960",
"t} 	c #536862",
"u} 	c #516860",
"v} 	c #50645C",
"w} 	c #4D5F57",
"x} 	c #4B6160",
"y} 	c #586E75",
"z} 	c #597A89",
"A} 	c #4F6875",
"B} 	c #4A5D62",
"C} 	c #4A5959",
"D} 	c #4B5856",
"E} 	c #505F60",
"F} 	c #505D5F",
"G} 	c #54656E",
"H} 	c #4B5E6B",
"I} 	c #4C5D6B",
"J} 	c #4D5D68",
"K} 	c #546271",
"L} 	c #4E5A64",
"M} 	c #4E5A61",
"N} 	c #4D575E",
"O} 	c #4E5861",
"P} 	c #5B6774",
"Q} 	c #535B68",
"R} 	c #535863",
"S} 	c #4E5057",
"T} 	c #4D4D55",
"U} 	c #525560",
"V} 	c #5A5455",
"W} 	c #4D4545",
"X} 	c #4E484B",
"Y} 	c #4D4344",
"Z} 	c #4C4750",
"`} 	c #545461",
" | 	c #4D4850",
".| 	c #4D4A53",
"+| 	c #4F4C56",
"@| 	c #4F4952",
"#| 	c #514E5B",
"$| 	c #545868",
"%| 	c #535666",
"&| 	c #4E4F5E",
"*| 	c #545767",
"=| 	c #4B4A58",
"-| 	c #49454E",
";| 	c #48444C",
">| 	c #48434B",
",| 	c #48424B",
"'| 	c #473F49",
")| 	c #463D45",
"!| 	c #463D46",
"~| 	c #453C46",
"{| 	c #443B46",
"]| 	c #423B46",
"^| 	c #423B44",
"/| 	c #4D4658",
"(| 	c #3C3746",
"_| 	c #3A3542",
":| 	c #393544",
"<| 	c #373343",
"[| 	c #353243",
"}| 	c #333142",
"|| 	c #322F42",
"1| 	c #2F2F40",
"2| 	c #2D2F3F",
"3| 	c #2B2D3E",
"4| 	c #282C3E",
"5| 	c #262A3E",
"6| 	c #23283E",
"7| 	c #20273D",
"8| 	c #343B53",
"9| 	c #1C2540",
"0| 	c #17243C",
"a| 	c #11203A",
"b| 	c #10213B",
"c| 	c #0D1E38",
"d| 	c #0F2E38",
"e| 	c #153239",
"f| 	c #1D363C",
"g| 	c #223A3F",
"h| 	c #273D40",
"i| 	c #2C4041",
"j| 	c #3F4D49",
"k| 	c #414F48",
"l| 	c #43514A",
"m| 	c #46554C",
"n| 	c #47564C",
"o| 	c #546259",
"p| 	c #4B594C",
"q| 	c #4E5B4F",
"r| 	c #4F5B4F",
"s| 	c #96A096",
"t| 	c #7C887D",
"u| 	c #616D62",
"v| 	c #515F52",
"w| 	c #515F53",
"x| 	c #516056",
"y| 	c #52635B",
"z| 	c #516157",
"A| 	c #4F6059",
"B| 	c #4E5F5A",
"C| 	c #4E615C",
"D| 	c #4B5A51",
"E| 	c #4A5A51",
"F| 	c #485A52",
"G| 	c #475950",
"H| 	c #465851",
"I| 	c #485A53",
"J| 	c #495D53",
"K| 	c #4A6057",
"L| 	c #4A5F57",
"M| 	c #4B635E",
"N| 	c #496260",
"O| 	c #465F5D",
"P| 	c #455C5B",
"Q| 	c #425757",
"R| 	c #435E67",
"S| 	c #547588",
"T| 	c #436479",
"U| 	c #527181",
"V| 	c #42585D",
"W| 	c #46575B",
"X| 	c #485C63",
"Y| 	c #495E68",
"Z| 	c #496275",
"`| 	c #55728B",
" 1 	c #54758F",
".1 	c #445C72",
"+1 	c #496071",
"@1 	c #455866",
"#1 	c #495E6E",
"$1 	c #445662",
"%1 	c #445461",
"&1 	c #475867",
"*1 	c #485666",
"=1 	c #47515E",
"-1 	c #666C79",
";1 	c #454A54",
">1 	c #43444A",
",1 	c #423F41",
"'1 	c #444042",
")1 	c #464953",
"!1 	c #484851",
"~1 	c #443F43",
"{1 	c #585458",
"]1 	c #454855",
"^1 	c #444653",
"/1 	c #495063",
"(1 	c #4C5263",
"_1 	c #484A58",
":1 	c #494A58",
"<1 	c #484A5C",
"[1 	c #4E556A",
"}1 	c #494C5E",
"|1 	c #464C5C",
"11 	c #454654",
"21 	c #434550",
"31 	c #414048",
"41 	c #403D45",
"51 	c #413C44",
"61 	c #403B45",
"71 	c #3F3942",
"81 	c #3F3943",
"91 	c #3E3843",
"01 	c #3D3843",
"a1 	c #3D3944",
"b1 	c #3D3743",
"c1 	c #3C3646",
"d1 	c #3E3A4A",
"e1 	c #383544",
"f1 	c #353341",
"g1 	c #363343",
"h1 	c #333343",
"i1 	c #323243",
"j1 	c #303042",
"k1 	c #2E2E41",
"l1 	c #2C2D40",
"m1 	c #2A2D3E",
"n1 	c #272B3E",
"o1 	c #252A3E",
"p1 	c #21273D",
"q1 	c #1F273C",
"r1 	c #1D263F",
"s1 	c #18233E",
"t1 	c #16243C",
"u1 	c #13223B",
"v1 	c #0F2039",
"w1 	c #0E1F39",
"x1 	c #0B1D37",
"y1 	c #092934",
"z1 	c #16333A",
"A1 	c #1B353B",
"B1 	c #21383D",
"C1 	c #263D40",
"D1 	c #2A3F41",
"E1 	c #2E4243",
"F1 	c #324544",
"G1 	c #3B4B49",
"H1 	c #3E4E49",
"I1 	c #3F4F49",
"J1 	c #42514B",
"K1 	c #44544C",
"L1 	c #46564D",
"M1 	c #49584E",
"N1 	c #4A5950",
"O1 	c #4B5A4F",
"P1 	c #4C5E55",
"Q1 	c #4B5D54",
"R1 	c #4A5C53",
"S1 	c #4C5F5B",
"T1 	c #485D57",
"U1 	c #475E5A",
"V1 	c #496062",
"W1 	c #486060",
"X1 	c #465C5C",
"Y1 	c #486064",
"Z1 	c #476164",
"`1 	c #415956",
" 2 	c #405653",
".2 	c #405656",
"+2 	c #3E5351",
"@2 	c #3F5550",
"#2 	c #405753",
"$2 	c #415752",
"%2 	c #405856",
"&2 	c #405C5F",
"*2 	c #3F5A5C",
"=2 	c #3D575B",
"-2 	c #3B5761",
";2 	c #455E68",
">2 	c #3C5765",
",2 	c #446173",
"'2 	c #3A586A",
")2 	c #3E5B6D",
"!2 	c #3F5761",
"~2 	c #41555F",
"{2 	c #4C697A",
"]2 	c #46667F",
"^2 	c #486982",
"/2 	c #3C5A71",
"(2 	c #3D5466",
"_2 	c #3C5160",
":2 	c #3D5262",
"<2 	c #3E5869",
"[2 	c #3E5768",
"}2 	c #41586A",
"|2 	c #3B4F5E",
"12 	c #435462",
"22 	c #3C4D5F",
"32 	c #545D68",
"42 	c #3A414A",
"52 	c #393D42",
"62 	c #3A3C40",
"72 	c #3D4149",
"82 	c #3D424F",
"92 	c #3B4252",
"02 	c #3B404E",
"a2 	c #3C4458",
"b2 	c #4A556A",
"c2 	c #435168",
"d2 	c #4B5D75",
"e2 	c #444F66",
"f2 	c #596072",
"g2 	c #495870",
"h2 	c #43536C",
"i2 	c #41495C",
"j2 	c #404B5B",
"k2 	c #3D4451",
"l2 	c #3A404D",
"m2 	c #3A3F49",
"n2 	c #393A44",
"o2 	c #393942",
"p2 	c #3A3A46",
"q2 	c #3A3945",
"r2 	c #3A3844",
"s2 	c #383642",
"t2 	c #373543",
"u2 	c #373542",
"v2 	c #373643",
"w2 	c #383744",
"x2 	c #373545",
"y2 	c #363444",
"z2 	c #333341",
"A2 	c #313345",
"B2 	c #303345",
"C2 	c #333648",
"D2 	c #2B2F42",
"E2 	c #2B2E42",
"F2 	c #2A2D41",
"G2 	c #272C3F",
"H2 	c #282E41",
"I2 	c #252B41",
"J2 	c #222840",
"K2 	c #1F263E",
"L2 	c #1C263B",
"M2 	c #1B253E",
"N2 	c #18243F",
"O2 	c #14233B",
"P2 	c #12223B",
"Q2 	c #0B1E37",
"R2 	c #0B1F38",
"S2 	c #16323A",
"T2 	c #1B343A",
"U2 	c #20373C",
"V2 	c #283E41",
"W2 	c #2D4143",
"X2 	c #304344",
"Y2 	c #3A4B48",
"Z2 	c #3E4F4A",
"`2 	c #40504B",
" 3 	c #41524C",
".3 	c #43544D",
"+3 	c #485850",
"@3 	c #47584F",
"#3 	c #74817A",
"$3 	c #465750",
"%3 	c #485A54",
"&3 	c #485950",
"*3 	c #475A53",
"=3 	c #445850",
"-3 	c #445B57",
";3 	c #455C5A",
">3 	c #435854",
",3 	c #40564F",
"'3 	c #405651",
")3 	c #3F5653",
"!3 	c #405857",
"~3 	c #3E5659",
"{3 	c #3C5659",
"]3 	c #3C5657",
"^3 	c #3C575B",
"/3 	c #3C5960",
"(3 	c #385155",
"_3 	c #37504F",
":3 	c #385152",
"<3 	c #375152",
"[3 	c #3C5B62",
"}3 	c #385B68",
"|3 	c #36565F",
"13 	c #345158",
"23 	c #334A4F",
"33 	c #344E58",
"43 	c #36576A",
"53 	c #3F5D6D",
"63 	c #365363",
"73 	c #4F6A7E",
"83 	c #375364",
"93 	c #39515C",
"03 	c #39525F",
"a3 	c #395563",
"b3 	c #365364",
"c3 	c #364F5B",
"d3 	c #354F5C",
"e3 	c #38566A",
"f3 	c #354E5E",
"g3 	c #375160",
"h3 	c #354E5C",
"i3 	c #354958",
"j3 	c #364E5F",
"k3 	c #415A72",
"l3 	c #3A5267",
"m3 	c #31404D",
"n3 	c #313C46",
"o3 	c #323E4A",
"p3 	c #333B46",
"q3 	c #333A46",
"r3 	c #343F53",
"s3 	c #4B5D70",
"t3 	c #3B4B64",
"u3 	c #3B475C",
"v3 	c #354154",
"w3 	c #35435C",
"x3 	c #35475F",
"y3 	c #3B5470",
"z3 	c #445E78",
"A3 	c #405068",
"B3 	c #3A4E64",
"C3 	c #415368",
"D3 	c #3B4A5D",
"E3 	c #384353",
"F3 	c #36424F",
"G3 	c #343D48",
"H3 	c #343942",
"I3 	c #333741",
"J3 	c #363C49",
"K3 	c #363E50",
"L3 	c #373C4C",
"M3 	c #353643",
"N3 	c #333542",
"O3 	c #323441",
"P3 	c #343442",
"Q3 	c #333344",
"R3 	c #313343",
"S3 	c #303241",
"T3 	c #2F3143",
"U3 	c #2E3245",
"V3 	c #2D3144",
"W3 	c #2B3044",
"X3 	c #292F43",
"Y3 	c #272C41",
"Z3 	c #242A3F",
"`3 	c #262C3F",
" 4 	c #232A3F",
".4 	c #20283F",
"+4 	c #202841",
"@4 	c #1F2840",
"#4 	c #1A253A",
"$4 	c #18243D",
"%4 	c #16233E",
"&4 	c #13223A",
"*4 	c #0E2039",
"=4 	c #0C1F38",
"-4 	c #0A1E37",
";4 	c #0A2934",
">4 	c #102E38",
",4 	c #1A3339",
"'4 	c #1F373C",
")4 	c #2C4143",
"!4 	c #354846",
"~4 	c #374A47",
"{4 	c #394C48",
"]4 	c #3B4E49",
"^4 	c #3D504B",
"/4 	c #3E524B",
"(4 	c #4A5C54",
"_4 	c #43554D",
":4 	c #3E5149",
"<4 	c #41564F",
"[4 	c #435952",
"}4 	c #41554D",
"|4 	c #445853",
"14 	c #425653",
"24 	c #435959",
"34 	c #415757",
"44 	c #3D5351",
"54 	c #3B514C",
"64 	c #3A5250",
"74 	c #3A5454",
"84 	c #385151",
"94 	c #374D4D",
"04 	c #354C4A",
"a4 	c #344D4D",
"b4 	c #375359",
"c4 	c #35535D",
"d4 	c #355669",
"e4 	c #325058",
"f4 	c #2F4D53",
"g4 	c #32525E",
"h4 	c #345D75",
"i4 	c #446B82",
"j4 	c #345D70",
"k4 	c #30515E",
"l4 	c #2E4B55",
"m4 	c #2E4953",
"n4 	c #325365",
"o4 	c #335465",
"p4 	c #304B57",
"q4 	c #314D5B",
"r4 	c #314E5C",
"s4 	c #304D5C",
"t4 	c #314D5A",
"u4 	c #304F5D",
"v4 	c #325364",
"w4 	c #304C5C",
"x4 	c #4D667A",
"y4 	c #335265",
"z4 	c #3B5C76",
"A4 	c #2F4E66",
"B4 	c #34546A",
"C4 	c #324B5C",
"D4 	c #2F4B5E",
"E4 	c #2F495D",
"F4 	c #2B3B49",
"G4 	c #2A3641",
"H4 	c #2A3949",
"I4 	c #2B3A4C",
"J4 	c #303F53",
"K4 	c #3A4D63",
"L4 	c #3B485B",
"M4 	c #38485C",
"N4 	c #2D3C51",
"O4 	c #2E3E53",
"P4 	c #2F3C4D",
"Q4 	c #30455E",
"R4 	c #486685",
"S4 	c #4B6A86",
"T4 	c #374F69",
"U4 	c #34485F",
"V4 	c #344558",
"W4 	c #324558",
"X4 	c #314658",
"Y4 	c #324354",
"Z4 	c #303D4B",
"`4 	c #303845",
" 5 	c #2E3646",
".5 	c #404D5D",
"+5 	c #323A4A",
"@5 	c #2F3441",
"#5 	c #2F3645",
"$5 	c #2F3543",
"%5 	c #2F3341",
"&5 	c #2D313F",
"*5 	c #2F3140",
"=5 	c #2E3142",
"-5 	c #2D3142",
";5 	c #2C3140",
">5 	c #2B3142",
",5 	c #2B3145",
"'5 	c #292F44",
")5 	c #292E43",
"!5 	c #262D41",
"~5 	c #242B3F",
"{5 	c #232B40",
"]5 	c #212A40",
"^5 	c #1E273F",
"/5 	c #1C2841",
"(5 	c #222D47",
"_5 	c #1A253C",
":5 	c #15223C",
"<5 	c #0D2039",
"[5 	c #0C2039",
"}5 	c #091E37",
"|5 	c #0B2934",
"15 	c #102C37",
"25 	c #153139",
"35 	c #193339",
"45 	c #1E373B",
"55 	c #253C41",
"65 	c #6D8083",
"75 	c #273E42",
"85 	c #2D4243",
"95 	c #334744",
"05 	c #354947",
"a5 	c #364A47",
"b5 	c #384C48",
"c5 	c #5C6D69",
"d5 	c #455852",
"e5 	c #3C504B",
"f5 	c #3D534E",
"g5 	c #6F817A",
"h5 	c #3D554E",
"i5 	c #3C514A",
"j5 	c #3D524E",
"k5 	c #3B504D",
"l5 	c #39504E",
"m5 	c #384F4D",
"n5 	c #395151",
"o5 	c #365051",
"p5 	c #375257",
"q5 	c #355258",
"r5 	c #34525B",
"s5 	c #304F56",
"t5 	c #2F4A4D",
"u5 	c #2D4648",
"v5 	c #2D4B53",
"w5 	c #3E5F6D",
"x5 	c #2E5163",
"y5 	c #3F6274",
"z5 	c #426983",
"A5 	c #305C75",
"B5 	c #2D556A",
"C5 	c #486D85",
"D5 	c #2C556D",
"E5 	c #385A6C",
"F5 	c #2A4653",
"G5 	c #2A4754",
"H5 	c #2A4857",
"I5 	c #2C4C5A",
"J5 	c #2B4859",
"K5 	c #2C4A5B",
"L5 	c #2C4B5B",
"M5 	c #2F4C5B",
"N5 	c #2C4D5F",
"O5 	c #2D4C60",
"P5 	c #2C495C",
"Q5 	c #2A4859",
"R5 	c #324E5D",
"S5 	c #2B495B",
"T5 	c #2E5065",
"U5 	c #294D65",
"V5 	c #3B607A",
"W5 	c #3A5264",
"X5 	c #294255",
"Y5 	c #2E495F",
"Z5 	c #283F51",
"`5 	c #2B3D4A",
" 6 	c #324353",
".6 	c #405267",
"+6 	c #263B55",
"@6 	c #3C536A",
"#6 	c #25364A",
"$6 	c #27394E",
"%6 	c #29415B",
"&6 	c #4F6A84",
"*6 	c #293B51",
"=6 	c #293B52",
"-6 	c #435A77",
";6 	c #2E4C6E",
">6 	c #2D4460",
",6 	c #2C4258",
"'6 	c #2F465C",
")6 	c #2D4256",
"!6 	c #2D3F52",
"~6 	c #2D4054",
"{6 	c #2C3D4E",
"]6 	c #2B3848",
"^6 	c #2C3744",
"/6 	c #293340",
"(6 	c #2A3240",
"_6 	c #2C3746",
":6 	c #2A3242",
"<6 	c #293040",
"[6 	c #2A3141",
"}6 	c #282F40",
"|6 	c #282E40",
"16 	c #272E41",
"26 	c #282F44",
"36 	c #272F43",
"46 	c #262F44",
"56 	c #242D41",
"66 	c #222B3F",
"76 	c #212940",
"86 	c #1E2940",
"96 	c #1B2740",
"06 	c #192842",
"a6 	c #23324B",
"b6 	c #16243D",
"c6 	c #17243F",
"d6 	c #14223B",
"e6 	c #11223A",
"f6 	c #0E203B",
"g6 	c #0C203A",
"h6 	c #091D38",
"i6 	c #0A2833",
"j6 	c #0F2C37",
"k6 	c #143038",
"l6 	c #193338",
"m6 	c #1C353A",
"n6 	c #223B3F",
"o6 	c #3B5054",
"p6 	c #273E41",
"q6 	c #2C4141",
"r6 	c #2E4342",
"s6 	c #334644",
"t6 	c #344746",
"u6 	c #354A46",
"v6 	c #3E514E",
"w6 	c #394D4A",
"x6 	c #394E49",
"y6 	c #3A4F4B",
"z6 	c #394F4A",
"A6 	c #374E48",
"B6 	c #39514B",
"C6 	c #364C47",
"D6 	c #3C5555",
"E6 	c #395358",
"F6 	c #355051",
"G6 	c #344D4E",
"H6 	c #345055",
"I6 	c #314F54",
"J6 	c #304E52",
"K6 	c #325059",
"L6 	c #31525D",
"M6 	c #3D5F71",
"N6 	c #30576D",
"O6 	c #325466",
"P6 	c #325361",
"Q6 	c #2D505E",
"R6 	c #2C5367",
"S6 	c #2F5973",
"T6 	c #355E7A",
"U6 	c #376886",
"V6 	c #2A5469",
"W6 	c #274B5B",
"X6 	c #3A627B",
"Y6 	c #2B5671",
"Z6 	c #294D5F",
"`6 	c #294C5C",
" 7 	c #37607E",
".7 	c #325E7D",
"+7 	c #284D63",
"@7 	c #274858",
"#7 	c #284859",
"$7 	c #274759",
"%7 	c #29495C",
"&7 	c #2B5167",
"*7 	c #294B61",
"=7 	c #29485F",
"-7 	c #2A4B60",
";7 	c #2F5771",
">7 	c #2A4E66",
",7 	c #284758",
"'7 	c #2F4C5A",
")7 	c #3F5763",
"!7 	c #465D71",
"~7 	c #3C5A70",
"{7 	c #273E4E",
"]7 	c #263F4F",
"^7 	c #243D4C",
"/7 	c #25435C",
"(7 	c #21394E",
"_7 	c #223547",
":7 	c #23394D",
"<7 	c #2A3F55",
"[7 	c #21364C",
"}7 	c #365067",
"|7 	c #294A6B",
"17 	c #25415D",
"27 	c #263F57",
"37 	c #28425C",
"47 	c #284865",
"57 	c #3A5B7A",
"67 	c #304D68",
"77 	c #2B455F",
"87 	c #2B4358",
"97 	c #284257",
"07 	c #2B465D",
"a7 	c #284154",
"b7 	c #283D4F",
"c7 	c #27394B",
"d7 	c #263644",
"e7 	c #2A3C4D",
"f7 	c #364759",
"g7 	c #323D4C",
"h7 	c #273241",
"i7 	c #303A4B",
"j7 	c #293447",
"k7 	c #253043",
"l7 	c #252F40",
"m7 	c #242D3E",
"n7 	c #252E40",
"o7 	c #242D3F",
"p7 	c #242F44",
"q7 	c #212E42",
"r7 	c #202D40",
"s7 	c #1F2C40",
"t7 	c #1D2941",
"u7 	c #1A2740",
"v7 	c #17253F",
"w7 	c #16253E",
"x7 	c #152540",
"y7 	c #26354F",
"z7 	c #10213C",
"A7 	c #12253F",
"B7 	c #1E334F",
"C7 	c #0A203B",
"D7 	c #081E37",
"E7 	c #071C36",
"F7 	c #0F2C36",
"G7 	c #193238",
"H7 	c #20393D",
"I7 	c #233B40",
"J7 	c #263E41",
"K7 	c #293F41",
"L7 	c #4F6161",
"M7 	c #5C6C6D",
"N7 	c #304543",
"O7 	c #334745",
"P7 	c #344847",
"Q7 	c #334948",
"R7 	c #374E4B",
"S7 	c #344B4A",
"T7 	c #364E4C",
"U7 	c #354E4B",
"V7 	c #344D4B",
"W7 	c #375253",
"X7 	c #374F50",
"Y7 	c #314B4C",
"Z7 	c #324F55",
"`7 	c #324F56",
" 8 	c #304E56",
".8 	c #2E4D56",
"+8 	c #2C4D5A",
"@8 	c #2C4C59",
"#8 	c #2C5261",
"$8 	c #315A73",
"%8 	c #295367",
"&8 	c #2F5769",
"*8 	c #295368",
"=8 	c #3D6A85",
"-8 	c #2B5B77",
";8 	c #2A5571",
">8 	c #28536B",
",8 	c #255068",
"'8 	c #3A647F",
")8 	c #315D7C",
"!8 	c #2B546D",
"~8 	c #274C60",
"{8 	c #254D64",
"]8 	c #27506C",
"^8 	c #254A61",
"/8 	c #264B62",
"(8 	c #274F6C",
"_8 	c #254961",
":8 	c #264963",
"<8 	c #28546E",
"[8 	c #294F6B",
"}8 	c #274961",
"|8 	c #264960",
"18 	c #254A60",
"28 	c #24475E",
"38 	c #244457",
"48 	c #254557",
"58 	c #2F4B5B",
"68 	c #395264",
"78 	c #244157",
"88 	c #1F3745",
"98 	c #213F56",
"08 	c #335A7A",
"a8 	c #1E3A50",
"b8 	c #1D3142",
"c8 	c #1F3A4B",
"d8 	c #203A4E",
"e8 	c #314659",
"f8 	c #20364B",
"g8 	c #244864",
"h8 	c #3C6688",
"i8 	c #305A7E",
"j8 	c #2E506E",
"k8 	c #25475F",
"l8 	c #24435C",
"m8 	c #264662",
"n8 	c #254159",
"o8 	c #26425B",
"p8 	c #26465F",
"q8 	c #26455E",
"r8 	c #27455B",
"s8 	c #23394C",
"t8 	c #233849",
"u8 	c #243947",
"v8 	c #233746",
"w8 	c #243A4E",
"x8 	c #2A3E52",
"y8 	c #24374A",
"z8 	c #213040",
"A8 	c #223042",
"B8 	c #26384B",
"C8 	c #223144",
"D8 	c #222F41",
"E8 	c #222E3F",
"F8 	c #212E41",
"G8 	c #212E43",
"H8 	c #1F2D42",
"I8 	c #1F2D44",
"J8 	c #203047",
"K8 	c #1E2D45",
"L8 	c #1C2942",
"M8 	c #1A2940",
"N8 	c #1E2D44",
"O8 	c #182640",
"P8 	c #18273F",
"Q8 	c #13233E",
"R8 	c #13233F",
"S8 	c #0E223B",
"T8 	c #091F3B",
"U8 	c #0A203D",
"V8 	c #081D38",
"W8 	c #071C37",
"X8 	c #0B2833",
"Y8 	c #0E2B36",
"Z8 	c #132F37",
"`8 	c #183137",
" 9 	c #1F383C",
".9 	c #223A3E",
"+9 	c #253D41",
"@9 	c #263F41",
"#9 	c #32494A",
"$9 	c #3B4F4F",
"%9 	c #2E4442",
"&9 	c #2F4545",
"*9 	c #314849",
"=9 	c #334B4E",
"-9 	c #334C50",
";9 	c #334D50",
">9 	c #364F4F",
",9 	c #304B4A",
"'9 	c #314D51",
")9 	c #345259",
"!9 	c #2E4B51",
"~9 	c #34535F",
"{9 	c #375967",
"]9 	c #2B4C57",
"^9 	c #2A4A53",
"/9 	c #2E4F5D",
"(9 	c #2E5160",
"_9 	c #31586D",
":9 	c #315A6F",
"<9 	c #285063",
"[9 	c #2C566D",
"}9 	c #37637C",
"|9 	c #264E5E",
"19 	c #274F62",
"29 	c #28566D",
"39 	c #264E65",
"49 	c #224C61",
"59 	c #22475A",
"69 	c #3E6885",
"79 	c #245575",
"89 	c #2A5773",
"99 	c #2E5B7C",
"09 	c #305F84",
"a9 	c #234C67",
"b9 	c #254C67",
"c9 	c #244961",
"d9 	c #234760",
"e9 	c #275473",
"f9 	c #305F83",
"g9 	c #255172",
"h9 	c #254C66",
"i9 	c #234B65",
"j9 	c #244761",
"k9 	c #23465E",
"l9 	c #244860",
"m9 	c #244A62",
"n9 	c #23485F",
"o9 	c #28465C",
"p9 	c #224359",
"q9 	c #26455A",
"r9 	c #214458",
"s9 	c #23475D",
"t9 	c #223E51",
"u9 	c #2E4F6B",
"v9 	c #244966",
"w9 	c #1C3A4F",
"x9 	c #1E3A4C",
"y9 	c #1C3548",
"z9 	c #1B3343",
"A9 	c #1A354A",
"B9 	c #244764",
"C9 	c #214867",
"D9 	c #3F6380",
"E9 	c #285375",
"F9 	c #224663",
"G9 	c #274D67",
"H9 	c #254761",
"I9 	c #213C53",
"J9 	c #213B52",
"K9 	c #25445E",
"L9 	c #244760",
"M9 	c #264861",
"N9 	c #223D51",
"O9 	c #213A4D",
"P9 	c #203644",
"Q9 	c #213746",
"R9 	c #203643",
"S9 	c #304B65",
"T9 	c #38556E",
"U9 	c #26394C",
"V9 	c #1F2F40",
"W9 	c #203144",
"X9 	c #1F3246",
"Y9 	c #1F3146",
"Z9 	c #1F3044",
"`9 	c #1B2C42",
" 0 	c #25364B",
".0 	c #1B2D47",
"+0 	c #2D3E58",
"@0 	c #1D2F49",
"#0 	c #1D2E45",
"$0 	c #182941",
"%0 	c #192940",
"&0 	c #15243B",
"*0 	c #15243D",
"=0 	c #11213B",
"-0 	c #0D2139",
";0 	c #091F3A",
">0 	c #071F3B",
",0 	c #061E38",
"'0 	c #041C36",
")0 	c #0A2733",
"!0 	c #0D2A35",
"~0 	c #122E36",
"{0 	c #173137",
"]0 	c #1B3439",
"^0 	c #1F373B",
"/0 	c #213A3E",
"(0 	c #233C41",
"_0 	c #284146",
":0 	c #274144",
"<0 	c #2B4447",
"[0 	c #2E4546",
"}0 	c #30484D",
"|0 	c #30494E",
"10 	c #324B51",
"20 	c #304A4F",
"30 	c #365156",
"40 	c #2D494C",
"50 	c #2E4B4E",
"60 	c #37555E",
"70 	c #2F4F5B",
"80 	c #2D4E5A",
"90 	c #2B4B54",
"00 	c #2B4E5A",
"a0 	c #284E5F",
"b0 	c #2D566A",
"c0 	c #2A5468",
"d0 	c #2A5263",
"e0 	c #275368",
"f0 	c #396A86",
"g0 	c #3C708F",
"h0 	c #3C6B84",
"i0 	c #275366",
"j0 	c #265165",
"k0 	c #30586B",
"l0 	c #234857",
"m0 	c #254A5B",
"n0 	c #254C60",
"o0 	c #395F76",
"p0 	c #224C64",
"q0 	c #2C5E7B",
"r0 	c #25516D",
"s0 	c #234C64",
"t0 	c #225477",
"u0 	c #2B618B",
"v0 	c #33698F",
"w0 	c #306085",
"x0 	c #26506F",
"y0 	c #254F6C",
"z0 	c #265575",
"A0 	c #27587F",
"B0 	c #2C5C82",
"C0 	c #224B69",
"D0 	c #224C66",
"E0 	c #26516C",
"F0 	c #23506E",
"G0 	c #204C66",
"H0 	c #214E66",
"I0 	c #22506C",
"J0 	c #204A63",
"K0 	c #204860",
"L0 	c #1E445A",
"M0 	c #1E4053",
"N0 	c #1D3F52",
"O0 	c #21445B",
"P0 	c #24455D",
"Q0 	c #1C3C53",
"R0 	c #1B384C",
"S0 	c #1E3B4F",
"T0 	c #1D384B",
"U0 	c #1B3549",
"V0 	c #1C394A",
"W0 	c #1A374D",
"X0 	c #335D82",
"Y0 	c #204C6F",
"Z0 	c #204862",
"`0 	c #25506A",
" a 	c #254C64",
".a 	c #1F3F56",
"+a 	c #22475E",
"@a 	c #204159",
"#a 	c #1D374C",
"$a 	c #21445A",
"%a 	c #21465F",
"&a 	c #254963",
"*a 	c #244863",
"=a 	c #23425A",
"-a 	c #233F52",
";a 	c #1E3645",
">a 	c #1E3544",
",a 	c #203746",
"'a 	c #28485F",
")a 	c #2A4C66",
"!a 	c #1E3648",
"~a 	c #1D3143",
"{a 	c #1D3042",
"]a 	c #1F344A",
"^a 	c #1E354C",
"/a 	c #1F3248",
"(a 	c #1C3044",
"_a 	c #1E3449",
":a 	c #1D3348",
"<a 	c #1C2F44",
"[a 	c #283B50",
"}a 	c #1A2F49",
"|a 	c #1D304A",
"1a 	c #172A44",
"2a 	c #162842",
"3a 	c #152740",
"4a 	c #13243B",
"5a 	c #11223B",
"6a 	c #10203A",
"7a 	c #0B2038",
"8a 	c #081F3A",
"9a 	c #061E3B",
"0a 	c #051D38",
"aa 	c #041C37",
"ba 	c #0E2A36",
"ca 	c #112D37",
"da 	c #163138",
"ea 	c #19333A",
"fa 	c #1C383D",
"ga 	c #203A3F",
"ha 	c #223D43",
"ia 	c #274149",
"ja 	c #284248",
"ka 	c #2A4347",
"la 	c #294246",
"ma 	c #2B454B",
"na 	c #2E4B52",
"oa 	c #2F4A52",
"pa 	c #2D4A52",
"qa 	c #37535A",
"ra 	c #2C4A51",
"sa 	c #2B4A52",
"ta 	c #335869",
"ua 	c #345565",
"va 	c #2A4E5B",
"wa 	c #285061",
"xa 	c #2D596D",
"ya 	c #2C5E77",
"za 	c #366B87",
"Aa 	c #3A6985",
"Ba 	c #31637E",
"Ca 	c #39647E",
"Da 	c #285D7E",
"Ea 	c #306886",
"Fa 	c #2E6280",
"Ga 	c #234F64",
"Ha 	c #2B5369",
"Ia 	c #295369",
"Ja 	c #234758",
"Ka 	c #234655",
"La 	c #224554",
"Ma 	c #244960",
"Na 	c #23495F",
"Oa 	c #234D64",
"Pa 	c #2B5B7A",
"Qa 	c #225372",
"Ra 	c #34658D",
"Sa 	c #265A7D",
"Ta 	c #25587F",
"Ua 	c #285D86",
"Va 	c #275576",
"Wa 	c #224B68",
"Xa 	c #224C68",
"Ya 	c #235271",
"Za 	c #215172",
"`a 	c #265372",
" b 	c #214E6B",
".b 	c #1F4B66",
"+b 	c #1F4E69",
"@b 	c #265679",
"#b 	c #1C4761",
"$b 	c #1E4A63",
"%b 	c #1B445D",
"&b 	c #1E4861",
"*b 	c #1F4861",
"=b 	c #1E445B",
"-b 	c #1D4359",
";b 	c #1F445B",
">b 	c #1E4560",
",b 	c #1E3F55",
"'b 	c #1A3445",
")b 	c #1A3443",
"!b 	c #1A3243",
"~b 	c #1B3649",
"{b 	c #1D3D52",
"]b 	c #1B415C",
"^b 	c #375E80",
"/b 	c #2F5E82",
"(b 	c #1D4561",
"_b 	c #1E435B",
":b 	c #21465C",
"<b 	c #1E4057",
"[b 	c #20455D",
"}b 	c #1F435C",
"|b 	c #2A4F6D",
"1b 	c #224969",
"2b 	c #1E445D",
"3b 	c #214760",
"4b 	c #20455E",
"5b 	c #24465E",
"6b 	c #223F55",
"7b 	c #1E3D4F",
"8b 	c #1E3C4E",
"9b 	c #1B3848",
"0b 	c #1D3D51",
"ab 	c #33526B",
"bb 	c #1B3B51",
"cb 	c #2D485C",
"db 	c #1C3244",
"eb 	c #1C3246",
"fb 	c #1C3349",
"gb 	c #1C354C",
"hb 	c #1B3248",
"ib 	c #1B3249",
"jb 	c #1B3148",
"kb 	c #1B2F47",
"lb 	c #1B2E47",
"mb 	c #172C42",
"nb 	c #1F334B",
"ob 	c #55667E",
"pb 	c #162945",
"qb 	c #182943",
"rb 	c #13243D",
"sb 	c #13243E",
"tb 	c #0F223D",
"ub 	c #0E223D",
"vb 	c #0C203C",
"wb 	c #0B1F3C",
"xb 	c #0A1F3C",
"yb 	c #0A1F3E",
"zb 	c #112643",
"Ab 	c #051C37",
"Bb 	c #0A2632",
"Cb 	c #0F2B36",
"Db 	c #153038",
"Eb 	c #173239",
"Fb 	c #1A363C",
"Gb 	c #1C3A3F",
"Hb 	c #203D44",
"Ib 	c #334C53",
"Jb 	c #2B464E",
"Kb 	c #27424A",
"Lb 	c #274248",
"Mb 	c #2B464C",
"Nb 	c #2C474E",
"Ob 	c #2D4A55",
"Pb 	c #30505D",
"Qb 	c #2B4B55",
"Rb 	c #2A4C58",
"Sb 	c #2C505E",
"Tb 	c #2D5466",
"Ub 	c #2B5469",
"Vb 	c #2E5B72",
"Wb 	c #456D7F",
"Xb 	c #285972",
"Yb 	c #295E7C",
"Zb 	c #306786",
"`b 	c #286384",
" c 	c #336586",
".c 	c #346887",
"+c 	c #2D678B",
"@c 	c #255C7D",
"#c 	c #245777",
"$c 	c #276284",
"%c 	c #44718E",
"&c 	c #24546E",
"*c 	c #264F67",
"=c 	c #285169",
"-c 	c #21475D",
";c 	c #214557",
">c 	c #244F66",
",c 	c #234B64",
"'c 	c #255471",
")c 	c #245572",
"!c 	c #214F6D",
"~c 	c #204963",
"{c 	c #275D83",
"]c 	c #2D648E",
"^c 	c #204E6D",
"/c 	c #1D435E",
"(c 	c #1E445E",
"_c 	c #214D6C",
":c 	c #245272",
"<c 	c #1D4A66",
"[c 	c #1F4862",
"}c 	c #1D4761",
"|c 	c #1C465F",
"1c 	c #1C455C",
"2c 	c #193D50",
"3c 	c #1A3D50",
"4c 	c #1A3C53",
"5c 	c #1B4058",
"6c 	c #193E55",
"7c 	c #1D455E",
"8c 	c #1B4158",
"9c 	c #1B3E52",
"0c 	c #183746",
"ac 	c #1A3845",
"bc 	c #1A3543",
"cc 	c #1B3B4D",
"dc 	c #1E465F",
"ec 	c #245376",
"fc 	c #28597F",
"gc 	c #1D4969",
"hc 	c #1B445C",
"ic 	c #1A3C4F",
"jc 	c #1F455A",
"kc 	c #20475E",
"lc 	c #28516F",
"mc 	c #224A69",
"nc 	c #295376",
"oc 	c #3C6483",
"pc 	c #1F4663",
"qc 	c #27506E",
"rc 	c #214A65",
"sc 	c #1D3F57",
"tc 	c #1D4055",
"uc 	c #1F4457",
"vc 	c #1C3B4F",
"wc 	c #213D50",
"xc 	c #1C3C4D",
"yc 	c #294E6B",
"zc 	c #1C4159",
"Ac 	c #1C374C",
"Bc 	c #1A3547",
"Cc 	c #284056",
"Dc 	c #203C54",
"Ec 	c #2A445E",
"Fc 	c #1D3852",
"Gc 	c #192F46",
"Hc 	c #192E46",
"Ic 	c #192F48",
"Jc 	c #182B44",
"Kc 	c #1A2E45",
"Lc 	c #192F47",
"Mc 	c #40516B",
"Nc 	c #182D47",
"Oc 	c #152842",
"Pc 	c #142742",
"Qc 	c #12243D",
"Rc 	c #0E213C",
"Sc 	c #0D213C",
"Tc 	c #0B203B",
"Uc 	c #081E3B",
"Vc 	c #081F3D",
"Wc 	c #081E3C",
"Xc 	c #0C2834",
"Yc 	c #0D2935",
"Zc 	c #153039",
"`c 	c #163239",
" d 	c #3E565B",
".d 	c #556A6D",
"+d 	c #1E3D43",
"@d 	c #344E54",
"#d 	c #234047",
"$d 	c #26434B",
"%d 	c #26434C",
"&d 	c #405962",
"*d 	c #2B4D5B",
"=d 	c #365661",
"-d 	c #294E5C",
";d 	c #285163",
">d 	c #3C687C",
",d 	c #29596E",
"'d 	c #275369",
")d 	c #366176",
"!d 	c #346983",
"~d 	c #2C607D",
"{d 	c #275C76",
"]d 	c #275B79",
"^d 	c #3C7191",
"/d 	c #407A9C",
"(d 	c #286285",
"_d 	c #3F799D",
":d 	c #4382A5",
"<d 	c #387193",
"[d 	c #4989AC",
"}d 	c #306D94",
"|d 	c #326485",
"1d 	c #255976",
"2d 	c #2A5876",
"3d 	c #234E68",
"4d 	c #214C65",
"5d 	c #26526F",
"6d 	c #275270",
"7d 	c #224B66",
"8d 	c #224C6A",
"9d 	c #1F445D",
"0d 	c #265C80",
"ad 	c #2F6690",
"bd 	c #265A7C",
"cd 	c #235373",
"dd 	c #1E4C69",
"ed 	c #1C4560",
"fd 	c #1D4966",
"gd 	c #1E4761",
"hd 	c #1A4059",
"id 	c #1B435B",
"jd 	c #1C465D",
"kd 	c #1D475D",
"ld 	c #1C4359",
"md 	c #1B4258",
"nd 	c #1B425D",
"od 	c #1C445D",
"pd 	c #173444",
"qd 	c #162E3B",
"rd 	c #16333D",
"sd 	c #183540",
"td 	c #1B3A4A",
"ud 	c #1F4661",
"vd 	c #2C5879",
"wd 	c #1F4866",
"xd 	c #214967",
"yd 	c #193C52",
"zd 	c #1F4860",
"Ad 	c #275678",
"Bd 	c #1E4D71",
"Cd 	c #3B6482",
"Dd 	c #1B4669",
"Ed 	c #244F75",
"Fd 	c #274F6D",
"Gd 	c #1F4865",
"Hd 	c #234E6A",
"Id 	c #1F4562",
"Jd 	c #20425B",
"Kd 	c #214259",
"Ld 	c #294C5F",
"Md 	c #22455B",
"Nd 	c #304C5F",
"Od 	c #1A4159",
"Pd 	c #335065",
"Qd 	c #1A3A4D",
"Rd 	c #2A485F",
"Sd 	c #29455F",
"Td 	c #1C3D5C",
"Ud 	c #24425D",
"Vd 	c #162B41",
"Wd 	c #182C43",
"Xd 	c #182D46",
"Yd 	c #172E46",
"Zd 	c #172C44",
"`d 	c #192F49",
" e 	c #162E49",
".e 	c #152943",
"+e 	c #152944",
"@e 	c #162943",
"#e 	c #11243E",
"$e 	c #0A1F3B",
"%e 	c #061E3A",
"&e 	c #061D3A",
"*e 	c #051D39",
"=e 	c #041C38",
"-e 	c #0B2733",
";e 	c #0E2A35",
">e 	c #112C38",
",e 	c #153138",
"'e 	c #254048",
")e 	c #385259",
"!e 	c #203E47",
"~e 	c #213F46",
"{e 	c #203E44",
"]e 	c #254249",
"^e 	c #24434B",
"/e 	c #274754",
"(e 	c #264955",
"_e 	c #2B4F5E",
":e 	c #355968",
"<e 	c #2C5A6F",
"[e 	c #325F75",
"}e 	c #3B657A",
"|e 	c #305C70",
"1e 	c #265367",
"2e 	c #26556B",
"3e 	c #2A5F7B",
"4e 	c #477791",
"5e 	c #325D75",
"6e 	c #245065",
"7e 	c #235976",
"8e 	c #396D8C",
"9e 	c #265D7F",
"0e 	c #346E91",
"ae 	c #397EA5",
"be 	c #4684AA",
"ce 	c #2F749E",
"de 	c #2C6F98",
"ee 	c #27638C",
"fe 	c #255D7E",
"ge 	c #2F6386",
"he 	c #2D5D7C",
"ie 	c #235170",
"je 	c #214862",
"ke 	c #25516E",
"le 	c #234D68",
"me 	c #224762",
"ne 	c #245473",
"oe 	c #1F4E6D",
"pe 	c #1E5171",
"qe 	c #204E6E",
"re 	c #1D4864",
"se 	c #1F4B69",
"te 	c #224E6C",
"ue 	c #1F4B6B",
"ve 	c #1D4964",
"we 	c #1E4662",
"xe 	c #1B425E",
"ye 	c #1C455E",
"ze 	c #204660",
"Ae 	c #1C4760",
"Be 	c #1A435B",
"Ce 	c #1A455B",
"De 	c #1A445B",
"Ee 	c #214B67",
"Fe 	c #1C4864",
"Ge 	c #1A4766",
"He 	c #1B4865",
"Ie 	c #19374F",
"Je 	c #142F39",
"Ke 	c #142C38",
"Le 	c #16323F",
"Me 	c #173545",
"Ne 	c #25506D",
"Oe 	c #295677",
"Pe 	c #1B4C6C",
"Qe 	c #1C4763",
"Re 	c #1C4360",
"Se 	c #1E4767",
"Te 	c #1B3D53",
"Ue 	c #173C52",
"Ve 	c #1C4863",
"We 	c #2F5B7D",
"Xe 	c #224F75",
"Ye 	c #3B5C7B",
"Ze 	c #265175",
"`e 	c #2C5373",
" f 	c #205073",
".f 	c #275476",
"+f 	c #224D6B",
"@f 	c #1F4761",
"#f 	c #1C4259",
"$f 	c #1E4C66",
"%f 	c #1B445B",
"&f 	c #1A3B50",
"*f 	c #1B425B",
"=f 	c #1C445E",
"-f 	c #27455A",
";f 	c #1C3B53",
">f 	c #16344B",
",f 	c #213C54",
"'f 	c #17344C",
")f 	c #162D42",
"!f 	c #152F48",
"~f 	c #1A3550",
"{f 	c #142D46",
"]f 	c #233953",
"^f 	c #1C324B",
"/f 	c #172E48",
"(f 	c #152C45",
"_f 	c #122942",
":f 	c #112943",
"<f 	c #182C45",
"[f 	c #0F233D",
"}f 	c #0D233D",
"|f 	c #0C213C",
"1f 	c #081F3B",
"2f 	c #031B37",
"3f 	c #15323A",
"4f 	c #193740",
"5f 	c #38535B",
"6f 	c #223E47",
"7f 	c #1D3B41",
"8f 	c #23414C",
"9f 	c #204048",
"0f 	c #254650",
"af 	c #244753",
"bf 	c #254E5F",
"cf 	c #285569",
"df 	c #275971",
"ef 	c #2A5D75",
"ff 	c #315D71",
"gf 	c #2B586C",
"hf 	c #2F637C",
"if 	c #275E7C",
"jf 	c #336C8A",
"kf 	c #396D8B",
"lf 	c #1F516A",
"mf 	c #224E61",
"nf 	c #204F64",
"of 	c #265975",
"pf 	c #285D7F",
"qf 	c #23668E",
"rf 	c #407EA5",
"sf 	c #4D8DB2",
"tf 	c #5290B7",
"uf 	c #4786B0",
"vf 	c #3B81AC",
"wf 	c #225E83",
"xf 	c #2B6185",
"yf 	c #225474",
"zf 	c #2D5E7F",
"Af 	c #23506D",
"Bf 	c #214C68",
"Cf 	c #1F4A65",
"Df 	c #1E5174",
"Ef 	c #2B638A",
"Ff 	c #204D71",
"Gf 	c #1A445E",
"Hf 	c #1A4058",
"If 	c #2B5677",
"Jf 	c #19415D",
"Kf 	c #1B4057",
"Lf 	c #1A4157",
"Mf 	c #1A3D51",
"Nf 	c #183C51",
"Of 	c #183E53",
"Pf 	c #1A4056",
"Qf 	c #193E54",
"Rf 	c #184056",
"Sf 	c #194561",
"Tf 	c #1F4C6C",
"Uf 	c #1C4967",
"Vf 	c #1E4F6F",
"Wf 	c #1C4764",
"Xf 	c #142F41",
"Yf 	c #152A37",
"Zf 	c #152F3C",
"`f 	c #153341",
" g 	c #1A455E",
".g 	c #1F4C67",
"+g 	c #2D6386",
"@g 	c #28587B",
"#g 	c #1D496B",
"$g 	c #1B4866",
"%g 	c #173B52",
"&g 	c #153143",
"*g 	c #1D4A6D",
"=g 	c #25506F",
"-g 	c #1A4160",
";g 	c #305678",
">g 	c #2B587A",
",g 	c #2E5E82",
"'g 	c #2C5E86",
")g 	c #325D82",
"!g 	c #335871",
"~g 	c #3D6785",
"{g 	c #1D506E",
"]g 	c #2A5268",
"^g 	c #315870",
"/g 	c #1E455F",
"(g 	c #18384B",
"_g 	c #183444",
":g 	c #162F41",
"<g 	c #162B3D",
"[g 	c #152C40",
"}g 	c #152D43",
"|g 	c #26415C",
"1g 	c #2C4A64",
"2g 	c #213E59",
"3g 	c #243C59",
"4g 	c #142C47",
"5g 	c #142C46",
"6g 	c #112942",
"7g 	c #162C45",
"8g 	c #192D45",
"9g 	c #112740",
"0g 	c #0E243C",
"ag 	c #0F243F",
"bg 	c #0B213C",
"cg 	c #08203B",
"dg 	c #071E3A",
"eg 	c #041E39",
"fg 	c #041D37",
"gg 	c #0B2633",
"hg 	c #122F39",
"ig 	c #15313B",
"jg 	c #17353D",
"kg 	c #15353D",
"lg 	c #1D3A43",
"mg 	c #1B3840",
"ng 	c #203D46",
"og 	c #2D4956",
"pg 	c #1F3E48",
"qg 	c #20424B",
"rg 	c #284D5B",
"sg 	c #2E5C71",
"tg 	c #295D75",
"ug 	c #24556C",
"vg 	c #265669",
"wg 	c #225160",
"xg 	c #23586D",
"yg 	c #2B6683",
"zg 	c #28617F",
"Ag 	c #2B5C78",
"Bg 	c #205268",
"Cg 	c #235067",
"Dg 	c #224F67",
"Eg 	c #235572",
"Fg 	c #246488",
"Gg 	c #5094B9",
"Hg 	c #29719D",
"Ig 	c #3B85B0",
"Jg 	c #3B87B2",
"Kg 	c #307FB0",
"Lg 	c #3E87B5",
"Mg 	c #20577A",
"Ng 	c #255576",
"Og 	c #24516E",
"Pg 	c #23506F",
"Qg 	c #234E69",
"Rg 	c #25536D",
"Sg 	c #24506C",
"Tg 	c #22516F",
"Ug 	c #205173",
"Vg 	c #2A5F80",
"Wg 	c #204C6D",
"Xg 	c #1A3C50",
"Yg 	c #19384A",
"Zg 	c #1A415A",
"`g 	c #2D5672",
" h 	c #1B445E",
".h 	c #193B4E",
"+h 	c #173B51",
"@h 	c #20445B",
"#h 	c #183A4E",
"$h 	c #16384B",
"%h 	c #173648",
"&h 	c #163548",
"*h 	c #17384D",
"=h 	c #1D4B67",
"-h 	c #285D80",
";h 	c #265572",
">h 	c #1B4969",
",h 	c #163A50",
"'h 	c #132D3B",
")h 	c #122734",
"!h 	c #1C3647",
"~h 	c #1A3F55",
"{h 	c #1A4762",
"]h 	c #1C4C6C",
"^h 	c #1E4B6D",
"/h 	c #1E4C6C",
"(h 	c #163851",
"_h 	c #142E40",
":h 	c #193A4F",
"<h 	c #1C455F",
"[h 	c #1E4660",
"}h 	c #2C5574",
"|h 	c #244B69",
"1h 	c #245173",
"2h 	c #224D6F",
"3h 	c #254F6F",
"4h 	c #1B4256",
"5h 	c #2A526A",
"6h 	c #305975",
"7h 	c #1C4A62",
"8h 	c #1B465E",
"9h 	c #163446",
"0h 	c #142E3F",
"ah 	c #152E41",
"bh 	c #1D3B53",
"ch 	c #264461",
"dh 	c #143552",
"eh 	c #14304B",
"fh 	c #203854",
"gh 	c #132C45",
"hh 	c #18324C",
"ih 	c #132C48",
"jh 	c #122A42",
"kh 	c #10273F",
"lh 	c #102741",
"mh 	c #0D243E",
"nh 	c #112641",
"oh 	c #0A233E",
"ph 	c #08213C",
"qh 	c #051E3A",
"rh 	c #041D38",
"sh 	c #011B36",
"th 	c #092532",
"uh 	c #0E2B37",
"vh 	c #112E39",
"wh 	c #14323B",
"xh 	c #16343B",
"yh 	c #4C666B",
"zh 	c #193942",
"Ah 	c #213E4B",
"Bh 	c #1D3C47",
"Ch 	c #24434F",
"Dh 	c #1C3F4C",
"Eh 	c #244651",
"Fh 	c #214959",
"Gh 	c #245368",
"Hh 	c #265A70",
"Ih 	c #285D74",
"Jh 	c #2A5B70",
"Kh 	c #225466",
"Lh 	c #316983",
"Mh 	c #266082",
"Nh 	c #255C78",
"Oh 	c #255A77",
"Ph 	c #225572",
"Qh 	c #275A77",
"Rh 	c #245775",
"Sh 	c #266084",
"Th 	c #3477A1",
"Uh 	c #4A92B8",
"Vh 	c #2D77A4",
"Wh 	c #5A96BD",
"Xh 	c #3C8FBE",
"Yh 	c #398AB9",
"Zh 	c #2F75A1",
"`h 	c #205579",
" i 	c #215072",
".i 	c #234F6F",
"+i 	c #25526D",
"@i 	c #22526F",
"#i 	c #204C67",
"$i 	c #204A67",
"%i 	c #245372",
"&i 	c #204F70",
"*i 	c #214B6A",
"=i 	c #1A3E54",
"-i 	c #1A3E53",
";i 	c #1E455D",
">i 	c #193D54",
",i 	c #18394C",
"'i 	c #173747",
")i 	c #1B384A",
"!i 	c #1B394D",
"~i 	c #18384A",
"{i 	c #1B3C4E",
"]i 	c #193C4F",
"^i 	c #193A4C",
"/i 	c #193849",
"(i 	c #173343",
"_i 	c #173A4E",
":i 	c #1A405C",
"<i 	c #20506D",
"[i 	c #1A4A6A",
"}i 	c #1A4968",
"|i 	c #1A445F",
"1i 	c #122832",
"2i 	c #112834",
"3i 	c #132D3C",
"4i 	c #163547",
"5i 	c #163950",
"6i 	c #1A425C",
"7i 	c #194766",
"8i 	c #174061",
"9i 	c #163750",
"0i 	c #16354A",
"ai 	c #163247",
"bi 	c #183B52",
"ci 	c #1C3F57",
"di 	c #1D435D",
"ei 	c #214A68",
"fi 	c #224D6A",
"gi 	c #214561",
"hi 	c #255473",
"ii 	c #204967",
"ji 	c #1D4054",
"ki 	c #1B3F52",
"li 	c #1C4151",
"mi 	c #1C4559",
"ni 	c #1F485D",
"oi 	c #1C435A",
"pi 	c #1C4053",
"qi 	c #17394C",
"ri 	c #24465D",
"si 	c #2D4D62",
"ti 	c #143147",
"ui 	c #1C3D57",
"vi 	c #34536B",
"wi 	c #163550",
"xi 	c #17354F",
"yi 	c #153048",
"zi 	c #142F48",
"Ai 	c #132E4A",
"Bi 	c #1F3652",
"Ci 	c #0F2740",
"Di 	c #0F253E",
"Ei 	c #0E2641",
"Fi 	c #162B44",
"Gi 	c #0D2540",
"Hi 	c #102742",
"Ii 	c #0E243E",
"Ji 	c #061E39",
"Ki 	c #071F3A",
"Li 	c #021D37",
"Mi 	c #021C37",
"Ni 	c #102C38",
"Oi 	c #112F3B",
"Pi 	c #13313C",
"Qi 	c #153440",
"Ri 	c #1D3A46",
"Si 	c #1C3C4A",
"Ti 	c #1D3F4F",
"Ui 	c #1C3E4D",
"Vi 	c #29495A",
"Wi 	c #1D4152",
"Xi 	c #2A4D5B",
"Yi 	c #214856",
"Zi 	c #245267",
"`i 	c #2B5C73",
" j 	c #35687B",
".j 	c #295D73",
"+j 	c #24546B",
"@j 	c #255F7B",
"#j 	c #2B6A8B",
"$j 	c #275F81",
"%j 	c #2C6788",
"&j 	c #286083",
"*j 	c #3A6A8A",
"=j 	c #225A7C",
"-j 	c #316686",
";j 	c #29678D",
">j 	c #3982AB",
",j 	c #458EB9",
"'j 	c #2778A8",
")j 	c #3D96C6",
"!j 	c #3C93C6",
"~j 	c #3D90BD",
"{j 	c #2A75A4",
"]j 	c #3272A0",
"^j 	c #295F86",
"/j 	c #235376",
"(j 	c #224F6B",
"_j 	c #21526F",
":j 	c #225573",
"<j 	c #205377",
"[j 	c #275980",
"}j 	c #1F5077",
"|j 	c #235072",
"1j 	c #1D4A67",
"2j 	c #1E4A68",
"3j 	c #1F4B6A",
"4j 	c #295472",
"5j 	c #1C4A6B",
"6j 	c #254E6A",
"7j 	c #1A415B",
"8j 	c #1D435B",
"9j 	c #1E4964",
"0j 	c #1A3E52",
"aj 	c #193545",
"bj 	c #163344",
"cj 	c #17374A",
"dj 	c #1D4863",
"ej 	c #215475",
"fj 	c #1A4258",
"gj 	c #142F3E",
"hj 	c #122731",
"ij 	c #132A36",
"jj 	c #18374B",
"kj 	c #1D425B",
"lj 	c #163C52",
"mj 	c #153D56",
"nj 	c #174464",
"oj 	c #1B3E59",
"pj 	c #163346",
"qj 	c #162F40",
"rj 	c #19374B",
"sj 	c #1E3F59",
"tj 	c #224D6E",
"uj 	c #224E6D",
"vj 	c #235270",
"wj 	c #235371",
"xj 	c #1E425D",
"yj 	c #1B3C51",
"zj 	c #1B4154",
"Aj 	c #1C4355",
"Bj 	c #1A4254",
"Cj 	c #1D485E",
"Dj 	c #214D66",
"Ej 	c #1F4E67",
"Fj 	c #1F4D65",
"Gj 	c #183F56",
"Hj 	c #244B64",
"Ij 	c #2A516C",
"Jj 	c #14354C",
"Kj 	c #15354A",
"Lj 	c #13324A",
"Mj 	c #14324B",
"Nj 	c #14324C",
"Oj 	c #112E46",
"Pj 	c #122D45",
"Qj 	c #16314C",
"Rj 	c #122C46",
"Sj 	c #0C233C",
"Tj 	c #0F2942",
"Uj 	c #152D47",
"Vj 	c #112B46",
"Wj 	c #112A45",
"Xj 	c #09213B",
"Yj 	c #07203A",
"Zj 	c #041D39",
"`j 	c #122E3B",
" k 	c #13303E",
".k 	c #163541",
"+k 	c #193A47",
"@k 	c #1A3947",
"#k 	c #183B49",
"$k 	c #1A3F4F",
"%k 	c #24495C",
"&k 	c #1F4659",
"*k 	c #1D4355",
"=k 	c #1D4352",
"-k 	c #204856",
";k 	c #2D5F74",
">k 	c #4F7D8E",
",k 	c #628B96",
"'k 	c #2F5F70",
")k 	c #21566C",
"!k 	c #2A6382",
"~k 	c #2F6B8C",
"{k 	c #265C7C",
"]k 	c #326B8E",
"^k 	c #34749B",
"/k 	c #1F5270",
"(k 	c #205271",
"_k 	c #307096",
":k 	c #3F82A7",
"<k 	c #4181A8",
"[k 	c #4190BA",
"}k 	c #368CC0",
"|k 	c #4293C6",
"1k 	c #2A7AAC",
"2k 	c #4394C1",
"3k 	c #2B76A7",
"4k 	c #205B85",
"5k 	c #215578",
"6k 	c #204F6A",
"7k 	c #1F4B67",
"8k 	c #235473",
"9k 	c #205270",
"0k 	c #245679",
"ak 	c #225679",
"bk 	c #235070",
"ck 	c #1E4763",
"dk 	c #1C4664",
"ek 	c #265270",
"fk 	c #1D4A68",
"gk 	c #1C4661",
"hk 	c #1B425A",
"ik 	c #1A4057",
"jk 	c #1A4561",
"kk 	c #215070",
"lk 	c #2A5675",
"mk 	c #1A4562",
"nk 	c #1B3F57",
"ok 	c #18394A",
"pk 	c #173B4E",
"qk 	c #1D4056",
"rk 	c #163C53",
"sk 	c #17435F",
"tk 	c #1F5170",
"uk 	c #1E4B67",
"vk 	c #163649",
"wk 	c #132D39",
"xk 	c #1A384C",
"yk 	c #193E56",
"zk 	c #173E59",
"Ak 	c #225073",
"Bk 	c #163A55",
"Ck 	c #163245",
"Dk 	c #152E3C",
"Ek 	c #193547",
"Fk 	c #1D3E56",
"Gk 	c #1E4663",
"Hk 	c #224F6D",
"Ik 	c #235071",
"Jk 	c #204D69",
"Kk 	c #1E4458",
"Lk 	c #1D3E53",
"Mk 	c #1D3E52",
"Nk 	c #274B62",
"Ok 	c #1C475B",
"Pk 	c #1F4A60",
"Qk 	c #225878",
"Rk 	c #356887",
"Sk 	c #23597A",
"Tk 	c #2E5B77",
"Uk 	c #184763",
"Vk 	c #174259",
"Wk 	c #1C4056",
"Xk 	c #304C62",
"Yk 	c #123048",
"Zk 	c #123754",
"`k 	c #213F5D",
" l 	c #1B3651",
".l 	c #102A43",
"+l 	c #112C45",
"@l 	c #112B45",
"#l 	c #112C47",
"$l 	c #0F2A46",
"%l 	c #18304B",
"&l 	c #0B2541",
"*l 	c #0B2540",
"=l 	c #061F3A",
"-l 	c #051E39",
";l 	c #031D38",
">l 	c #082531",
",l 	c #0B2835",
"'l 	c #0E2B38",
")l 	c #122F3C",
"!l 	c #193A49",
"~l 	c #173847",
"{l 	c #193C4C",
"]l 	c #254B5F",
"^l 	c #1E4B62",
"/l 	c #1F4C62",
"(l 	c #1E4B5D",
"_l 	c #1C4451",
":l 	c #1E495D",
"<l 	c #2A596F",
"[l 	c #3D6A79",
"}l 	c #5A838F",
"|l 	c #2B5D74",
"1l 	c #225F80",
"2l 	c #306C8D",
"3l 	c #2D617E",
"4l 	c #22536B",
"5l 	c #225877",
"6l 	c #3E7496",
"7l 	c #226188",
"8l 	c #366887",
"9l 	c #215676",
"0l 	c #2A6A92",
"al 	c #367AA2",
"bl 	c #337CA7",
"cl 	c #3E86B3",
"dl 	c #418EBC",
"el 	c #3F8DBB",
"fl 	c #4092BF",
"gl 	c #3382B3",
"hl 	c #3284B4",
"il 	c #3377A2",
"jl 	c #205375",
"kl 	c #204C69",
"ll 	c #235478",
"ml 	c #2E6289",
"nl 	c #235578",
"ol 	c #225271",
"pl 	c #1E4D68",
"ql 	c #1E4960",
"rl 	c #1E475F",
"sl 	c #204661",
"tl 	c #1D435A",
"ul 	c #1B4055",
"vl 	c #193D51",
"wl 	c #1A3E57",
"xl 	c #1E435D",
"yl 	c #1B3F58",
"zl 	c #1B3E57",
"Al 	c #214660",
"Bl 	c #1B4764",
"Cl 	c #17394F",
"Dl 	c #193C51",
"El 	c #1B3B50",
"Fl 	c #173B4F",
"Gl 	c #17384E",
"Hl 	c #24516F",
"Il 	c #173C50",
"Jl 	c #153240",
"Kl 	c #112A37",
"Ll 	c #122D3D",
"Ml 	c #163B54",
"Nl 	c #143B56",
"Ol 	c #1C4561",
"Pl 	c #225173",
"Ql 	c #19405E",
"Rl 	c #173A53",
"Sl 	c #1A374C",
"Tl 	c #1E425C",
"Ul 	c #214D6B",
"Vl 	c #224B6D",
"Wl 	c #1F4864",
"Xl 	c #1F445C",
"Yl 	c #1C4054",
"Zl 	c #1E4055",
"`l 	c #1D4458",
" m 	c #1B4157",
".m 	c #305E7C",
"+m 	c #295570",
"@m 	c #1E4961",
"#m 	c #215470",
"$m 	c #1F5776",
"%m 	c #275C7A",
"&m 	c #205879",
"*m 	c #27516A",
"=m 	c #194055",
"-m 	c #173D53",
";m 	c #1B3C54",
">m 	c #112E42",
",m 	c #2F4C67",
"'m 	c #284765",
")m 	c #112F49",
"!m 	c #122E46",
"~m 	c #122E4A",
"{m 	c #143250",
"]m 	c #102C49",
"^m 	c #0F2B47",
"/m 	c #0E2A47",
"(m 	c #0C2642",
"_m 	c #0A243F",
":m 	c #0A223E",
"<m 	c #09223D",
"[m 	c #0C2633",
"}m 	c #1E3642",
"|m 	c #1E3542",
"1m 	c #0F2C39",
"2m 	c #14313E",
"3m 	c #183848",
"4m 	c #1E4457",
"5m 	c #1B465C",
"6m 	c #265167",
"7m 	c #28546D",
"8m 	c #1E485B",
"9m 	c #1F4455",
"0m 	c #2A4E63",
"am 	c #1E495E",
"bm 	c #1D495C",
"cm 	c #2D6282",
"dm 	c #377294",
"em 	c #235675",
"fm 	c #23546B",
"gm 	c #1F4C61",
"hm 	c #1E4E64",
"im 	c #255977",
"jm 	c #22597C",
"km 	c #3E7293",
"lm 	c #245C7E",
"mm 	c #32759C",
"nm 	c #38789F",
"om 	c #2C78A3",
"pm 	c #3283B1",
"qm 	c #3181B0",
"rm 	c #2677A8",
"sm 	c #287CAE",
"tm 	c #2E7DAC",
"um 	c #3986B3",
"vm 	c #21628D",
"wm 	c #235678",
"xm 	c #1D4F6F",
"ym 	c #1E4B69",
"zm 	c #215272",
"Am 	c #2B5D7D",
"Bm 	c #285776",
"Cm 	c #1E4C67",
"Dm 	c #1E4A65",
"Em 	c #1E4C63",
"Fm 	c #1E4B68",
"Gm 	c #204D6A",
"Hm 	c #1D4967",
"Im 	c #214B68",
"Jm 	c #1C4660",
"Km 	c #194059",
"Lm 	c #173A4F",
"Mm 	c #18394F",
"Nm 	c #17364D",
"Om 	c #203F57",
"Pm 	c #163951",
"Qm 	c #193B4F",
"Rm 	c #183445",
"Sm 	c #183B4D",
"Tm 	c #18394D",
"Um 	c #173A4D",
"Vm 	c #19425B",
"Wm 	c #133340",
"Xm 	c #153242",
"Ym 	c #122937",
"Zm 	c #16354B",
"`m 	c #244A66",
" n 	c #1E4865",
".n 	c #17415D",
"+n 	c #19456A",
"@n 	c #245072",
"#n 	c #1A3A4E",
"$n 	c #1B3E55",
"%n 	c #234E6B",
"&n 	c #235475",
"*n 	c #255476",
"=n 	c #1F4967",
"-n 	c #234F6D",
";n 	c #1F435B",
">n 	c #1C3E53",
",n 	c #1C455D",
"'n 	c #255677",
")n 	c #335F7B",
"!n 	c #214C64",
"~n 	c #1F4E63",
"{n 	c #245874",
"]n 	c #225D81",
"^n 	c #3A6483",
"/n 	c #1B455D",
"(n 	c #153546",
"_n 	c #143145",
":n 	c #132F42",
"<n 	c #193850",
"[n 	c #12324C",
"}n 	c #213A51",
"|n 	c #1A3854",
"1n 	c #113452",
"2n 	c #2C4A65",
"3n 	c #294763",
"4n 	c #103251",
"5n 	c #1C3550",
"6n 	c #0B2842",
"7n 	c #0F2943",
"8n 	c #09233F",
"9n 	c #07203C",
"0n 	c #061F3B",
"an 	c #031C37",
"bn 	c #021C38",
"cn 	c #082431",
"dn 	c #0E2834",
"en 	c #0E2936",
"fn 	c #0F2B39",
"gn 	c #112F3D",
"hn 	c #123342",
"in 	c #163C4D",
"jn 	c #184156",
"kn 	c #1F4961",
"ln 	c #1D4A61",
"mn 	c #315868",
"nn 	c #1D4960",
"on 	c #2D556C",
"pn 	c #1E4B61",
"qn 	c #275871",
"rn 	c #2D6180",
"sn 	c #1F5572",
"tn 	c #235875",
"un 	c #1F5069",
"vn 	c #1F4B62",
"wn 	c #1F4A5E",
"xn 	c #1F4C5F",
"yn 	c #204E68",
"zn 	c #1E4E6A",
"An 	c #1A4B66",
"Bn 	c #2F688B",
"Cn 	c #23658C",
"Dn 	c #266D95",
"En 	c #418AB2",
"Fn 	c #4091BF",
"Gn 	c #4AA0CF",
"Hn 	c #3F91C0",
"In 	c #3787B5",
"Jn 	c #21618B",
"Kn 	c #2B6B94",
"Ln 	c #27658B",
"Mn 	c #2A6282",
"Nn 	c #255E83",
"On 	c #1D5375",
"Pn 	c #1C4C6A",
"Qn 	c #1D4C6A",
"Rn 	c #1D4D6E",
"Sn 	c #1E4F72",
"Tn 	c #295877",
"Un 	c #1B4763",
"Vn 	c #193F57",
"Wn 	c #18374A",
"Xn 	c #173345",
"Yn 	c #163345",
"Zn 	c #153243",
"`n 	c #153141",
" o 	c #15303D",
".o 	c #15303F",
"+o 	c #153142",
"@o 	c #153444",
"#o 	c #18374C",
"$o 	c #183B51",
"%o 	c #16364A",
"&o 	c #163A4E",
"*o 	c #173C54",
"=o 	c #143243",
"-o 	c #203B4D",
";o 	c #132E3E",
">o 	c #163A54",
",o 	c #1E425B",
"'o 	c #1B415E",
")o 	c #254D6A",
"!o 	c #255478",
"~o 	c #1D415C",
"{o 	c #215071",
"]o 	c #225171",
"^o 	c #2C5E84",
"/o 	c #295B7E",
"(o 	c #214860",
"_o 	c #1B3E54",
":o 	c #1D4258",
"<o 	c #1B4254",
"[o 	c #214A5F",
"}o 	c #1D4356",
"|o 	c #1D475A",
"1o 	c #255D7A",
"2o 	c #326282",
"3o 	c #20526F",
"4o 	c #1B475F",
"5o 	c #1A4055",
"6o 	c #133347",
"7o 	c #133144",
"8o 	c #15344A",
"9o 	c #123248",
"0o 	c #13344C",
"ao 	c #2F4B63",
"bo 	c #10334F",
"co 	c #193755",
"do 	c #1C3B5A",
"eo 	c #0F304E",
"fo 	c #0B2B47",
"go 	c #092542",
"ho 	c #0B2440",
"io 	c #0C213D",
"jo 	c #031C39",
"ko 	c #021A38",
"lo 	c #031C3A",
"mo 	c #0A2431",
"no 	c #0B2533",
"oo 	c #102A36",
"po 	c #0D2B39",
"qo 	c #163343",
"ro 	c #153B4E",
"so 	c #173D51",
"to 	c #1B4459",
"uo 	c #1B485D",
"vo 	c #1A495E",
"wo 	c #305E7A",
"xo 	c #255C7B",
"yo 	c #295B76",
"zo 	c #1E5473",
"Ao 	c #22536D",
"Bo 	c #204F68",
"Co 	c #245470",
"Do 	c #225168",
"Eo 	c #204B5F",
"Fo 	c #1D4659",
"Go 	c #1A465A",
"Ho 	c #224E64",
"Io 	c #19465C",
"Jo 	c #315771",
"Ko 	c #285E81",
"Lo 	c #2C6890",
"Mo 	c #286A92",
"No 	c #2A749E",
"Oo 	c #2371A3",
"Po 	c #3180B0",
"Qo 	c #2C79A6",
"Ro 	c #368BB8",
"So 	c #479CCA",
"To 	c #3B8DBC",
"Uo 	c #2F76A3",
"Vo 	c #276C96",
"Wo 	c #3279A3",
"Xo 	c #276C93",
"Yo 	c #29688D",
"Zo 	c #286288",
"`o 	c #1B4C6B",
" p 	c #1D425D",
".p 	c #193C55",
"+p 	c #1D4257",
"@p 	c #142E3E",
"#p 	c #152F40",
"$p 	c #122E3F",
"%p 	c #152F42",
"&p 	c #142D3D",
"*p 	c #122A39",
"=p 	c #102836",
"-p 	c #112837",
";p 	c #112936",
">p 	c #152F3F",
",p 	c #133141",
"'p 	c #173344",
")p 	c #153144",
"!p 	c #183A50",
"~p 	c #193D55",
"{p 	c #153644",
"]p 	c #15394F",
"^p 	c #143446",
"/p 	c #143346",
"(p 	c #142D3C",
"_p 	c #16374C",
":p 	c #133040",
"<p 	c #15374D",
"[p 	c #1A405B",
"}p 	c #1B4364",
"|p 	c #1D415B",
"1p 	c #244C6A",
"2p 	c #224F6F",
"3p 	c #204764",
"4p 	c #23516E",
"5p 	c #224F6A",
"6p 	c #234E66",
"7p 	c #1E4259",
"8p 	c #1E4760",
"9p 	c #1D455C",
"0p 	c #1B4255",
"ap 	c #234E65",
"bp 	c #1C4C65",
"cp 	c #1E5471",
"dp 	c #215571",
"ep 	c #1E506D",
"fp 	c #275B78",
"gp 	c #295671",
"hp 	c #244962",
"ip 	c #18364A",
"jp 	c #122F41",
"kp 	c #123042",
"lp 	c #122E43",
"mp 	c #143750",
"np 	c #143A55",
"op 	c #153650",
"pp 	c #10304A",
"qp 	c #102F4A",
"rp 	c #213B55",
"sp 	c #0E2F4D",
"tp 	c #0A2B47",
"up 	c #0B2A47",
"vp 	c #0A2340",
"wp 	c #031C38",
"xp 	c #041E3B",
"yp 	c #0A2432",
"zp 	c #0C2634",
"Ap 	c #0D2836",
"Bp 	c #0E2B3A",
"Cp 	c #183545",
"Dp 	c #15384A",
"Ep 	c #1A3F52",
"Fp 	c #14394C",
"Gp 	c #193F53",
"Hp 	c #22485D",
"Ip 	c #214C62",
"Jp 	c #1E4D64",
"Kp 	c #295A76",
"Lp 	c #316381",
"Mp 	c #1E5372",
"Np 	c #23526E",
"Op 	c #245773",
"Pp 	c #1F536E",
"Qp 	c #1F4E68",
"Rp 	c #1D475C",
"Sp 	c #224C5F",
"Tp 	c #224B62",
"Up 	c #1F475C",
"Vp 	c #1A4053",
"Wp 	c #1D4D69",
"Xp 	c #225B80",
"Yp 	c #3178A2",
"Zp 	c #3883B1",
"`p 	c #307EAA",
" q 	c #2B7CAA",
".q 	c #338BBD",
"+q 	c #3694C8",
"@q 	c #4298C8",
"#q 	c #2E7FAB",
"$q 	c #367FAC",
"%q 	c #246994",
"&q 	c #29678F",
"*q 	c #2C6B8F",
"=q 	c #255D81",
"-q 	c #193B53",
";q 	c #1E3E56",
">q 	c #16384D",
",q 	c #132C3B",
"'q 	c #122B3C",
")q 	c #112C3D",
"!q 	c #162F3E",
"~q 	c #112634",
"{q 	c #112635",
"]q 	c #0F2532",
"^q 	c #102633",
"/q 	c #102432",
"(q 	c #0F2432",
"_q 	c #102433",
":q 	c #0F2533",
"<q 	c #1A3448",
"[q 	c #173445",
"}q 	c #193D53",
"|q 	c #1C4157",
"1q 	c #153345",
"2q 	c #18445E",
"3q 	c #143D53",
"4q 	c #19394B",
"5q 	c #132C3A",
"6q 	c #122E42",
"7q 	c #15354B",
"8q 	c #1E415A",
"9q 	c #224C6C",
"0q 	c #235175",
"aq 	c #1F4D6B",
"bq 	c #1F4259",
"cq 	c #224963",
"dq 	c #265678",
"eq 	c #224C6B",
"fq 	c #204562",
"gq 	c #234762",
"hq 	c #1D4154",
"iq 	c #22516B",
"jq 	c #335D75",
"kq 	c #2D5F79",
"lq 	c #285D7D",
"mq 	c #336A8F",
"nq 	c #1F5674",
"oq 	c #295B78",
"pq 	c #22516A",
"qq 	c #163B51",
"rq 	c #153446",
"sq 	c #153445",
"tq 	c #112E41",
"uq 	c #123954",
"vq 	c #395975",
"wq 	c #204766",
"xq 	c #153855",
"yq 	c #13334E",
"zq 	c #0C2D47",
"Aq 	c #0B2D4B",
"Bq 	c #2A425B",
"Cq 	c #102D4A",
"Dq 	c #082541",
"Eq 	c #041D3A",
"Fq 	c #021B39",
"Gq 	c #031B39",
"Hq 	c #092330",
"Iq 	c #0B2532",
"Jq 	c #0D2735",
"Kq 	c #0D2A38",
"Lq 	c #102E3E",
"Mq 	c #133343",
"Nq 	c #153747",
"Oq 	c #173E4F",
"Pq 	c #163E51",
"Qq 	c #1A4459",
"Rq 	c #1F536D",
"Sq 	c #2C617D",
"Tq 	c #215775",
"Uq 	c #1E4F67",
"Vq 	c #235975",
"Wq 	c #235570",
"Xq 	c #1B465D",
"Yq 	c #1C495E",
"Zq 	c #1A485E",
"`q 	c #1E4A61",
" r 	c #1A4156",
".r 	c #193D4E",
"+r 	c #173948",
"@r 	c #193947",
"#r 	c #1D445C",
"$r 	c #1F5678",
"%r 	c #25668F",
"&r 	c #307CAC",
"*r 	c #2E81AF",
"=r 	c #3D8EB9",
"-r 	c #4A9FCD",
";r 	c #388FC2",
">r 	c #337EAC",
",r 	c #3279A2",
"'r 	c #26668D",
")r 	c #1F5376",
"!r 	c #1A567B",
"~r 	c #306A8E",
"{r 	c #235370",
"]r 	c #163A52",
"^r 	c #1C425B",
"/r 	c #183951",
"(r 	c #132F3E",
"_r 	c #112A38",
":r 	c #122B3D",
"<r 	c #1A3446",
"[r 	c #0F2837",
"}r 	c #0F2331",
"|r 	c #142634",
"1r 	c #0D202C",
"2r 	c #0C1C27",
"3r 	c #0B1B26",
"4r 	c #0B1B25",
"5r 	c #0B1A23",
"6r 	c #0A1A24",
"7r 	c #0C1D28",
"8r 	c #0F202C",
"9r 	c #0D1F2B",
"0r 	c #0F2330",
"ar 	c #112A3A",
"br 	c #122E40",
"cr 	c #122F42",
"dr 	c #16364D",
"er 	c #16394F",
"fr 	c #13364A",
"gr 	c #224E6A",
"hr 	c #112D3C",
"ir 	c #153040",
"jr 	c #1B3C53",
"kr 	c #112836",
"lr 	c #17344A",
"mr 	c #1C4058",
"nr 	c #27557A",
"or 	c #2E5C7D",
"pr 	c #204962",
"qr 	c #214864",
"rr 	c #2E6288",
"sr 	c #2F678D",
"tr 	c #325873",
"ur 	c #1D3F54",
"vr 	c #1E4962",
"wr 	c #386584",
"xr 	c #27576F",
"yr 	c #22536C",
"zr 	c #275B76",
"Ar 	c #2D617D",
"Br 	c #21536C",
"Cr 	c #20506A",
"Dr 	c #1F4F67",
"Er 	c #1C465B",
"Fr 	c #183C4E",
"Gr 	c #16394B",
"Hr 	c #14374E",
"Ir 	c #154060",
"Jr 	c #123E60",
"Kr 	c #1E4160",
"Lr 	c #0F314C",
"Mr 	c #234059",
"Nr 	c #0F314F",
"Or 	c #0E2E4C",
"Pr 	c #0C2743",
"Qr 	c #112A44",
"Rr 	c #08233D",
"Sr 	c #0B223D",
"Tr 	c #031D3A",
"Ur 	c #082230",
"Vr 	c #0C2936",
"Wr 	c #112D3B",
"Xr 	c #0F2F3D",
"Yr 	c #103241",
"Zr 	c #133545",
"`r 	c #153B4D",
" s 	c #234B61",
".s 	c #1E4E68",
"+s 	c #275D79",
"@s 	c #276383",
"#s 	c #306785",
"$s 	c #3C708D",
"%s 	c #1E526E",
"&s 	c #255673",
"*s 	c #1F526F",
"=s 	c #1C4B69",
"-s 	c #204E67",
";s 	c #1F4C65",
">s 	c #1D495E",
",s 	c #1A4256",
"'s 	c #173B4C",
")s 	c #173642",
"!s 	c #173846",
"~s 	c #174057",
"{s 	c #28648B",
"]s 	c #246A95",
"^s 	c #3E93C2",
"/s 	c #368EBF",
"(s 	c #3B94C5",
"_s 	c #3790C3",
":s 	c #3A85B1",
"<s 	c #22658F",
"[s 	c #266186",
"}s 	c #20567A",
"|s 	c #20557A",
"1s 	c #285F85",
"2s 	c #1D4A69",
"3s 	c #15354C",
"4s 	c #17364B",
"5s 	c #19384F",
"6s 	c #113045",
"7s 	c #122B3F",
"8s 	c #112536",
"9s 	c #102332",
"0s 	c #0F2231",
"as 	c #0C1E29",
"bs 	c #0A1923",
"cs 	c #08161D",
"ds 	c #08151D",
"es 	c #09151D",
"fs 	c #081319",
"gs 	c #081219",
"hs 	c #0A151D",
"is 	c #0B1921",
"js 	c #0C1B24",
"ks 	c #0D1D28",
"ls 	c #122635",
"ms 	c #122E41",
"ns 	c #143244",
"os 	c #122F3E",
"ps 	c #173D54",
"qs 	c #143142",
"rs 	c #132B3A",
"ss 	c #143751",
"ts 	c #102738",
"us 	c #132A38",
"vs 	c #163043",
"ws 	c #1D4563",
"xs 	c #225071",
"ys 	c #254F6E",
"zs 	c #224A67",
"As 	c #285E84",
"Bs 	c #2E668E",
"Cs 	c #26587D",
"Ds 	c #225581",
"Es 	c #1D4A63",
"Fs 	c #28556E",
"Gs 	c #23566E",
"Hs 	c #275973",
"Is 	c #20536B",
"Js 	c #245972",
"Ks 	c #1F5975",
"Ls 	c #20546E",
"Ms 	c #1E506A",
"Ns 	c #1D465B",
"Os 	c #193E51",
"Ps 	c #2E5776",
"Qs 	c #2A5473",
"Rs 	c #1E4263",
"Ss 	c #11314C",
"Ts 	c #1D3A57",
"Us 	c #0D2F4E",
"Vs 	c #203A56",
"Ws 	c #0A233D",
"Xs 	c #09223C",
"Ys 	c #112743",
"Zs 	c #061F3D",
"`s 	c #041F3A",
" t 	c #0A212F",
".t 	c #0C2432",
"+t 	c #0B2634",
"@t 	c #0E2C38",
"#t 	c #102F3C",
"$t 	c #10313E",
"%t 	c #113342",
"&t 	c #173E50",
"*t 	c #1A455C",
"=t 	c #215370",
"-t 	c #205673",
";t 	c #245A79",
">t 	c #205776",
",t 	c #235874",
"'t 	c #1F4D66",
")t 	c #1F5474",
"!t 	c #3F708C",
"~t 	c #2A5670",
"{t 	c #1C465E",
"]t 	c #1A4257",
"^t 	c #173C4C",
"/t 	c #183A48",
"(t 	c #173644",
"_t 	c #163745",
":t 	c #163542",
"<t 	c #29648A",
"[t 	c #2B729C",
"}t 	c #2E82AF",
"|t 	c #3287B8",
"1t 	c #358ABA",
"2t 	c #3585B1",
"3t 	c #3379A3",
"4t 	c #286C96",
"5t 	c #215C81",
"6t 	c #275F82",
"7t 	c #1E5070",
"8t 	c #1B415B",
"9t 	c #143247",
"0t 	c #123347",
"at 	c #0F2535",
"bt 	c #0C1F2E",
"ct 	c #0E1E2C",
"dt 	c #0A1A25",
"et 	c #06151E",
"ft 	c #08131C",
"gt 	c #09131B",
"ht 	c #060F15",
"it 	c #060E13",
"jt 	c #070D13",
"kt 	c #070D12",
"lt 	c #060E11",
"mt 	c #071016",
"nt 	c #09161E",
"ot 	c #142B3B",
"pt 	c #122B3A",
"qt 	c #132E3D",
"rt 	c #143447",
"st 	c #17415B",
"tt 	c #183A51",
"ut 	c #102531",
"vt 	c #152D3C",
"wt 	c #1C3C52",
"xt 	c #214A67",
"yt 	c #1E435F",
"zt 	c #204D6C",
"At 	c #2D648B",
"Bt 	c #2A658E",
"Ct 	c #286490",
"Dt 	c #417DA9",
"Et 	c #2F5F85",
"Ft 	c #29526F",
"Gt 	c #1E455A",
"Ht 	c #1F495E",
"It 	c #204B5E",
"Jt 	c #214F64",
"Kt 	c #204E62",
"Lt 	c #22556E",
"Mt 	c #235E7C",
"Nt 	c #336787",
"Ot 	c #205877",
"Pt 	c #275976",
"Qt 	c #1C475E",
"Rt 	c #1B3D52",
"St 	c #15364B",
"Tt 	c #1A4360",
"Ut 	c #274D6E",
"Vt 	c #173A59",
"Wt 	c #11304C",
"Xt 	c #203E5D",
"Yt 	c #113353",
"Zt 	c #12314F",
"`t 	c #0D2D49",
" u 	c #08233C",
".u 	c #06223B",
"+u 	c #06203A",
"@u 	c #05223E",
"#u 	c #041F3C",
"$u 	c #051E3B",
"%u 	c #0B2231",
"&u 	c #0E2534",
"*u 	c #0D2937",
"=u 	c #0D2B38",
"-u 	c #112F3E",
";u 	c #103140",
">u 	c #113241",
",u 	c #113443",
"'u 	c #143B4D",
")u 	c #1C4961",
"!u 	c #205370",
"~u 	c #20516D",
"{u 	c #315F77",
"]u 	c #20536F",
"^u 	c #1E4F68",
"/u 	c #1D5070",
"(u 	c #225678",
"_u 	c #1D4962",
":u 	c #183947",
"<u 	c #163443",
"[u 	c #183949",
"}u 	c #184055",
"|u 	c #214A61",
"1u 	c #183F55",
"2u 	c #22506F",
"3u 	c #2C6487",
"4u 	c #225D83",
"5u 	c #2D6C95",
"6u 	c #2B75A0",
"7u 	c #2F79A4",
"8u 	c #27729C",
"9u 	c #22668E",
"0u 	c #266489",
"au 	c #1F5377",
"bu 	c #22597D",
"cu 	c #266288",
"du 	c #225B7F",
"eu 	c #24587B",
"fu 	c #214E6D",
"gu 	c #173952",
"hu 	c #143041",
"iu 	c #132E3C",
"ju 	c #122D3E",
"ku 	c #102B3D",
"lu 	c #0F2736",
"mu 	c #0C1E2A",
"nu 	c #0E1E2B",
"ou 	c #0B1A27",
"pu 	c #06151D",
"qu 	c #0A161E",
"ru 	c #07101A",
"su 	c #060E15",
"tu 	c #050D12",
"uu 	c #060C0F",
"vu 	c #050A0D",
"wu 	c #06090C",
"xu 	c #05090C",
"yu 	c #060B0F",
"zu 	c #070C11",
"Au 	c #081216",
"Bu 	c #09141D",
"Cu 	c #0C1C24",
"Du 	c #0D232F",
"Eu 	c #0F2332",
"Fu 	c #112330",
"Gu 	c #132939",
"Hu 	c #173B53",
"Iu 	c #163142",
"Ju 	c #132F40",
"Ku 	c #102A3A",
"Lu 	c #112531",
"Mu 	c #132837",
"Nu 	c #193548",
"Ou 	c #1D3D54",
"Pu 	c #1C3E57",
"Qu 	c #1D405C",
"Ru 	c #204A68",
"Su 	c #265B7D",
"Tu 	c #296488",
"Uu 	c #2A6792",
"Vu 	c #35709F",
"Wu 	c #245A7E",
"Xu 	c #2E5977",
"Yu 	c #1F455B",
"Zu 	c #1F485C",
"`u 	c #204E63",
" v 	c #224F62",
".v 	c #245771",
"+v 	c #326B88",
"@v 	c #235E7D",
"#v 	c #2B5F7D",
"$v 	c #245975",
"%v 	c #1F4F68",
"&v 	c #1C445B",
"*v 	c #1A3F54",
"=v 	c #16394E",
"-v 	c #153A57",
";v 	c #183D5C",
">v 	c #173B59",
",v 	c #183E60",
"'v 	c #294663",
")v 	c #1D3853",
"!v 	c #102943",
"~v 	c #06213B",
"{v 	c #05213C",
"]v 	c #05233F",
"^v 	c #08233E",
"/v 	c #0A2130",
"(v 	c #182F3D",
"_v 	c #3A515C",
":v 	c #143140",
"<v 	c #0F2E3C",
"[v 	c #0F2F3E",
"}v 	c #10303E",
"|v 	c #123643",
"1v 	c #1A465B",
"2v 	c #1D4E67",
"3v 	c #1C4B64",
"4v 	c #1B4D69",
"5v 	c #286687",
"6v 	c #386382",
"7v 	c #1C4E6E",
"8v 	c #1E4862",
"9v 	c #183F54",
"0v 	c #1D4255",
"av 	c #2F5069",
"bv 	c #27516D",
"cv 	c #2A546F",
"dv 	c #1B465B",
"ev 	c #1A4966",
"fv 	c #1F5A81",
"gv 	c #3775A0",
"hv 	c #296B94",
"iv 	c #2B6A92",
"jv 	c #1E638E",
"kv 	c #2C6E96",
"lv 	c #26658E",
"mv 	c #2D688D",
"nv 	c #1D5A7F",
"ov 	c #225A7E",
"pv 	c #1C5277",
"qv 	c #24587C",
"rv 	c #1D4F72",
"sv 	c #1B415A",
"tv 	c #1C3D51",
"uv 	c #142F3F",
"vv 	c #133148",
"wv 	c #0F2836",
"xv 	c #0E232E",
"yv 	c #0B1F2A",
"zv 	c #091923",
"Av 	c #08141C",
"Bv 	c #0A151E",
"Cv 	c #050B10",
"Dv 	c #04080B",
"Ev 	c #04070B",
"Fv 	c #03070A",
"Gv 	c #04080C",
"Hv 	c #06090F",
"Iv 	c #05080B",
"Jv 	c #06070B",
"Kv 	c #060A0D",
"Lv 	c #061218",
"Mv 	c #09161D",
"Nv 	c #0B1B24",
"Ov 	c #102331",
"Pv 	c #0E212D",
"Qv 	c #0E2533",
"Rv 	c #102B3A",
"Sv 	c #153145",
"Tv 	c #183B54",
"Uv 	c #143144",
"Vv 	c #112938",
"Wv 	c #112E3F",
"Xv 	c #132735",
"Yv 	c #173546",
"Zv 	c #2B536E",
"`v 	c #1C3D55",
" w 	c #1F4460",
".w 	c #235272",
"+w 	c #286187",
"@w 	c #36749F",
"#w 	c #2C6991",
"$w 	c #2F6C98",
"%w 	c #296286",
"&w 	c #214D68",
"*w 	c #1F4D63",
"=w 	c #225268",
"-w 	c #26546A",
";w 	c #224F64",
">w 	c #265D74",
",w 	c #255D79",
"'w 	c #265C76",
")w 	c #245875",
"!w 	c #265D79",
"~w 	c #245A77",
"{w 	c #225068",
"]w 	c #1D445B",
"^w 	c #173C53",
"/w 	c #173A56",
"(w 	c #163955",
"_w 	c #153854",
":w 	c #12314D",
"<w 	c #0F2C46",
"[w 	c #152D46",
"}w 	c #0D2843",
"|w 	c #08243E",
"1w 	c #07223D",
"2w 	c #031F3B",
"3w 	c #0A2230",
"4w 	c #0D2634",
"5w 	c #142E3C",
"6w 	c #17303F",
"7w 	c #0F2D3C",
"8w 	c #102F40",
"9w 	c #10303F",
"0w 	c #113345",
"aw 	c #1A4358",
"bw 	c #1A465F",
"cw 	c #275571",
"dw 	c #1C5274",
"ew 	c #447B99",
"fw 	c #386D8E",
"gw 	c #275B7D",
"hw 	c #17445F",
"iw 	c #254E68",
"jw 	c #2C4F69",
"kw 	c #18425A",
"lw 	c #2D5674",
"mw 	c #1A4767",
"nw 	c #285B80",
"ow 	c #205679",
"pw 	c #386D91",
"qw 	c #1F638B",
"rw 	c #4285AD",
"sw 	c #23668F",
"tw 	c #296A93",
"uw 	c #2A6A91",
"vw 	c #2F6D93",
"ww 	c #225B7E",
"xw 	c #1E5577",
"yw 	c #215477",
"zw 	c #184767",
"Aw 	c #143345",
"Bw 	c #153549",
"Cw 	c #1B3C52",
"Dw 	c #102938",
"Ew 	c #10212C",
"Fw 	c #09161F",
"Gw 	c #07111A",
"Hw 	c #08121B",
"Iw 	c #061015",
"Jw 	c #05090E",
"Kw 	c #04070A",
"Lw 	c #040507",
"Mw 	c #050608",
"Nw 	c #040809",
"Ow 	c #040708",
"Pw 	c #05060A",
"Qw 	c #05080C",
"Rw 	c #060C11",
"Sw 	c #091018",
"Tw 	c #09171F",
"Uw 	c #0C1D29",
"Vw 	c #0E202B",
"Ww 	c #0E2231",
"Xw 	c #152C3B",
"Yw 	c #112A3C",
"Zw 	c #132B39",
"`w 	c #1A3648",
" x 	c #132E3F",
".x 	c #122837",
"+x 	c #1F4762",
"@x 	c #1A394E",
"#x 	c #1B3E58",
"$x 	c #265A80",
"%x 	c #3975A0",
"&x 	c #2D6C94",
"*x 	c #2E719C",
"=x 	c #3174A3",
"-x 	c #276086",
";x 	c #407090",
">x 	c #285F80",
",x 	c #235A7C",
"'x 	c #376786",
")x 	c #255A78",
"!x 	c #285971",
"~x 	c #255D74",
"{x 	c #265D76",
"]x 	c #28617E",
"^x 	c #29607E",
"/x 	c #1C4659",
"(x 	c #19405B",
"_x 	c #183E59",
":x 	c #153752",
"<x 	c #183854",
"[x 	c #17334D",
"}x 	c #122F4A",
"|x 	c #243C55",
"1x 	c #102E49",
"2x 	c #0A2742",
"3x 	c #09243F",
"4x 	c #07233E",
"5x 	c #06213D",
"6x 	c #041F3B",
"7x 	c #0B2130",
"8x 	c #0B2230",
"9x 	c #0A2533",
"0x 	c #0C2836",
"ax 	c #0C2A38",
"bx 	c #0E2B3B",
"cx 	c #102E3F",
"dx 	c #113142",
"ex 	c #103041",
"fx 	c #133548",
"gx 	c #153D50",
"hx 	c #2B5E7E",
"ix 	c #1E587B",
"jx 	c #1F5779",
"kx 	c #2B6081",
"lx 	c #2D6182",
"mx 	c #2E5C7B",
"nx 	c #1D4B69",
"ox 	c #294E68",
"px 	c #264D68",
"qx 	c #2D526F",
"rx 	c #153B52",
"sx 	c #18445C",
"tx 	c #1A4560",
"ux 	c #1E4E6E",
"vx 	c #1B5075",
"wx 	c #3C7EA7",
"xx 	c #287099",
"yx 	c #205B82",
"zx 	c #1E597F",
"Ax 	c #27648D",
"Bx 	c #317195",
"Cx 	c #2B5A7B",
"Dx 	c #1A425E",
"Ex 	c #1D3E51",
"Fx 	c #153443",
"Gx 	c #133449",
"Hx 	c #142F42",
"Ix 	c #0E2433",
"Jx 	c #08161F",
"Kx 	c #07131B",
"Lx 	c #061017",
"Mx 	c #080E17",
"Nx 	c #070E13",
"Ox 	c #030709",
"Px 	c #040608",
"Qx 	c #040406",
"Rx 	c #030405",
"Sx 	c #040407",
"Tx 	c #030507",
"Ux 	c #05080A",
"Vx 	c #070F15",
"Wx 	c #0B1920",
"Xx 	c #0D202B",
"Yx 	c #0E212F",
"Zx 	c #122939",
"`x 	c #0F2838",
" y 	c #193A4D",
".y 	c #123142",
"+y 	c #0F2A38",
"@y 	c #132E43",
"#y 	c #133042",
"$y 	c #173A51",
"%y 	c #1A3A4F",
"&y 	c #2B5C80",
"*y 	c #245475",
"=y 	c #29658C",
"-y 	c #2D6C90",
";y 	c #397CA9",
">y 	c #397EAE",
",y 	c #285F86",
"'y 	c #275D7E",
")y 	c #286182",
"!y 	c #417398",
"~y 	c #296B95",
"{y 	c #286282",
"]y 	c #265C77",
"^y 	c #285E79",
"/y 	c #296179",
"(y 	c #2A667E",
"_y 	c #2B6987",
":y 	c #286381",
"<y 	c #275F7D",
"[y 	c #22526A",
"}y 	c #1A3F58",
"|y 	c #173953",
"1y 	c #163249",
"2y 	c #0E2E4B",
"3y 	c #0D314F",
"4y 	c #233F5C",
"5y 	c #0D2943",
"6y 	c #05213D",
"7y 	c #05203D",
"8y 	c #0D2534",
"9y 	c #0C2734",
"0y 	c #142E3B",
"ay 	c #102B3B",
"by 	c #0E2D3C",
"cy 	c #0F3041",
"dy 	c #123244",
"ey 	c #113447",
"fy 	c #153B50",
"gy 	c #154664",
"hy 	c #306382",
"iy 	c #1F5677",
"jy 	c #1B4D6B",
"ky 	c #1B5578",
"ly 	c #225879",
"my 	c #265779",
"ny 	c #173E55",
"oy 	c #183D55",
"py 	c #163B50",
"qy 	c #254B68",
"ry 	c #436581",
"sy 	c #21557C",
"ty 	c #2B5E80",
"uy 	c #1B455C",
"vy 	c #1E4966",
"wy 	c #1B455E",
"xy 	c #225779",
"yy 	c #1E5576",
"zy 	c #1F5173",
"Ay 	c #275D80",
"By 	c #28678F",
"Cy 	c #1E5378",
"Dy 	c #1A4763",
"Ey 	c #183D54",
"Fy 	c #153447",
"Gy 	c #183041",
"Hy 	c #0B1D28",
"Iy 	c #091720",
"Jy 	c #0C1922",
"Ky 	c #07131C",
"Ly 	c #071118",
"My 	c #060C14",
"Ny 	c #050A0F",
"Oy 	c #06080C",
"Py 	c #050507",
"Qy 	c #030305",
"Ry 	c #040404",
"Sy 	c #030303",
"Ty 	c #040506",
"Uy 	c #0D1E28",
"Vy 	c #112939",
"Wy 	c #102838",
"Xy 	c #0F2B3E",
"Yy 	c #153041",
"Zy 	c #112B39",
"`y 	c #112D3E",
" z 	c #143347",
".z 	c #1B3E56",
"+z 	c #173649",
"@z 	c #17374B",
"#z 	c #1F4968",
"$z 	c #3577A4",
"%z 	c #31719A",
"&z 	c #2E6E95",
"*z 	c #3379AA",
"=z 	c #3077A1",
"-z 	c #2E6F95",
";z 	c #2B6B8D",
">z 	c #3F7BA1",
",z 	c #367192",
"'z 	c #295F7C",
")z 	c #38728E",
"!z 	c #2D6A86",
"~z 	c #2C657E",
"{z 	c #2A6581",
"]z 	c #29627D",
"^z 	c #285D79",
"/z 	c #24556F",
"(z 	c #1F4B61",
"_z 	c #1D485D",
":z 	c #193B52",
"<z 	c #16364E",
"[z 	c #13324B",
"}z 	c #112D44",
"|z 	c #203D5B",
"1z 	c #153654",
"2z 	c #0C2C4A",
"3z 	c #102C47",
"4z 	c #0E2842",
"5z 	c #06233F",
"6z 	c #03203D",
"7z 	c #0F2844",
"8z 	c #0B212F",
"9z 	c #0B2332",
"0z 	c #0B2635",
"az 	c #0D2A39",
"bz 	c #0E2D3D",
"cz 	c #113143",
"dz 	c #123345",
"ez 	c #14384B",
"fz 	c #16415B",
"gz 	c #2B607F",
"hz 	c #1F5879",
"iz 	c #245B7E",
"jz 	c #42718D",
"kz 	c #184B6B",
"lz 	c #275E7E",
"mz 	c #2E5D7C",
"nz 	c #163D53",
"oz 	c #1B4357",
"pz 	c #254964",
"qz 	c #3C5F7A",
"rz 	c #22567B",
"sz 	c #275B80",
"tz 	c #215270",
"uz 	c #1B435A",
"vz 	c #1F4B65",
"wz 	c #1D4961",
"xz 	c #194056",
"yz 	c #1F506B",
"zz 	c #24567A",
"Az 	c #1D4D6C",
"Bz 	c #1D4560",
"Cz 	c #1B4660",
"Dz 	c #1E4258",
"Ez 	c #1F4256",
"Fz 	c #1A3F56",
"Gz 	c #0F222C",
"Hz 	c #0B1821",
"Iz 	c #081720",
"Jz 	c #0A181F",
"Kz 	c #081620",
"Lz 	c #060F16",
"Mz 	c #05090D",
"Nz 	c #040709",
"Oz 	c #030304",
"Pz 	c #030404",
"Qz 	c #030406",
"Rz 	c #070F17",
"Sz 	c #0A1822",
"Tz 	c #0B1E28",
"Uz 	c #0C2434",
"Vz 	c #10293B",
"Wz 	c #132838",
"Xz 	c #122D40",
"Yz 	c #17354B",
"Zz 	c #204965",
"`z 	c #173A52",
" A 	c #18394E",
".A 	c #204B6B",
"+A 	c #224D6D",
"@A 	c #2A6997",
"#A 	c #387BA7",
"$A 	c #30759D",
"%A 	c #3178A3",
"&A 	c #3F92C2",
"*A 	c #3E8DC1",
"=A 	c #4086B1",
"-A 	c #3178A0",
";A 	c #3A80B0",
">A 	c #3180B5",
",A 	c #427DA4",
"'A 	c #2A6481",
")A 	c #2F6D8C",
"!A 	c #2D6D8B",
"~A 	c #2C637F",
"{A 	c #285F7A",
"]A 	c #2A6079",
"^A 	c #255972",
"/A 	c #23526B",
"(A 	c #204D65",
"_A 	c #1C425A",
":A 	c #15364C",
"<A 	c #16374F",
"[A 	c #14314A",
"}A 	c #103049",
"|A 	c #0F304C",
"1A 	c #123350",
"2A 	c #0B2944",
"3A 	c #082540",
"4A 	c #0D2642",
"5A 	c #021C39",
"6A 	c #0F2735",
"7A 	c #0C2838",
"8A 	c #0C2837",
"9A 	c #0D2938",
"0A 	c #0E2C3C",
"aA 	c #0F2E40",
"bA 	c #113449",
"cA 	c #153D55",
"dA 	c #1C4F6E",
"eA 	c #3D7492",
"fA 	c #327095",
"gA 	c #3A7394",
"hA 	c #236084",
"iA 	c #2A5977",
"jA 	c #225D82",
"kA 	c #205575",
"lA 	c #163F55",
"mA 	c #173C51",
"nA 	c #1B435C",
"oA 	c #173F56",
"pA 	c #183E56",
"qA 	c #1A435A",
"rA 	c #19425C",
"sA 	c #1B4156",
"tA 	c #1C455A",
"uA 	c #183A4A",
"vA 	c #1E5071",
"wA 	c #1C4865",
"xA 	c #1C4C6E",
"yA 	c #204966",
"zA 	c #183A4C",
"AA 	c #1B3F56",
"BA 	c #152F43",
"CA 	c #112734",
"DA 	c #0C1B25",
"EA 	c #0A1720",
"FA 	c #0B1922",
"GA 	c #050D11",
"HA 	c #070C12",
"IA 	c #05070B",
"JA 	c #050606",
"KA 	c #020202",
"LA 	c #040405",
"MA 	c #04090C",
"NA 	c #050E12",
"OA 	c #09151B",
"PA 	c #0A1A23",
"QA 	c #112633",
"RA 	c #102737",
"SA 	c #122A3B",
"TA 	c #0F2733",
"UA 	c #0F2633",
"VA 	c #113145",
"WA 	c #1B4868",
"XA 	c #193A52",
"YA 	c #1B4767",
"ZA 	c #1C435D",
"`A 	c #31709A",
" B 	c #327CAB",
".B 	c #317DAD",
"+B 	c #2D75A1",
"@B 	c #2E79A6",
"#B 	c #3585B6",
"$B 	c #3786B9",
"%B 	c #3581B4",
"&B 	c #3A83B5",
"*B 	c #3C80AE",
"=B 	c #3276A0",
"-B 	c #2B6785",
";B 	c #2C6E8C",
">B 	c #4388A9",
",B 	c #2C6785",
"'B 	c #2B6480",
")B 	c #265870",
"!B 	c #235069",
"~B 	c #1D445A",
"{B 	c #1C4256",
"]B 	c #16374D",
"^B 	c #173852",
"/B 	c #15344F",
"(B 	c #14344D",
"_B 	c #112F4A",
":B 	c #15334E",
"<B 	c #0E2B46",
"[B 	c #0A2843",
"}B 	c #072541",
"|B 	c #041C39",
"1B 	c #0C2230",
"2B 	c #0B2939",
"3B 	c #0B2836",
"4B 	c #0D2B3A",
"5B 	c #133952",
"6B 	c #205677",
"7B 	c #346988",
"8B 	c #5485A2",
"9B 	c #3F80A2",
"0B 	c #1F5E83",
"aB 	c #2E6183",
"bB 	c #307197",
"cB 	c #357499",
"dB 	c #215B7F",
"eB 	c #1C4D6D",
"fB 	c #1D415A",
"gB 	c #193D4D",
"hB 	c #193F51",
"iB 	c #193D4F",
"jB 	c #1A4960",
"kB 	c #204F6C",
"lB 	c #235576",
"mB 	c #305C7C",
"nB 	c #1A3B4E",
"oB 	c #214A66",
"pB 	c #173448",
"qB 	c #193447",
"rB 	c #0C1822",
"sB 	c #0B1720",
"tB 	c #060E14",
"uB 	c #040609",
"vB 	c #050609",
"wB 	c #050C10",
"xB 	c #091218",
"yB 	c #0B1F2B",
"zB 	c #0E2333",
"AB 	c #0F2430",
"BB 	c #122C3B",
"CB 	c #284E6A",
"DB 	c #1A405A",
"EB 	c #305874",
"FB 	c #22597E",
"GB 	c #2C6B96",
"HB 	c #317BA8",
"IB 	c #3987BA",
"JB 	c #337AA7",
"KB 	c #3580AE",
"LB 	c #3384B7",
"MB 	c #458CBA",
"NB 	c #3789BB",
"OB 	c #498CBA",
"PB 	c #2B75A3",
"QB 	c #327298",
"RB 	c #2E6D91",
"SB 	c #307094",
"TB 	c #32779D",
"UB 	c #306D8B",
"VB 	c #2D6682",
"WB 	c #2E6988",
"XB 	c #285874",
"YB 	c #224E65",
"ZB 	c #20495F",
"`B 	c #1B4257",
" C 	c #193E57",
".C 	c #1D435C",
"+C 	c #15364F",
"@C 	c #183A54",
"#C 	c #14344E",
"$C 	c #17344E",
"%C 	c #18354F",
"&C 	c #0C2742",
"*C 	c #0A2641",
"=C 	c #092440",
"-C 	c #05203C",
";C 	c #0C2130",
">C 	c #0A2434",
",C 	c #0E2F41",
"'C 	c #13374C",
")C 	c #15405A",
"!C 	c #194A68",
"~C 	c #1C4C6F",
"{C 	c #27668B",
"]C 	c #28668C",
"^C 	c #396382",
"/C 	c #3D7195",
"(C 	c #4E84A8",
"_C 	c #3A749C",
":C 	c #377096",
"<C 	c #3F7190",
"[C 	c #173849",
"}C 	c #1A3B4B",
"|C 	c #193B48",
"1C 	c #193E4C",
"2C 	c #193A4B",
"3C 	c #194C6B",
"4C 	c #1D5173",
"5C 	c #1F4F6E",
"6C 	c #1B3F55",
"7C 	c #173449",
"8C 	c #0E1B26",
"9C 	c #0A1721",
"0C 	c #09151E",
"aC 	c #060D11",
"bC 	c #050C0F",
"cC 	c #0A1B28",
"dC 	c #0E222D",
"eC 	c #112533",
"fC 	c #11384F",
"gC 	c #174364",
"hC 	c #1A4260",
"iC 	c #1D4868",
"jC 	c #26567A",
"kC 	c #295F83",
"lC 	c #26678F",
"mC 	c #2C77A4",
"nC 	c #378CC0",
"oC 	c #2F7FAE",
"pC 	c #3786B7",
"qC 	c #317EAD",
"rC 	c #3C87B3",
"sC 	c #347DA9",
"tC 	c #3E87B7",
"uC 	c #347DAD",
"vC 	c #30729C",
"wC 	c #33769E",
"xC 	c #2F769C",
"yC 	c #317293",
"zC 	c #2B6281",
"AC 	c #2E6380",
"BC 	c #285670",
"CC 	c #234F67",
"DC 	c #224C65",
"EC 	c #1E465C",
"FC 	c #184158",
"GC 	c #18435E",
"HC 	c #173C55",
"IC 	c #153751",
"JC 	c #153952",
"KC 	c #15334A",
"LC 	c #0F2D44",
"MC 	c #0D2A42",
"NC 	c #0A263D",
"OC 	c #09253E",
"PC 	c #07223C",
"QC 	c #06203B",
"RC 	c #0A223D",
"SC 	c #0C2131",
"TC 	c #0C2433",
"UC 	c #0C2635",
"VC 	c #0D2C3F",
"WC 	c #123043",
"XC 	c #1F3E53",
"YC 	c #264C64",
"ZC 	c #214965",
"`C 	c #194666",
" D 	c #235777",
".D 	c #2C5F7E",
"+D 	c #2C6285",
"@D 	c #265C7F",
"#D 	c #2F6789",
"$D 	c #2B6E94",
"%D 	c #2E7298",
"&D 	c #417EA3",
"*D 	c #215D84",
"=D 	c #214F6A",
"-D 	c #183C50",
";D 	c #1A3A4A",
">D 	c #173946",
",D 	c #163543",
"'D 	c #1B4152",
")D 	c #1D4F6E",
"!D 	c #295E82",
"~D 	c #1B3B4F",
"{D 	c #214357",
"]D 	c #0F2734",
"^D 	c #0F1D26",
"/D 	c #0A1B25",
"(D 	c #08151E",
"_D 	c #07141D",
":D 	c #051018",
"<D 	c #040508",
"[D 	c #05090B",
"}D 	c #060B0E",
"|D 	c #0C1D2B",
"1D 	c #0E1E2D",
"2D 	c #0E202C",
"3D 	c #0F2431",
"4D 	c #14344B",
"5D 	c #18384E",
"6D 	c #224A65",
"7D 	c #194060",
"8D 	c #23587E",
"9D 	c #22577B",
"0D 	c #235A7E",
"aD 	c #32759F",
"bD 	c #327EAC",
"cD 	c #439ECF",
"dD 	c #3A8DC0",
"eD 	c #328CC0",
"fD 	c #3180AF",
"gD 	c #3279A1",
"hD 	c #3B7BA7",
"iD 	c #4A8EB8",
"jD 	c #3587B8",
"kD 	c #31749D",
"lD 	c #2F7096",
"mD 	c #31759E",
"nD 	c #317090",
"oD 	c #2D6481",
"pD 	c #285D78",
"qD 	c #244F68",
"rD 	c #1F4F6D",
"sD 	c #376386",
"tD 	c #255070",
"uD 	c #183B53",
"vD 	c #14334D",
"wD 	c #112E45",
"xD 	c #0E293E",
"yD 	c #0E2940",
"zD 	c #0B263D",
"AD 	c #08223B",
"BD 	c #051F39",
"CD 	c #0B223C",
"DD 	c #0C213B",
"ED 	c #0D2232",
"FD 	c #0C2536",
"GD 	c #0D293B",
"HD 	c #0D2D41",
"ID 	c #0F2E44",
"JD 	c #0D2F45",
"KD 	c #1A3C54",
"LD 	c #133751",
"MD 	c #11354D",
"ND 	c #10354E",
"OD 	c #163C56",
"PD 	c #123A54",
"QD 	c #286389",
"RD 	c #2D6D96",
"SD 	c #3A82AA",
"TD 	c #5793B9",
"UD 	c #2A709C",
"VD 	c #31769F",
"WD 	c #1D4E6F",
"XD 	c #1A3D4E",
"YD 	c #1A3C4D",
"ZD 	c #163746",
"`D 	c #193949",
" E 	c #1E435E",
".E 	c #1E455C",
"+E 	c #1C4A65",
"@E 	c #1A4760",
"#E 	c #215479",
"$E 	c #235474",
"%E 	c #1D465D",
"&E 	c #1A3E55",
"*E 	c #0F222E",
"=E 	c #08171E",
"-E 	c #050B0F",
";E 	c #040607",
">E 	c #050B0E",
",E 	c #061119",
"'E 	c #0C1B27",
")E 	c #102D40",
"!E 	c #14364C",
"~E 	c #1B4059",
"{E 	c #265374",
"]E 	c #2C678E",
"^E 	c #27668D",
"/E 	c #27668F",
"(E 	c #2E80AF",
"_E 	c #3898CB",
":E 	c #3993C6",
"<E 	c #46A3D5",
"[E 	c #3C94C5",
"}E 	c #2B729F",
"|E 	c #2D73A2",
"1E 	c #2E75A2",
"2E 	c #337BA9",
"3E 	c #31759C",
"4E 	c #2F6A8D",
"5E 	c #2E6788",
"6E 	c #2D6582",
"7E 	c #2F6687",
"8E 	c #2F6787",
"9E 	c #26546F",
"0E 	c #265169",
"aE 	c #28536E",
"bE 	c #1E5173",
"cE 	c #305673",
"dE 	c #193F58",
"eE 	c #1A3D59",
"fE 	c #17364E",
"gE 	c #113046",
"hE 	c #0F2E43",
"iE 	c #0C273C",
"jE 	c #0B233A",
"kE 	c #0A233B",
"lE 	c #07213A",
"mE 	c #041B35",
"nE 	c #0F233E",
"oE 	c #0A1F2E",
"pE 	c #0A2131",
"qE 	c #0C2535",
"rE 	c #0C283B",
"sE 	c #0F3044",
"tE 	c #0F3045",
"uE 	c #113750",
"vE 	c #183B55",
"wE 	c #103146",
"xE 	c #12354B",
"yE 	c #12344B",
"zE 	c #123348",
"AE 	c #204D6F",
"BE 	c #396B8D",
"CE 	c #3B7098",
"DE 	c #5891B8",
"EE 	c #3D87B7",
"FE 	c #5B90B6",
"GE 	c #407BA4",
"HE 	c #1F495D",
"IE 	c #1B3E50",
"JE 	c #1D455B",
"KE 	c #1E4B63",
"LE 	c #224D67",
"ME 	c #1E4A64",
"NE 	c #225270",
"OE 	c #1E4F6B",
"PE 	c #265D81",
"QE 	c #214D69",
"RE 	c #1E465B",
"SE 	c #1F4459",
"TE 	c #10232E",
"UE 	c #0B1C24",
"VE 	c #0A1821",
"WE 	c #070E14",
"XE 	c #060C10",
"YE 	c #060D13",
"ZE 	c #0B1E2B",
"`E 	c #0B1C27",
" F 	c #102937",
".F 	c #112C3F",
"+F 	c #143246",
"@F 	c #2D658A",
"#F 	c #20597F",
"$F 	c #246287",
"%F 	c #29648B",
"&F 	c #2B6D97",
"*F 	c #3889B8",
"=F 	c #3492C5",
"-F 	c #2F84B6",
";F 	c #4093C2",
">F 	c #3989B8",
",F 	c #2A6D96",
"'F 	c #4584AA",
")F 	c #2E6D97",
"!F 	c #2F6F95",
"~F 	c #327398",
"{F 	c #2D6B8B",
"]F 	c #2B6883",
"^F 	c #295F7B",
"/F 	c #2A617A",
"(F 	c #2A627E",
"_F 	c #285E7E",
":F 	c #336C8E",
"<F 	c #24546D",
"[F 	c #24526B",
"}F 	c #1E4C6A",
"|F 	c #204964",
"1F 	c #17374E",
"2F 	c #123146",
"3F 	c #112F44",
"4F 	c #0D273D",
"5F 	c #112A40",
"6F 	c #0C253E",
"7F 	c #0A243D",
"8F 	c #051E38",
"9F 	c #031B35",
"0F 	c #0D2435",
"aF 	c #0B2538",
"bF 	c #102D3F",
"cF 	c #0C2D43",
"dF 	c #193E58",
"eF 	c #183D58",
"fF 	c #103245",
"gF 	c #11344B",
"hF 	c #113246",
"iF 	c #143752",
"jF 	c #24577D",
"kF 	c #3A688A",
"lF 	c #38688F",
"mF 	c #336D98",
"nF 	c #5689B0",
"oF 	c #3F719B",
"pF 	c #245779",
"qF 	c #234F68",
"rF 	c #225069",
"sF 	c #25546E",
"tF 	c #23526C",
"uF 	c #235775",
"vF 	c #265D80",
"wF 	c #255574",
"xF 	c #1E465D",
"yF 	c #1C4158",
"zF 	c #122C3C",
"AF 	c #11242D",
"BF 	c #0B1B23",
"CF 	c #0C1D25",
"DF 	c #0A1922",
"EF 	c #060D12",
"FF 	c #060C12",
"GF 	c #06080B",
"HF 	c #09131C",
"IF 	c #0A1C28",
"JF 	c #0D1F2A",
"KF 	c #0E2836",
"LF 	c #15364A",
"MF 	c #1E4E6C",
"NF 	c #23638E",
"OF 	c #3A769B",
"PF 	c #266A95",
"QF 	c #2B719D",
"RF 	c #2875A2",
"SF 	c #2C7AA8",
"TF 	c #3B8EBD",
"UF 	c #307EAD",
"VF 	c #2D75A0",
"WF 	c #286589",
"XF 	c #266381",
"YF 	c #2B698D",
"ZF 	c #3D7393",
"`F 	c #2B6888",
" G 	c #2E6A87",
".G 	c #2C6682",
"+G 	c #2C6780",
"@G 	c #2E617B",
"#G 	c #256280",
"$G 	c #2D6888",
"%G 	c #225671",
"&G 	c #1F5070",
"*G 	c #2A5979",
"=G 	c #1F4A69",
"-G 	c #19415C",
";G 	c #1C354A",
">G 	c #0C2A40",
",G 	c #0E2942",
"'G 	c #09233E",
")G 	c #031A35",
"!G 	c #0C2333",
"~G 	c #0E2536",
"{G 	c #0D283A",
"]G 	c #0B2B3E",
"^G 	c #183950",
"/G 	c #284D67",
"(G 	c #174360",
"_G 	c #1C415A",
":G 	c #1B4260",
"<G 	c #163A53",
"[G 	c #153D5A",
"}G 	c #285B81",
"|G 	c #22557A",
"1G 	c #265479",
"2G 	c #275A81",
"3G 	c #29638B",
"4G 	c #295F87",
"5G 	c #2E526D",
"6G 	c #234B62",
"7G 	c #2F5B77",
"8G 	c #295E7F",
"9G 	c #255A7A",
"0G 	c #214E67",
"aG 	c #255775",
"bG 	c #255675",
"cG 	c #265674",
"dG 	c #285976",
"eG 	c #24546C",
"fG 	c #22516C",
"gG 	c #22536E",
"hG 	c #1F495F",
"iG 	c #1F4965",
"jG 	c #1F475E",
"kG 	c #10232D",
"lG 	c #0C1F28",
"mG 	c #0D1F28",
"nG 	c #091823",
"oG 	c #050E11",
"pG 	c #060E16",
"qG 	c #050C0E",
"rG 	c #04080A",
"sG 	c #060709",
"tG 	c #08131B",
"uG 	c #0E212C",
"vG 	c #0D222F",
"wG 	c #132A39",
"xG 	c #122B3E",
"yG 	c #33688A",
"zG 	c #256690",
"AG 	c #2A6D99",
"BG 	c #33759C",
"CG 	c #387CA7",
"DG 	c #3379A7",
"EG 	c #327EAD",
"FG 	c #2E77A5",
"GG 	c #276892",
"HG 	c #276184",
"IG 	c #276183",
"JG 	c #276487",
"KG 	c #25648B",
"LG 	c #256384",
"MG 	c #2A6482",
"NG 	c #2A637B",
"OG 	c #29657D",
"PG 	c #2E6886",
"QG 	c #296A86",
"RG 	c #275F77",
"SG 	c #327194",
"TG 	c #4385AD",
"UG 	c #347295",
"VG 	c #24648A",
"WG 	c #2C688A",
"XG 	c #214E6E",
"YG 	c #1D4968",
"ZG 	c #183E58",
"`G 	c #1A3248",
" H 	c #0E2A3F",
".H 	c #0D253C",
"+H 	c #0C243C",
"@H 	c #06213C",
"#H 	c #041A35",
"$H 	c #11233E",
"%H 	c #0B2333",
"&H 	c #0D2638",
"*H 	c #0F3048",
"=H 	c #113A55",
"-H 	c #123D5B",
";H 	c #1D445F",
">H 	c #1E4765",
",H 	c #194363",
"'H 	c #153A55",
")H 	c #174162",
"!H 	c #2E5170",
"~H 	c #173D57",
"{H 	c #204969",
"]H 	c #254F71",
"^H 	c #25577A",
"/H 	c #224E68",
"(H 	c #255269",
"_H 	c #234F69",
":H 	c #3A627D",
"<H 	c #295F7E",
"[H 	c #2B5F7E",
"}H 	c #255573",
"|H 	c #285C7A",
"1H 	c #275D78",
"2H 	c #295571",
"3H 	c #275770",
"4H 	c #26546D",
"5H 	c #245068",
"6H 	c #214D65",
"7H 	c #24536E",
"8H 	c #234F6C",
"9H 	c #235472",
"0H 	c #244964",
"aH 	c #163F5A",
"bH 	c #102839",
"cH 	c #0E2430",
"dH 	c #0C1C26",
"eH 	c #0B1D26",
"fH 	c #0A1C29",
"gH 	c #09171D",
"hH 	c #060F13",
"iH 	c #080C12",
"jH 	c #060A0E",
"kH 	c #03070B",
"lH 	c #050509",
"mH 	c #070E16",
"nH 	c #0A1B24",
"oH 	c #0B1C26",
"pH 	c #15374E",
"qH 	c #214A69",
"rH 	c #347196",
"sH 	c #28658D",
"tH 	c #296F9A",
"uH 	c #26648B",
"vH 	c #245E83",
"wH 	c #2E709A",
"xH 	c #266D9B",
"yH 	c #2B72A3",
"zH 	c #276590",
"AH 	c #23577A",
"BH 	c #346B8F",
"CH 	c #366C8D",
"DH 	c #397697",
"EH 	c #276585",
"FH 	c #255C75",
"GH 	c #265E77",
"HH 	c #276380",
"IH 	c #2C7399",
"JH 	c #3C79A0",
"KH 	c #4183A7",
"LH 	c #2A749C",
"MH 	c #2F79A1",
"NH 	c #29739F",
"OH 	c #3F82A9",
"PH 	c #235674",
"QH 	c #215375",
"RH 	c #2D536E",
"SH 	c #133146",
"TH 	c #0E2B42",
"UH 	c #122F49",
"VH 	c #112D46",
"WH 	c #0A233C",
"XH 	c #07203B",
"YH 	c #0A213D",
"ZH 	c #051A36",
"`H 	c #11233F",
" I 	c #0A202F",
".I 	c #0E2434",
"+I 	c #0C273B",
"@I 	c #1F3A4C",
"#I 	c #153248",
"$I 	c #12324B",
"%I 	c #1D4059",
"&I 	c #113550",
"*I 	c #183D5A",
"=I 	c #1D4562",
"-I 	c #224A68",
";I 	c #163E5C",
">I 	c #294B67",
",I 	c #153B55",
"'I 	c #1E4562",
")I 	c #2A6286",
"!I 	c #295977",
"~I 	c #28566F",
"{I 	c #285870",
"]I 	c #255069",
"^I 	c #285B78",
"/I 	c #295D7B",
"(I 	c #265471",
"_I 	c #23506C",
":I 	c #295871",
"<I 	c #234960",
"[I 	c #26536B",
"}I 	c #245776",
"|I 	c #285C7F",
"1I 	c #204761",
"2I 	c #234C65",
"3I 	c #163C54",
"4I 	c #183243",
"5I 	c #142F46",
"6I 	c #102532",
"7I 	c #0E1F29",
"8I 	c #112331",
"9I 	c #070F18",
"0I 	c #05080D",
"aI 	c #070F12",
"bI 	c #0B1C25",
"cI 	c #0D1D27",
"dI 	c #142735",
"eI 	c #0D2432",
"fI 	c #132F43",
"gI 	c #1D3E54",
"hI 	c #246891",
"iI 	c #23628A",
"jI 	c #2A678C",
"kI 	c #235A7B",
"lI 	c #2F6C96",
"mI 	c #3381B1",
"nI 	c #347CAA",
"oI 	c #265F85",
"pI 	c #245879",
"qI 	c #276083",
"rI 	c #215573",
"sI 	c #255B77",
"tI 	c #256281",
"uI 	c #2A5E7B",
"vI 	c #2C698A",
"wI 	c #407FA4",
"xI 	c #30779B",
"yI 	c #3C87B0",
"zI 	c #2E7AA2",
"AI 	c #2E7398",
"BI 	c #2F7496",
"CI 	c #3A7BA0",
"DI 	c #286786",
"EI 	c #2A6485",
"FI 	c #245B79",
"GI 	c #215677",
"HI 	c #296084",
"II 	c #365E7D",
"JI 	c #153D57",
"KI 	c #102F48",
"LI 	c #27435B",
"MI 	c #345371",
"NI 	c #0B263E",
"OI 	c #081E38",
"PI 	c #081F39",
"QI 	c #061B39",
"RI 	c #12233F",
"SI 	c #0C2436",
"TI 	c #0C2539",
"UI 	c #0B273C",
"VI 	c #1F4058",
"WI 	c #103047",
"XI 	c #12344C",
"YI 	c #1F4461",
"ZI 	c #1F4361",
"`I 	c #18374F",
" J 	c #224258",
".J 	c #1A3F5B",
"+J 	c #1D4664",
"@J 	c #2A6081",
"#J 	c #295E7D",
"$J 	c #295D78",
"%J 	c #28556D",
"&J 	c #285470",
"*J 	c #255470",
"=J 	c #224C63",
"-J 	c #295C74",
";J 	c #255166",
">J 	c #224D65",
",J 	c #275F7F",
"'J 	c #265877",
")J 	c #23516C",
"!J 	c #1C4155",
"~J 	c #1C3D54",
"{J 	c #142F45",
"]J 	c #102534",
"^J 	c #0D1E2B",
"/J 	c #0C1B26",
"(J 	c #0E2532",
"_J 	c #09151F",
":J 	c #081218",
"<J 	c #071119",
"[J 	c #060B10",
"}J 	c #05070A",
"|J 	c #040509",
"1J 	c #040A0D",
"2J 	c #081721",
"3J 	c #11202A",
"4J 	c #091920",
"5J 	c #0C1F29",
"6J 	c #153246",
"7J 	c #14344C",
"8J 	c #143043",
"9J 	c #1B4360",
"0J 	c #2B668F",
"aJ 	c #326C94",
"bJ 	c #26648D",
"cJ 	c #265B7E",
"dJ 	c #245273",
"eJ 	c #1F5477",
"fJ 	c #2C73A3",
"gJ 	c #2A6C96",
"hJ 	c #306487",
"iJ 	c #255E81",
"jJ 	c #255671",
"kJ 	c #23566F",
"lJ 	c #2A6585",
"mJ 	c #235974",
"nJ 	c #275E7D",
"oJ 	c #2B6988",
"pJ 	c #2C6C8C",
"qJ 	c #2F7596",
"rJ 	c #2E789E",
"sJ 	c #2F7BA1",
"tJ 	c #2C7295",
"uJ 	c #327799",
"vJ 	c #266481",
"wJ 	c #255A76",
"xJ 	c #245976",
"yJ 	c #245977",
"zJ 	c #225674",
"AJ 	c #1D4C6B",
"BJ 	c #1B4462",
"CJ 	c #32516C",
"DJ 	c #1A3C57",
"EJ 	c #17334A",
"FJ 	c #173553",
"GJ 	c #0E2740",
"HJ 	c #07223B",
"IJ 	c #09203A",
"JJ 	c #051D3A",
"KJ 	c #081D3C",
"LJ 	c #0F203D",
"MJ 	c #0B2539",
"NJ 	c #0C263A",
"OJ 	c #0D273C",
"PJ 	c #0F2E45",
"QJ 	c #15354D",
"RJ 	c #0F2F44",
"SJ 	c #0F3046",
"TJ 	c #103046",
"UJ 	c #2A4A63",
"VJ 	c #143A56",
"WJ 	c #163850",
"XJ 	c #3A6787",
"YJ 	c #204F6E",
"ZJ 	c #204560",
"`J 	c #26597D",
" K 	c #3F769D",
".K 	c #2B668D",
"+K 	c #27526B",
"@K 	c #295672",
"#K 	c #21495F",
"$K 	c #295C75",
"%K 	c #245067",
"&K 	c #21455D",
"*K 	c #225470",
"=K 	c #265C7B",
"-K 	c #23536F",
";K 	c #194057",
">K 	c #122C41",
",K 	c #132937",
"'K 	c #0E2230",
")K 	c #0B1D25",
"!K 	c #07131E",
"~K 	c #060B11",
"{K 	c #070A12",
"]K 	c #05080E",
"^K 	c #04050B",
"/K 	c #030608",
"(K 	c #030508",
"_K 	c #050E15",
":K 	c #071219",
"<K 	c #0A161C",
"[K 	c #0F2538",
"}K 	c #1A3649",
"|K 	c #1F5276",
"1K 	c #225C85",
"2K 	c #296A95",
"3K 	c #20577D",
"4K 	c #1E506E",
"5K 	c #2B6793",
"6K 	c #2E75A6",
"7K 	c #286A99",
"8K 	c #296991",
"9K 	c #235B79",
"0K 	c #23506A",
"aK 	c #1E506C",
"bK 	c #286684",
"cK 	c #245671",
"dK 	c #215268",
"eK 	c #225269",
"fK 	c #3781A6",
"gK 	c #3682A9",
"hK 	c #367EA4",
"iK 	c #35799E",
"jK 	c #2D7495",
"kK 	c #3784AC",
"lK 	c #2C739A",
"mK 	c #235A73",
"nK 	c #215471",
"oK 	c #225774",
"pK 	c #1F5573",
"qK 	c #335E7E",
"rK 	c #153F5C",
"sK 	c #183C59",
"tK 	c #143249",
"uK 	c #112A41",
"vK 	c #1A3553",
"wK 	c #0C243D",
"xK 	c #12273F",
"yK 	c #051B36",
"zK 	c #041B39",
"AK 	c #0C203F",
"BK 	c #10223E",
"CK 	c #0D2635",
"DK 	c #0B2334",
"EK 	c #12293C",
"FK 	c #122A3D",
"GK 	c #183046",
"HK 	c #15334B",
"IK 	c #0D2D43",
"JK 	c #0F2F45",
"KK 	c #1F3C52",
"LK 	c #13344B",
"MK 	c #123753",
"NK 	c #1A4261",
"OK 	c #21445F",
"PK 	c #20425A",
"QK 	c #1F445F",
"RK 	c #204861",
"SK 	c #214A60",
"TK 	c #2B5978",
"UK 	c #2C668E",
"VK 	c #42769F",
"WK 	c #3B6B8C",
"XK 	c #234C63",
"YK 	c #25516C",
"ZK 	c #2E5A78",
"`K 	c #254E65",
" L 	c #244C64",
".L 	c #2A6181",
"+L 	c #204F69",
"@L 	c #1C3F50",
"#L 	c #1C4257",
"$L 	c #183B57",
"%L 	c #123046",
"&L 	c #102736",
"*L 	c #0E2738",
"=L 	c #0C1F2A",
"-L 	c #0B1D29",
";L 	c #071318",
">L 	c #040E12",
",L 	c #081018",
"'L 	c #060A0F",
")L 	c #04090D",
"!L 	c #040B10",
"~L 	c #070F16",
"{L 	c #060F17",
"]L 	c #09121B",
"^L 	c #071117",
"/L 	c #081419",
"(L 	c #08161B",
"_L 	c #0E2632",
":L 	c #1A384A",
"<L 	c #214F70",
"[L 	c #1E5073",
"}L 	c #24638F",
"|L 	c #1E5072",
"1L 	c #1F4E6F",
"2L 	c #3884B5",
"3L 	c #296996",
"4L 	c #266187",
"5L 	c #245676",
"6L 	c #1B455A",
"7L 	c #1F4A64",
"8L 	c #376180",
"9L 	c #2E6688",
"0L 	c #2A5D7A",
"aL 	c #24566B",
"bL 	c #23546C",
"cL 	c #2C6A8A",
"dL 	c #3283B2",
"eL 	c #5297C0",
"fL 	c #3078A2",
"gL 	c #2F759A",
"hL 	c #296F90",
"iL 	c #2F789E",
"jL 	c #34799D",
"kL 	c #276483",
"lL 	c #205774",
"mL 	c #215673",
"nL 	c #1F5472",
"oL 	c #1A415E",
"pL 	c #112C42",
"qL 	c #0E293F",
"rL 	c #0E273F",
"sL 	c #08213B",
"tL 	c #081F37",
"uL 	c #031835",
"vL 	c #0B1E3B",
"wL 	c #0F203C",
"xL 	c #092131",
"yL 	c #0A2333",
"zL 	c #0F2639",
"AL 	c #0A2438",
"BL 	c #122B40",
"CL 	c #143149",
"DL 	c #10334D",
"EL 	c #24455F",
"FL 	c #2F506B",
"GL 	c #153E5D",
"HL 	c #1B435E",
"IL 	c #234D6A",
"JL 	c #26506D",
"KL 	c #214A64",
"LL 	c #1E4154",
"ML 	c #2E5F7D",
"NL 	c #285B7B",
"OL 	c #296182",
"PL 	c #21475E",
"QL 	c #21485F",
"RL 	c #204559",
"SL 	c #1F4458",
"TL 	c #21475C",
"UL 	c #225A7A",
"VL 	c #2E6A92",
"WL 	c #225472",
"XL 	c #1C4055",
"YL 	c #1E4358",
"ZL 	c #1B405C",
"`L 	c #112835",
" M 	c #0F2D40",
".M 	c #132C3C",
"+M 	c #0C1E2C",
"@M 	c #122632",
"#M 	c #0D202F",
"$M 	c #0E1C25",
"%M 	c #040C0F",
"&M 	c #070E17",
"*M 	c #07141C",
"=M 	c #0B1A24",
"-M 	c #0C2531",
";M 	c #0D2430",
">M 	c #0F2835",
",M 	c #15374C",
"'M 	c #204E6A",
")M 	c #1C4E6F",
"!M 	c #2C6C94",
"~M 	c #34719B",
"{M 	c #235D86",
"]M 	c #1D4C6E",
"^M 	c #1C4462",
"/M 	c #1B4F75",
"(M 	c #3E81AE",
"_M 	c #26719F",
":M 	c #2D709C",
"<M 	c #27658F",
"[M 	c #194159",
"}M 	c #1F4960",
"|M 	c #1C4963",
"1M 	c #225775",
"2M 	c #326582",
"3M 	c #235A72",
"4M 	c #3B6E8D",
"5M 	c #2A6888",
"6M 	c #35769D",
"7M 	c #3F88B5",
"8M 	c #2F7CA2",
"9M 	c #2F7CA6",
"0M 	c #4083AC",
"aM 	c #296E93",
"bM 	c #27698A",
"cM 	c #26607F",
"dM 	c #245D7B",
"eM 	c #225875",
"fM 	c #1E526F",
"gM 	c #112D43",
"hM 	c #0F2A40",
"iM 	c #0B253B",
"jM 	c #09223A",
"kM 	c #061D38",
"lM 	c #051A35",
"mM 	c #021834",
"nM 	c #021837",
"oM 	c #0A1E3B",
"pM 	c #0F213E",
"qM 	c #0B1F30",
"rM 	c #0C2335",
"sM 	c #0D2439",
"tM 	c #0B2336",
"uM 	c #0C2437",
"vM 	c #153A56",
"wM 	c #173E5B",
"xM 	c #18415F",
"yM 	c #274965",
"zM 	c #254D6B",
"AM 	c #2E536F",
"BM 	c #355976",
"CM 	c #22465C",
"DM 	c #244A60",
"EM 	c #275A76",
"FM 	c #25556C",
"GM 	c #265571",
"HM 	c #2F5872",
"IM 	c #1F4056",
"JM 	c #1F4456",
"KM 	c #224A60",
"LM 	c #215473",
"MM 	c #23587A",
"NM 	c #2B6488",
"OM 	c #245B7C",
"PM 	c #1F4C63",
"QM 	c #1B415D",
"RM 	c #244F6E",
"SM 	c #19384E",
"TM 	c #0F242E",
"UM 	c #132D3F",
"VM 	c #0C202D",
"WM 	c #0B1D2B",
"XM 	c #081821",
"YM 	c #08161E",
"ZM 	c #071319",
"`M 	c #09141B",
" N 	c #06121A",
".N 	c #071019",
"+N 	c #050F14",
"@N 	c #050E13",
"#N 	c #071014",
"$N 	c #060F14",
"%N 	c #081115",
"&N 	c #081317",
"*N 	c #0A171F",
"=N 	c #0E2431",
"-N 	c #142C3A",
";N 	c #122F43",
">N 	c #16405B",
",N 	c #235877",
"'N 	c #1D5378",
")N 	c #276792",
"!N 	c #2A6A93",
"~N 	c #215B84",
"{N 	c #20537A",
"]N 	c #276894",
"^N 	c #286C99",
"/N 	c #306F9A",
"(N 	c #235E88",
"_N 	c #275E84",
":N 	c #2B506E",
"<N 	c #274F69",
"[N 	c #235673",
"}N 	c #275874",
"|N 	c #255770",
"1N 	c #275F79",
"2N 	c #275F7E",
"3N 	c #286587",
"4N 	c #2F739B",
"5N 	c #2D7295",
"6N 	c #2B7192",
"7N 	c #4282A8",
"8N 	c #2B7195",
"9N 	c #347499",
"0N 	c #266080",
"aN 	c #18405B",
"bN 	c #102C42",
"cN 	c #0F2A41",
"dN 	c #082037",
"eN 	c #071E37",
"fN 	c #031934",
"gN 	c #051B39",
"hN 	c #031836",
"iN 	c #142541",
"jN 	c #0B1E31",
"kN 	c #0C2134",
"lN 	c #12273B",
"mN 	c #0C2337",
"nN 	c #0D2335",
"oN 	c #0D283C",
"pN 	c #19364C",
"qN 	c #2E4D63",
"rN 	c #1E4561",
"sN 	c #1D435F",
"tN 	c #183F5C",
"uN 	c #173D58",
"vN 	c #194562",
"wN 	c #24506E",
"xN 	c #2F546B",
"yN 	c #224A63",
"zN 	c #254F68",
"AN 	c #26536E",
"BN 	c #295976",
"CN 	c #27546F",
"DN 	c #21475A",
"EN 	c #1C3E51",
"FN 	c #1E4054",
"GN 	c #1C3F52",
"HN 	c #1A3A4C",
"IN 	c #224C69",
"JN 	c #285C7B",
"KN 	c #245778",
"LN 	c #2B6183",
"MN 	c #20516C",
"NN 	c #1A3D4F",
"ON 	c #265673",
"PN 	c #1A3C51",
"QN 	c #143146",
"RN 	c #14344A",
"SN 	c #102B3E",
"TN 	c #0D2433",
"UN 	c #112637",
"VN 	c #0D212D",
"WN 	c #0C1A23",
"XN 	c #091822",
"YN 	c #07151D",
"ZN 	c #07161E",
"`N 	c #0B1A26",
" O 	c #0F1E2B",
".O 	c #0E2330",
"+O 	c #0E2A39",
"@O 	c #153C56",
"#O 	c #1C4B67",
"$O 	c #255A7E",
"%O 	c #1D587E",
"&O 	c #25648C",
"*O 	c #39779F",
"=O 	c #3279A6",
"-O 	c #2F6F9C",
";O 	c #246591",
">O 	c #2B6D98",
",O 	c #276790",
"'O 	c #1E5679",
")O 	c #183E5E",
"!O 	c #345C7A",
"~O 	c #1F4F73",
"{O 	c #205274",
"]O 	c #376A8C",
"^O 	c #265E7C",
"/O 	c #235A78",
"(O 	c #467DA2",
"_O 	c #2C709B",
":O 	c #256587",
"<O 	c #357196",
"[O 	c #347098",
"}O 	c #2D6F95",
"|O 	c #2F7399",
"1O 	c #2E7195",
"2O 	c #307195",
"3O 	c #2A698B",
"4O 	c #286484",
"5O 	c #1A4460",
"6O 	c #122C43",
"7O 	c #0B253C",
"8O 	c #081F38",
"9O 	c #041B34",
"0O 	c #031935",
"aO 	c #041A36",
"bO 	c #041B38",
"cO 	c #041936",
"dO 	c #0C2132",
"eO 	c #0C2133",
"fO 	c #10273A",
"gO 	c #0D2437",
"hO 	c #0C273A",
"iO 	c #132E40",
"jO 	c #0F2D42",
"kO 	c #25445C",
"lO 	c #143B57",
"mO 	c #1C4361",
"nO 	c #204B6C",
"oO 	c #365D79",
"pO 	c #254A63",
"qO 	c #35566D",
"rO 	c #2B546E",
"sO 	c #25526E",
"tO 	c #25526B",
"uO 	c #245069",
"vO 	c #30607C",
"wO 	c #245472",
"xO 	c #234E63",
"yO 	c #1D465E",
"zO 	c #1D4660",
"AO 	c #255273",
"BO 	c #183B50",
"CO 	c #245B7D",
"DO 	c #2C5F81",
"EO 	c #235A7F",
"FO 	c #24587A",
"GO 	c #20516E",
"HO 	c #255571",
"IO 	c #163F59",
"JO 	c #153E56",
"KO 	c #0F2737",
"LO 	c #112B3F",
"MO 	c #0D2331",
"NO 	c #0C1F2F",
"OO 	c #112A3B",
"PO 	c #0C1E27",
"QO 	c #07151E",
"RO 	c #09181F",
"SO 	c #0A1D28",
"TO 	c #0F2634",
"UO 	c #0F2A3A",
"VO 	c #1A3745",
"WO 	c #123044",
"XO 	c #13354B",
"YO 	c #1B405A",
"ZO 	c #1B435F",
"`O 	c #1E4A67",
" P 	c #19496A",
".P 	c #2A5F83",
"+P 	c #2C668B",
"@P 	c #28638C",
"#P 	c #286B97",
"$P 	c #33759E",
"%P 	c #205A80",
"&P 	c #193E5C",
"*P 	c #183E5F",
"=P 	c #163C5C",
"-P 	c #386589",
";P 	c #3B759A",
">P 	c #37739A",
",P 	c #2F6E95",
"'P 	c #26658B",
")P 	c #427BA4",
"!P 	c #3176A3",
"~P 	c #3A6E95",
"{P 	c #30678A",
"]P 	c #286990",
"^P 	c #3077A8",
"/P 	c #2C729C",
"(P 	c #367A9E",
"_P 	c #2E7197",
":P 	c #2C6E92",
"<P 	c #367297",
"[P 	c #2B6A90",
"}P 	c #25597A",
"|P 	c #235575",
"1P 	c #1B445F",
"2P 	c #133149",
"3P 	c #0F2A42",
"4P 	c #09243D",
"5P 	c #112840",
"6P 	c #051C39",
"7P 	c #0B2032",
"8P 	c #0B2031",
"9P 	c #0C2336",
"0P 	c #11283B",
"aP 	c #12293B",
"bP 	c #0C283A",
"cP 	c #112F45",
"dP 	c #1E3B50",
"eP 	c #13354D",
"fP 	c #183F59",
"gP 	c #224863",
"hP 	c #173F59",
"iP 	c #1B3E53",
"jP 	c #1B3F53",
"kP 	c #21495D",
"lP 	c #265878",
"mP 	c #1E4762",
"nP 	c #214B63",
"oP 	c #1D4762",
"pP 	c #265476",
"qP 	c #2A5B7E",
"rP 	c #193A50",
"sP 	c #1E4965",
"tP 	c #214C6A",
"uP 	c #23526F",
"vP 	c #2E698E",
"wP 	c #20465D",
"xP 	c #1D4D68",
"yP 	c #194058",
"zP 	c #183C55",
"AP 	c #132B3B",
"BP 	c #132E41",
"CP 	c #11324A",
"DP 	c #133045",
"EP 	c #0E2535",
"FP 	c #0D2639",
"GP 	c #112A3D",
"HP 	c #0C1F2B",
"IP 	c #0E1F2A",
"JP 	c #0D1E2A",
"KP 	c #0E293C",
"LP 	c #0E2E42",
"MP 	c #133D59",
"NP 	c #194969",
"OP 	c #1E5278",
"PP 	c #225B81",
"QP 	c #215B80",
"RP 	c #2D73A1",
"SP 	c #26628D",
"TP 	c #1F5174",
"UP 	c #1B4765",
"VP 	c #193F5A",
"WP 	c #183A56",
"XP 	c #143B58",
"YP 	c #173F61",
"ZP 	c #183F60",
"`P 	c #3E617F",
" Q 	c #235479",
".Q 	c #23577B",
"+Q 	c #2D688F",
"@Q 	c #396F94",
"#Q 	c #24516B",
"$Q 	c #265A76",
"%Q 	c #276387",
"&Q 	c #4A8AB3",
"*Q 	c #2E78AA",
"=Q 	c #3B7BA2",
"-Q 	c #2F7196",
";Q 	c #296A8E",
">Q 	c #27668A",
",Q 	c #2C6488",
"'Q 	c #22587A",
")Q 	c #153852",
"!Q 	c #13334C",
"~Q 	c #102D45",
"{Q 	c #0D273F",
"]Q 	c #041E3A",
"^Q 	c #0D233E",
"/Q 	c #0C1F32",
"(Q 	c #0D2233",
"_Q 	c #0B2234",
":Q 	c #0C2537",
"<Q 	c #0C2738",
"[Q 	c #0D2A3F",
"}Q 	c #0E2F46",
"|Q 	c #103149",
"1Q 	c #183D57",
"2Q 	c #173D59",
"3Q 	c #163D55",
"4Q 	c #173A4C",
"5Q 	c #1B3C50",
"6Q 	c #2A4A5B",
"7Q 	c #294A5B",
"8Q 	c #1C3F51",
"9Q 	c #1A3E51",
"0Q 	c #17394B",
"aQ 	c #335A77",
"bQ 	c #27516E",
"cQ 	c #16364B",
"dQ 	c #153548",
"eQ 	c #193A51",
"fQ 	c #2E648A",
"gQ 	c #20506F",
"hQ 	c #285A7A",
"iQ 	c #1E4C68",
"jQ 	c #1A3F57",
"kQ 	c #14384E",
"lQ 	c #112F40",
"mQ 	c #112E40",
"nQ 	c #163F58",
"oQ 	c #122B41",
"pQ 	c #0C2739",
"qQ 	c #0F2A3D",
"rQ 	c #0F2636",
"sQ 	c #0F222F",
"tQ 	c #0E222F",
"uQ 	c #102B3C",
"vQ 	c #113147",
"wQ 	c #183F5B",
"xQ 	c #194667",
"yQ 	c #1F4C6F",
"zQ 	c #164465",
"AQ 	c #1C4D6C",
"BQ 	c #256086",
"CQ 	c #286891",
"DQ 	c #337099",
"EQ 	c #26618C",
"FQ 	c #26597F",
"GQ 	c #1B486B",
"HQ 	c #1E496D",
"IQ 	c #1E476A",
"JQ 	c #193C59",
"KQ 	c #153955",
"LQ 	c #1A4061",
"MQ 	c #193F60",
"NQ 	c #305473",
"OQ 	c #254962",
"PQ 	c #1F4A66",
"QQ 	c #407091",
"RQ 	c #25678D",
"SQ 	c #2A698F",
"TQ 	c #23536E",
"UQ 	c #265876",
"VQ 	c #3A6E94",
"WQ 	c #2B72A1",
"XQ 	c #3882B1",
"YQ 	c #32779F",
"ZQ 	c #2E7194",
"`Q 	c #2C6B8E",
" R 	c #266285",
".R 	c #265D82",
"+R 	c #1E4D6B",
"@R 	c #17405C",
"#R 	c #112F46",
"$R 	c #092139",
"%R 	c #031A37",
"&R 	c #051936",
"*R 	c #0F203B",
"=R 	c #0C1E30",
"-R 	c #0A1F31",
";R 	c #0A2133",
">R 	c #0C2235",
",R 	c #142B3D",
"'R 	c #0E2A3E",
")R 	c #0B2738",
"!R 	c #0D283B",
"~R 	c #0F3147",
"{R 	c #1A425D",
"]R 	c #193F56",
"^R 	c #163647",
"/R 	c #183645",
"(R 	c #183646",
"_R 	c #193D52",
":R 	c #204B69",
"<R 	c #194362",
"[R 	c #1B394E",
"}R 	c #285674",
"|R 	c #204762",
"1R 	c #275272",
"2R 	c #1D4C6C",
"3R 	c #204B64",
"4R 	c #17415A",
"5R 	c #113042",
"6R 	c #122E3C",
"7R 	c #143044",
"8R 	c #0E2A3D",
"9R 	c #183348",
"0R 	c #11293C",
"aR 	c #132C3E",
"bR 	c #0E2937",
"cR 	c #122B38",
"dR 	c #102C3C",
"eR 	c #123145",
"fR 	c #183E57",
"gR 	c #18405C",
"hR 	c #244D6D",
"iR 	c #1E4C6B",
"jR 	c #193F5B",
"kR 	c #1E4866",
"lR 	c #1F4C6D",
"mR 	c #215275",
"nR 	c #245678",
"oR 	c #1E5276",
"pR 	c #235880",
"qR 	c #1B4C6E",
"rR 	c #1C4869",
"sR 	c #183C56",
"tR 	c #15374F",
"uR 	c #265879",
"vR 	c #3A6D91",
"wR 	c #27668E",
"xR 	c #255F82",
"yR 	c #356589",
"zR 	c #24597B",
"AR 	c #2B688F",
"BR 	c #4080AA",
"CR 	c #3980AD",
"DR 	c #296E94",
"ER 	c #2B6F91",
"FR 	c #2C6283",
"GR 	c #235879",
"HR 	c #214F6E",
"IR 	c #1F4A67",
"JR 	c #153A54",
"KR 	c #0C283F",
"LR 	c #0B233B",
"MR 	c #09223B",
"NR 	c #021935",
"OR 	c #0D1F31",
"PR 	c #0D2234",
"QR 	c #142B3E",
"RR 	c #0F2A3F",
"SR 	c #193346",
"TR 	c #0B273A",
"UR 	c #0D2839",
"VR 	c #0F2B3F",
"WR 	c #143953",
"XR 	c #16384F",
"YR 	c #163447",
"ZR 	c #132F3D",
"`R 	c #112C3A",
" S 	c #163444",
".S 	c #143344",
"+S 	c #1B4259",
"@S 	c #1E445F",
"#S 	c #163042",
"$S 	c #193445",
"%S 	c #1A3345",
"&S 	c #163140",
"*S 	c #19394F",
"=S 	c #1D425C",
"-S 	c #1C486A",
";S 	c #2F5D7F",
">S 	c #1D4965",
",S 	c #1D4866",
"'S 	c #184460",
")S 	c #1D455D",
"!S 	c #19465F",
"~S 	c #163D5A",
"{S 	c #0F2C3B",
"]S 	c #112D42",
"^S 	c #133145",
"/S 	c #123950",
"(S 	c #102F42",
"_S 	c #0E2B3C",
":S 	c #102F45",
"<S 	c #113249",
"[S 	c #0F2C41",
"}S 	c #133248",
"|S 	c #16344A",
"1S 	c #133143",
"2S 	c #16384E",
"3S 	c #163B55",
"4S 	c #19445D",
"5S 	c #1D4765",
"6S 	c #1D4867",
"7S 	c #24597D",
"8S 	c #255C80",
"9S 	c #22567C",
"0S 	c #23557B",
"aS 	c #204E71",
"bS 	c #1E4969",
"cS 	c #1A4463",
"dS 	c #20465F",
"eS 	c #18374D",
"fS 	c #163348",
"gS 	c #1E455E",
"hS 	c #225272",
"iS 	c #255C7F",
"jS 	c #497597",
"kS 	c #3A759E",
"lS 	c #2A5F81",
"mS 	c #2A688D",
"nS 	c #31729A",
"oS 	c #3475A0",
"pS 	c #38769D",
"qS 	c #225B7B",
"rS 	c #205471",
"sS 	c #1F4D68",
"tS 	c #173E58",
"uS 	c #173A55",
"vS 	c #0C283E",
"wS 	c #082239",
"xS 	c #0B243F",
"yS 	c #0B1C2F",
"zS 	c #091E30",
"AS 	c #0A2032",
"BS 	c #0B2236",
"CS 	c #0B2436",
"DS 	c #0A263A",
"ES 	c #103348",
"FS 	c #112F42",
"GS 	c #102935",
"HS 	c #0E2734",
"IS 	c #0F2936",
"JS 	c #112B3A",
"KS 	c #112D3F",
"LS 	c #183F58",
"MS 	c #153442",
"NS 	c #173341",
"OS 	c #14313F",
"PS 	c #173144",
"QS 	c #173040",
"RS 	c #153042",
"SS 	c #1B4056",
"TS 	c #183D59",
"US 	c #1C4B6E",
"VS 	c #1D4766",
"WS 	c #245477",
"XS 	c #1B4561",
"YS 	c #284F6A",
"ZS 	c #163D51",
"`S 	c #143E58",
" T 	c #133246",
".T 	c #133348",
"+T 	c #153B53",
"@T 	c #142F40",
"#T 	c #193C53",
"$T 	c #14354D",
"%T 	c #1F415B",
"&T 	c #224866",
"*T 	c #1A4865",
"=T 	c #183C58",
"-T 	c #1C435E",
";T 	c #214D6D",
">T 	c #194A6B",
",T 	c #245277",
"'T 	c #205276",
")T 	c #214C70",
"!T 	c #24557A",
"~T 	c #204F6F",
"{T 	c #1D4B6A",
"]T 	c #1A4461",
"^T 	c #1E496C",
"/T 	c #1E4A6C",
"(T 	c #1A384E",
"_T 	c #173347",
":T 	c #193B50",
"<T 	c #265777",
"[T 	c #255A7C",
"}T 	c #21577B",
"|T 	c #25587B",
"1T 	c #29607D",
"2T 	c #28688E",
"3T 	c #3F82AC",
"4T 	c #337AA4",
"5T 	c #3D7298",
"6T 	c #2A6080",
"7T 	c #153850",
"8T 	c #11304A",
"9T 	c #102F47",
"0T 	c #0B273F",
"aT 	c #09233B",
"bT 	c #051F3B",
"cT 	c #132741",
"dT 	c #10203D",
"eT 	c #091B2D",
"fT 	c #091D2E",
"gT 	c #091F30",
"hT 	c #0F2335",
"iT 	c #0B2235",
"jT 	c #152B3E",
"kT 	c #132D40",
"lT 	c #0C293B",
"mT 	c #0F2C40",
"nT 	c #113148",
"oT 	c #112F43",
"pT 	c #0F2C3F",
"qT 	c #0F2839",
"rT 	c #0E2735",
"sT 	c #0D2532",
"tT 	c #172E3C",
"uT 	c #1F445E",
"vT 	c #132F3C",
"wT 	c #162F44",
"xT 	c #163347",
"yT 	c #17354A",
"zT 	c #18364C",
"AT 	c #1F4D6F",
"BT 	c #2F6186",
"CT 	c #27587D",
"DT 	c #285A7E",
"ET 	c #1C425E",
"FT 	c #17445C",
"GT 	c #18415A",
"HT 	c #21465E",
"IT 	c #194158",
"JT 	c #1E4058",
"KT 	c #112D45",
"LT 	c #0F2939",
"MT 	c #143753",
"NT 	c #15405C",
"OT 	c #264F6E",
"PT 	c #1D4463",
"QT 	c #1C4460",
"RT 	c #1C4D71",
"ST 	c #2D6286",
"TT 	c #1F5379",
"UT 	c #1C4B6B",
"VT 	c #1F4C69",
"WT 	c #1F4A6A",
"XT 	c #204B6A",
"YT 	c #225274",
"ZT 	c #1F4E70",
"`T 	c #26577D",
" U 	c #225780",
".U 	c #255881",
"+U 	c #23547A",
"@U 	c #1B3A4E",
"#U 	c #376280",
"$U 	c #205074",
"%U 	c #244F67",
"&U 	c #295E7B",
"*U 	c #29688E",
"=U 	c #33719A",
"-U 	c #2C6D93",
";U 	c #204D66",
">U 	c #163E57",
",U 	c #143651",
"'U 	c #0E2F49",
")U 	c #09243C",
"!U 	c #07213B",
"~U 	c #051F3A",
"{U 	c #06203C",
"]U 	c #021835",
"^U 	c #021936",
"/U 	c #061A34",
"(U 	c #0F1F3A",
"_U 	c #081D2E",
":U 	c #081E2F",
"<U 	c #0C2032",
"[U 	c #0E263A",
"}U 	c #0B2437",
"|U 	c #10293C",
"1U 	c #132C40",
"2U 	c #0E283B",
"3U 	c #0F2D43",
"4U 	c #0E3047",
"5U 	c #113047",
"6U 	c #102F44",
"7U 	c #122F44",
"8U 	c #0F2A3B",
"9U 	c #0E2838",
"0U 	c #0E2432",
"aU 	c #122834",
"bU 	c #0E2639",
"cU 	c #13334B",
"dU 	c #17384B",
"eU 	c #132D3D",
"fU 	c #122938",
"gU 	c #142C3B",
"hU 	c #153044",
"iU 	c #183447",
"jU 	c #19354B",
"kU 	c #214F72",
"lU 	c #245984",
"mU 	c #2A618A",
"nU 	c #22557D",
"oU 	c #2D5C7F",
"pU 	c #1F4E6E",
"qU 	c #1B435D",
"rU 	c #1B4E72",
"sU 	c #245374",
"tU 	c #16384C",
"uU 	c #143549",
"vU 	c #11303F",
"wU 	c #163C55",
"xU 	c #163C59",
"yU 	c #123247",
"zU 	c #172F42",
"AU 	c #11324B",
"BU 	c #183E5C",
"CU 	c #1A3F5D",
"DU 	c #163B58",
"EU 	c #1B425F",
"FU 	c #1E4C6D",
"GU 	c #1E4B6F",
"HU 	c #1A466A",
"IU 	c #1E4D6E",
"JU 	c #1B4C6D",
"KU 	c #24577A",
"LU 	c #1C4D6E",
"MU 	c #285C83",
"NU 	c #23557C",
"OU 	c #23567E",
"PU 	c #266592",
"QU 	c #4D7699",
"RU 	c #366489",
"SU 	c #184260",
"TU 	c #183A52",
"UU 	c #37688A",
"VU 	c #1E5780",
"WU 	c #214D6F",
"XU 	c #234C69",
"YU 	c #2D678A",
"ZU 	c #4281A9",
"`U 	c #28668E",
" V 	c #2A6180",
".V 	c #255872",
"+V 	c #23536C",
"@V 	c #1E4A69",
"#V 	c #174260",
"$V 	c #18415D",
"%V 	c #143954",
"&V 	c #0F2E47",
"*V 	c #0B2841",
"=V 	c #08243D",
"-V 	c #021A37",
";V 	c #011836",
">V 	c #011834",
",V 	c #031731",
"'V 	c #0E1F38",
")V 	c #0A1B2D",
"!V 	c #061B2C",
"~V 	c #081C2E",
"{V 	c #092134",
"]V 	c #092133",
"^V 	c #0B2537",
"/V 	c #1B354B",
"(V 	c #244158",
"_V 	c #26445B",
":V 	c #0F314A",
"<V 	c #153249",
"[V 	c #102C3F",
"}V 	c #0E2634",
"|V 	c #0E2636",
"1V 	c #102A3B",
"2V 	c #102E40",
"3V 	c #123040",
"4V 	c #112838",
"5V 	c #1F3B4F",
"6V 	c #2A4861",
"7V 	c #173B54",
"8V 	c #355775",
"9V 	c #1C4565",
"0V 	c #1E4867",
"aV 	c #235981",
"bV 	c #275C85",
"cV 	c #1D4B6C",
"dV 	c #346E94",
"eV 	c #1F4E6C",
"fV 	c #37759B",
"gV 	c #1E5475",
"hV 	c #153348",
"iV 	c #102E3D",
"jV 	c #133142",
"kV 	c #143F5D",
"lV 	c #133242",
"mV 	c #193951",
"nV 	c #173951",
"oV 	c #153953",
"pV 	c #1B4361",
"qV 	c #244E6D",
"rV 	c #194769",
"sV 	c #1A4669",
"tV 	c #204F71",
"uV 	c #1C4E74",
"vV 	c #27577A",
"wV 	c #1F4C70",
"xV 	c #1E4769",
"yV 	c #1C415D",
"zV 	c #173646",
"AV 	c #2F5C7F",
"BV 	c #26587E",
"CV 	c #346990",
"DV 	c #275E86",
"EV 	c #265475",
"FV 	c #1B3B52",
"GV 	c #356487",
"HV 	c #376082",
"IV 	c #214E6C",
"JV 	c #315F7E",
"KV 	c #295A7A",
"LV 	c #275D81",
"MV 	c #31729E",
"NV 	c #316D99",
"OV 	c #265B77",
"PV 	c #1F4E65",
"QV 	c #1D475E",
"RV 	c #214C69",
"SV 	c #123B57",
"TV 	c #12344D",
"UV 	c #0E2E46",
"VV 	c #0C2A44",
"WV 	c #071C35",
"XV 	c #021831",
"YV 	c #0F1F38",
"ZV 	c #08192B",
"`V 	c #071A2D",
" W 	c #091C2F",
".W 	c #091D31",
"+W 	c #213347",
"@W 	c #172A3D",
"#W 	c #0A2034",
"$W 	c #0A2335",
"%W 	c #183248",
"&W 	c #0D2D46",
"*W 	c #122F46",
"=W 	c #0C2332",
"-W 	c #0D2231",
";W 	c #102939",
">W 	c #102B39",
",W 	c #112736",
"'W 	c #16364C",
")W 	c #19415B",
"!W 	c #214A6A",
"~W 	c #1E496A",
"{W 	c #255377",
"]W 	c #255B82",
"^W 	c #2A6087",
"/W 	c #346F99",
"(W 	c #3879A2",
"_W 	c #276088",
":W 	c #235D84",
"<W 	c #256085",
"[W 	c #245B81",
"}W 	c #1C4C6B",
"|W 	c #1C4762",
"1W 	c #183E54",
"2W 	c #133043",
"3W 	c #15374B",
"4W 	c #13374D",
"5W 	c #173C58",
"6W 	c #1A4C6E",
"7W 	c #163F5D",
"8W 	c #112D3D",
"9W 	c #113248",
"0W 	c #143B59",
"aW 	c #255072",
"bW 	c #184363",
"cW 	c #194463",
"dW 	c #183E5A",
"eW 	c #152F3E",
"fW 	c #173443",
"gW 	c #1D3C4E",
"hW 	c #1B3B4E",
"iW 	c #3A6687",
"jW 	c #32688B",
"kW 	c #1C4964",
"lW 	c #1B4862",
"mW 	c #245373",
"nW 	c #245677",
"oW 	c #235579",
"pW 	c #3C7198",
"qW 	c #346F98",
"rW 	c #2F6A91",
"sW 	c #30658A",
"tW 	c #25566F",
"uW 	c #316182",
"vW 	c #184462",
"wW 	c #18435F",
"xW 	c #173B55",
"yW 	c #133650",
"zW 	c #10324D",
"AW 	c #0D2741",
"BW 	c #11283F",
"CW 	c #05213B",
"DW 	c #031E37",
"EW 	c #021B35",
"FW 	c #011A33",
"GW 	c #021631",
"HW 	c #041832",
"IW 	c #091B2F",
"JW 	c #071B2F",
"KW 	c #0C2136",
"LW 	c #091F35",
"MW 	c #081F34",
"NW 	c #082033",
"OW 	c #092235",
"PW 	c #0B2335",
"QW 	c #0C2639",
"RW 	c #0E273B",
"SW 	c #0D2A3D",
"TW 	c #19364F",
"UW 	c #213D57",
"VW 	c #1B374F",
"WW 	c #243A50",
"XW 	c #132C3F",
"YW 	c #0D2738",
"ZW 	c #0D2533",
"`W 	c #0C2231",
" X 	c #0B212E",
".X 	c #0A202D",
"+X 	c #102C3E",
"@X 	c #33495B",
"#X 	c #173145",
"$X 	c #1F425E",
"%X 	c #385E7F",
"&X 	c #224F72",
"*X 	c #224F71",
"=X 	c #29638D",
"-X 	c #3478A5",
";X 	c #2C709E",
">X 	c #2E6F9A",
",X 	c #326991",
"'X 	c #184463",
")X 	c #194560",
"!X 	c #1E4D6A",
"~X 	c #245474",
"{X 	c #194866",
"]X 	c #14364E",
"^X 	c #163E58",
"/X 	c #153B59",
"(X 	c #1D4767",
"_X 	c #163B56",
":X 	c #234862",
"<X 	c #153448",
"[X 	c #183443",
"}X 	c #143241",
"|X 	c #183544",
"1X 	c #1A3A4B",
"2X 	c #245876",
"3X 	c #245672",
"4X 	c #1A425A",
"5X 	c #244C69",
"6X 	c #204A65",
"7X 	c #1B405B",
"8X 	c #1E425E",
"9X 	c #255879",
"0X 	c #265C83",
"aX 	c #265E83",
"bX 	c #2D6288",
"cX 	c #2E6185",
"dX 	c #255876",
"eX 	c #346382",
"fX 	c #235677",
"gX 	c #1A4662",
"hX 	c #18405A",
"iX 	c #123550",
"jX 	c #10354F",
"kX 	c #163854",
"lX 	c #092B47",
"mX 	c #082743",
"nX 	c #06223D",
"oX 	c #0D233C",
"pX 	c #021A35",
"qX 	c #011833",
"rX 	c #011733",
"sX 	c #001531",
"tX 	c #041833",
"uX 	c #071B2E",
"vX 	c #081B2E",
"wX 	c #0A1D31",
"xX 	c #091E33",
"yX 	c #0D2237",
"zX 	c #0B2238",
"AX 	c #072034",
"BX 	c #0A2235",
"CX 	c #0A2234",
"DX 	c #0D273A",
"EX 	c #213D55",
"FX 	c #1E394F",
"GX 	c #18354C",
"HX 	c #143046",
"IX 	c #0F283A",
"JX 	c #0C222F",
"KX 	c #0C212E",
"LX 	c #0F2635",
"MX 	c #0F2B3D",
"NX 	c #234A68",
"OX 	c #27648E",
"PX 	c #316E98",
"QX 	c #306B95",
"RX 	c #2B5E83",
"SX 	c #1D465F",
"TX 	c #1A435C",
"UX 	c #184663",
"VX 	c #2D5F84",
"WX 	c #275C81",
"XX 	c #1C4A64",
"YX 	c #275675",
"ZX 	c #205174",
"`X 	c #1C4A6A",
" Y 	c #1A3A53",
".Y 	c #13354C",
"+Y 	c #194461",
"@Y 	c #173F5B",
"#Y 	c #1B4362",
"$Y 	c #174563",
"%Y 	c #295778",
"&Y 	c #255171",
"*Y 	c #1A435F",
"=Y 	c #18405D",
"-Y 	c #214764",
";Y 	c #183F5A",
">Y 	c #1D4763",
",Y 	c #1C4965",
"'Y 	c #25506E",
")Y 	c #163242",
"!Y 	c #183849",
"~Y 	c #183749",
"{Y 	c #24516C",
"]Y 	c #1E4D69",
"^Y 	c #316382",
"/Y 	c #326283",
"(Y 	c #204865",
"_Y 	c #19445F",
":Y 	c #214B69",
"<Y 	c #1C4564",
"[Y 	c #1B4463",
"}Y 	c #295E83",
"|Y 	c #255779",
"1Y 	c #265A7F",
"2Y 	c #2C648D",
"3Y 	c #23567C",
"4Y 	c #225473",
"5Y 	c #2F5F7C",
"6Y 	c #22506E",
"7Y 	c #1C3F5B",
"8Y 	c #21415D",
"9Y 	c #203E59",
"0Y 	c #183049",
"aY 	c #09233C",
"bY 	c #051F38",
"cY 	c #021B36",
"dY 	c #001732",
"eY 	c #081A2D",
"fY 	c #081A2E",
"gY 	c #061C31",
"hY 	c #071E33",
"iY 	c #092135",
"jY 	c #072135",
"kY 	c #092237",
"lY 	c #092337",
"mY 	c #0A2135",
"nY 	c #132B3F",
"oY 	c #10293E",
"pY 	c #0D293D",
"qY 	c #0E2B3F",
"rY 	c #1A374B",
"sY 	c #2A5063",
"tY 	c #264B5D",
"uY 	c #0D2637",
"vY 	c #1A3344",
"wY 	c #112A39",
"xY 	c #0D2434",
"yY 	c #2F4659",
"zY 	c #122F45",
"AY 	c #1F4561",
"BY 	c #224A66",
"CY 	c #1D3F56",
"DY 	c #1B4159",
"EY 	c #295C80",
"FY 	c #24547A",
"GY 	c #1F4A68",
"HY 	c #1C4059",
"IY 	c #1E465E",
"JY 	c #20516F",
"KY 	c #1D4D6D",
"LY 	c #2D6486",
"MY 	c #1F5274",
"NY 	c #1D5175",
"OY 	c #235B80",
"PY 	c #215073",
"QY 	c #164461",
"RY 	c #153856",
"SY 	c #1B3D55",
"TY 	c #153951",
"UY 	c #143448",
"VY 	c #133446",
"WY 	c #14374D",
"XY 	c #153A53",
"YY 	c #255374",
"ZY 	c #17415E",
"`Y 	c #123751",
" Z 	c #1A435E",
".Z 	c #1A425B",
"+Z 	c #163749",
"@Z 	c #153542",
"#Z 	c #15323F",
"$Z 	c #173645",
"%Z 	c #1A3B4D",
"&Z 	c #39698A",
"*Z 	c #245371",
"=Z 	c #204E6B",
"-Z 	c #1C4662",
";Z 	c #1F4963",
">Z 	c #1D4661",
",Z 	c #235476",
"'Z 	c #2C5F82",
")Z 	c #225577",
"!Z 	c #26597C",
"~Z 	c #215174",
"{Z 	c #2B6087",
"]Z 	c #245576",
"^Z 	c #1F4964",
"/Z 	c #1A435D",
"(Z 	c #163C57",
"_Z 	c #0F334F",
":Z 	c #0D3451",
"<Z 	c #0D2F4A",
"[Z 	c #07243E",
"}Z 	c #0B213B",
"|Z 	c #011633",
"1Z 	c #061B30",
"2Z 	c #071D31",
"3Z 	c #072035",
"4Z 	c #072339",
"5Z 	c #132D43",
"6Z 	c #0A2337",
"7Z 	c #192F42",
"8Z 	c #132C43",
"9Z 	c #1C3245",
"0Z 	c #0D2A3E",
"aZ 	c #123149",
"bZ 	c #2A5067",
"cZ 	c #2C5167",
"dZ 	c #1A2F40",
"eZ 	c #223D53",
"fZ 	c #133147",
"gZ 	c #1C3C55",
"hZ 	c #1A4158",
"iZ 	c #1E435A",
"jZ 	c #1C435C",
"kZ 	c #2A6288",
"lZ 	c #295E80",
"mZ 	c #1B4E71",
"nZ 	c #2A5A7B",
"oZ 	c #1D4B6E",
"pZ 	c #27526F",
"qZ 	c #153A52",
"rZ 	c #183C54",
"sZ 	c #17374C",
"tZ 	c #143141",
"uZ 	c #133044",
"vZ 	c #13354E",
"wZ 	c #1F425B",
"xZ 	c #133448",
"yZ 	c #285170",
"zZ 	c #16405F",
"AZ 	c #204662",
"BZ 	c #244C63",
"CZ 	c #183A4B",
"DZ 	c #163440",
"EZ 	c #14323D",
"FZ 	c #15313F",
"GZ 	c #183547",
"HZ 	c #1E4963",
"IZ 	c #214D67",
"JZ 	c #1A445C",
"KZ 	c #275677",
"LZ 	c #2B5B7E",
"MZ 	c #204A6A",
"NZ 	c #1D445E",
"OZ 	c #1B425C",
"PZ 	c #173E5A",
"QZ 	c #173F5A",
"RZ 	c #133550",
"SZ 	c #0F3350",
"TZ 	c #1B3852",
"UZ 	c #0B2B44",
"VZ 	c #08223C",
"WZ 	c #05203A",
"XZ 	c #061B36",
"YZ 	c #021733",
"ZZ 	c #011532",
"`Z 	c #011632",
" ` 	c #07192C",
".` 	c #091A2E",
"+` 	c #071A2E",
"@` 	c #081B2F",
"#` 	c #071C31",
"$` 	c #0F2238",
"%` 	c #0C243B",
"&` 	c #11293F",
"*` 	c #173045",
"=` 	c #0B263B",
"-` 	c #172B3F",
";` 	c #163046",
">` 	c #1C354B",
",` 	c #092336",
"'` 	c #0C2233",
")` 	c #293F4E",
"!` 	c #0E283A",
"~` 	c #2D4B62",
"{` 	c #193C5A",
"]` 	c #1D425F",
"^` 	c #173A50",
"/` 	c #1D4157",
"(` 	c #20435B",
"_` 	c #28526F",
":` 	c #204E6C",
"<` 	c #214F6B",
"[` 	c #1F4C68",
"}` 	c #1F4560",
"|` 	c #1D4862",
"1` 	c #1D4B66",
"2` 	c #1F4C6B",
"3` 	c #255777",
"4` 	c #1E4F6E",
"5` 	c #256188",
"6` 	c #1D557A",
"7` 	c #184569",
"8` 	c #184766",
"9` 	c #15374A",
"0` 	c #122C39",
"a` 	c #18425F",
"b` 	c #284F70",
"c` 	c #14354A",
"d` 	c #17394A",
"e` 	c #153441",
"f` 	c #13303B",
"g` 	c #16333E",
"h` 	c #234F6B",
"i` 	c #20506B",
"j` 	c #1B4963",
"k` 	c #1A4259",
"l` 	c #1B3F54",
"m` 	c #244C67",
"n` 	c #205170",
"o` 	c #205272",
"p` 	c #224F6E",
"q` 	c #1C425F",
"r` 	c #1B4461",
"s` 	c #123650",
"t` 	c #16314A",
"u` 	c #0A2D49",
"v` 	c #17324C",
"w` 	c #061F39",
"x` 	c #0A1D39",
"y` 	c #24364F",
"z` 	c #021531",
"A` 	c #021533",
"B` 	c #021632",
"C` 	c #021532",
"D` 	c #08192D",
"E` 	c #081C30",
"F` 	c #081D32",
"G` 	c #092339",
"H` 	c #0A253A",
"I` 	c #0A263B",
"J` 	c #0A263C",
"K` 	c #0A2237",
"L` 	c #0F2D45",
"M` 	c #0C293F",
"N` 	c #1B3040",
"O` 	c #2C3F52",
"P` 	c #1F374A",
"Q` 	c #17354C",
"R` 	c #173956",
"S` 	c #26455F",
"T` 	c #11354F",
"U` 	c #315772",
"V` 	c #1B4761",
"W` 	c #255272",
"X` 	c #245878",
"Y` 	c #265D84",
"Z` 	c #2F6A90",
"`` 	c #30668D",
"  .	c #285F84",
". .	c #194662",
"+ .	c #19384C",
"@ .	c #183648",
"# .	c #173850",
"$ .	c #153649",
"% .	c #112D41",
"& .	c #14354B",
"* .	c #274862",
"= .	c #173E5D",
"- .	c #23435A",
"; .	c #133346",
"> .	c #142F3C",
", .	c #14303C",
"' .	c #152F3B",
") .	c #132E3A",
"! .	c #1E4A62",
"~ .	c #1B465F",
"{ .	c #193C50",
"] .	c #1A3C52",
"^ .	c #21516E",
"/ .	c #193D57",
"( .	c #193B54",
"_ .	c #13344F",
": .	c #0C2842",
"< .	c #0C2844",
"[ .	c #0B243E",
"} .	c #041B36",
"| .	c #061B37",
"1 .	c #041835",
"2 .	c #031532",
"3 .	c #011432",
"4 .	c #011533",
"5 .	c #07182C",
"6 .	c #061C32",
"7 .	c #071E34",
"8 .	c #10273B",
"9 .	c #0A2539",
"0 .	c #0C273D",
"a .	c #172E45",
"b .	c #172F46",
"c .	c #082234",
"d .	c #153047",
"e .	c #15324A",
"f .	c #0A2437",
"g .	c #253B4D",
"h .	c #1C3143",
"i .	c #0E2537",
"j .	c #10293D",
"k .	c #294863",
"l .	c #39546D",
"m .	c #1F3B54",
"n .	c #15364D",
"o .	c #274764",
"p .	c #1C415B",
"q .	c #1C3E54",
"r .	c #2B516F",
"s .	c #163A4B",
"t .	c #255776",
"u .	c #285B7E",
"v .	c #255376",
"w .	c #1E4A6A",
"x .	c #2C5F83",
"y .	c #1F5275",
"z .	c #1A3F5A",
"A .	c #143349",
"B .	c #1A3B53",
"C .	c #143245",
"D .	c #13344A",
"E .	c #193B5B",
"F .	c #14364F",
"G .	c #122D3B",
"H .	c #15313D",
"I .	c #132C39",
"J .	c #1E4661",
"K .	c #1A3A50",
"L .	c #193A4E",
"M .	c #1C4459",
"N .	c #193D59",
"O .	c #193A57",
"P .	c #1A3B55",
"Q .	c #1A3E5C",
"R .	c #1E405B",
"S .	c #133651",
"T .	c #0E2D48",
"U .	c #0A2841",
"V .	c #152B43",
"W .	c #051734",
"X .	c #041734",
"Y .	c #031633",
"Z .	c #07192D",
"` .	c #071B30",
" ..	c #091D32",
"...	c #071D32",
"+..	c #0A1F34",
"@..	c #092035",
"#..	c #10273C",
"$..	c #062235",
"%..	c #082338",
"&..	c #102B42",
"*..	c #172B43",
"=..	c #1A3047",
"-..	c #0A253B",
";..	c #0A273E",
">..	c #243E56",
",..	c #0C2438",
"'..	c #223445",
")..	c #0A2336",
"!..	c #314456",
"~..	c #182F42",
"{..	c #0E2637",
"]..	c #13334D",
"^..	c #13344E",
"/..	c #1A344C",
"(..	c #15344E",
"_..	c #143852",
":..	c #1E415C",
"<..	c #20445F",
"[..	c #1A3D53",
"}..	c #20445C",
"|..	c #265271",
"1..	c #1C4254",
"2..	c #2A5E82",
"3..	c #255378",
"4..	c #1D4662",
"5..	c #265574",
"6..	c #2B597E",
"7..	c #1E4B6E",
"8..	c #193C57",
"9..	c #234B6A",
"0..	c #183549",
"a..	c #14354E",
"b..	c #334F6A",
"c..	c #1D3E59",
"d..	c #1B3A50",
"e..	c #153043",
"f..	c #395062",
"g..	c #132B38",
"h..	c #142B39",
"i..	c #163A4F",
"j..	c #143548",
"k..	c #173848",
"l..	c #143342",
"m..	c #14323F",
"n..	c #173548",
"o..	c #163B4D",
"p..	c #19394E",
"q..	c #1E425F",
"r..	c #163D59",
"s..	c #153857",
"t..	c #0F304A",
"u..	c #0F2E48",
"v..	c #071E39",
"w..	c #041834",
"x..	c #031734",
"y..	c #021633",
"z..	c #001432",
"A..	c #011431",
"B..	c #021432",
"C..	c #061A2E",
"D..	c #0A2035",
"E..	c #092036",
"F..	c #072136",
"G..	c #09233A",
"H..	c #142C43",
"I..	c #0B233C",
"J..	c #0A243B",
"K..	c #0B2338",
"L..	c #0B2840",
"M..	c #0D273B",
"N..	c #0C2538",
"O..	c #0A2132",
"P..	c #1E3850",
"Q..	c #0C263D",
"R..	c #0E2A41",
"S..	c #123450",
"T..	c #2C4C64",
"U..	c #163953",
"V..	c #17364C",
"W..	c #21435B",
"X..	c #326183",
"Y..	c #1A4565",
"Z..	c #254D68",
"`..	c #1A3D55",
" +.	c #306187",
".+.	c #2F5D81",
"++.	c #1D4963",
"@+.	c #1F4F6F",
"#+.	c #16374B",
"$+.	c #1E425A",
"%+.	c #15384F",
"&+.	c #193C54",
"*+.	c #2F4A5F",
"=+.	c #1A3B56",
"-+.	c #30465B",
";+.	c #1A3042",
">+.	c #122A3A",
",+.	c #112D40",
"'+.	c #163040",
")+.	c #122C3A",
"!+.	c #122835",
"~+.	c #132D3A",
"{+.	c #153344",
"]+.	c #163448",
"^+.	c #163648",
"/+.	c #143340",
"(+.	c #112D39",
"_+.	c #122F3D",
":+.	c #133140",
"<+.	c #1E445C",
"[+.	c #325572",
"}+.	c #153B58",
"|+.	c #14334B",
"1+.	c #153957",
"2+.	c #0D3251",
"3+.	c #19314C",
"4+.	c #0B233D",
"5+.	c #061935",
"6+.	c #071B36",
"7+.	c #081B36",
"8+.	c #011531",
"9+.	c #001331",
"0+.	c #06182C",
"a+.	c #06192E",
"b+.	c #061A2F",
"c+.	c #061B31",
"d+.	c #0A1F33",
"e+.	c #071E35",
"f+.	c #13273C",
"g+.	c #0A2137",
"h+.	c #14293F",
"i+.	c #14273C",
"j+.	c #172C40",
"k+.	c #0B243B",
"l+.	c #0F263B",
"m+.	c #192F43",
"n+.	c #0E283E",
"o+.	c #203343",
"p+.	c #1B3246",
"q+.	c #2C4154",
"r+.	c #283E56",
"s+.	c #193651",
"t+.	c #264058",
"u+.	c #284761",
"v+.	c #1E405E",
"w+.	c #1C3B54",
"x+.	c #133653",
"y+.	c #305572",
"z+.	c #1D4362",
"A+.	c #183C57",
"B+.	c #1B4C6A",
"C+.	c #53809D",
"D+.	c #2A5C80",
"E+.	c #345C79",
"F+.	c #1A455F",
"G+.	c #204D68",
"H+.	c #28506E",
"I+.	c #1A3B51",
"J+.	c #274158",
"K+.	c #19374E",
"L+.	c #19374C",
"M+.	c #23435D",
"N+.	c #18324A",
"O+.	c #122A3F",
"P+.	c #112537",
"Q+.	c #1B2D3B",
"R+.	c #0F202D",
"S+.	c #1E3442",
"T+.	c #0F2230",
"U+.	c #132733",
"V+.	c #132B3D",
"W+.	c #173549",
"X+.	c #15313E",
"Y+.	c #112C39",
"Z+.	c #16313E",
"`+.	c #13303F",
" @.	c #183F50",
".@.	c #0F2B44",
"+@.	c #0E324F",
"@@.	c #253D56",
"#@.	c #17314C",
"$@.	c #0C2440",
"%@.	c #061B34",
"&@.	c #031732",
"*@.	c #051833",
"=@.	c #011430",
"-@.	c #001430",
";@.	c #021430",
">@.	c #09182D",
",@.	c #08192F",
"'@.	c #081A30",
")@.	c #071A2F",
"!@.	c #0D2034",
"~@.	c #081E34",
"{@.	c #081E35",
"]@.	c #0A2037",
"^@.	c #12283D",
"/@.	c #0F263D",
"(@.	c #192B41",
"_@.	c #09253C",
":@.	c #0F283F",
"<@.	c #10283E",
"[@.	c #0D263C",
"}@.	c #0B2135",
"|@.	c #0A2033",
"1@.	c #0D2538",
"2@.	c #0F2C45",
"3@.	c #15314C",
"4@.	c #15324D",
"5@.	c #13314D",
"6@.	c #143754",
"7@.	c #163C5B",
"8@.	c #183A55",
"9@.	c #193A54",
"0@.	c #254D6C",
"a@.	c #234C6E",
"b@.	c #355A75",
"c@.	c #1C4765",
"d@.	c #336286",
"e@.	c #194D75",
"f@.	c #215075",
"g@.	c #2A526D",
"h@.	c #204763",
"i@.	c #305674",
"j@.	c #264D64",
"k@.	c #1A354B",
"l@.	c #163349",
"m@.	c #28475F",
"n@.	c #193954",
"o@.	c #163146",
"p@.	c #142D40",
"q@.	c #29415A",
"r@.	c #0F2333",
"s@.	c #0E202D",
"t@.	c #112430",
"u@.	c #0F232D",
"v@.	c #0E1F2C",
"w@.	c #0E212E",
"x@.	c #1F3A4F",
"y@.	c #29445A",
"z@.	c #122B3B",
"A@.	c #122D3C",
"B@.	c #142F3D",
"C@.	c #133245",
"D@.	c #153148",
"E@.	c #102B41",
"F@.	c #0E283F",
"G@.	c #0D273E",
"H@.	c #08203A",
"I@.	c #0B2139",
"J@.	c #051A33",
"K@.	c #041A33",
"L@.	c #031933",
"M@.	c #021630",
"N@.	c #01152F",
"O@.	c #00142F",
"P@.	c #00142E",
"Q@.	c #01142D",
"R@.	c #02142E",
"S@.	c #081E33",
"T@.	c #071C32",
"U@.	c #091E35",
"V@.	c #112539",
"W@.	c #14293D",
"X@.	c #132941",
"Y@.	c #20374C",
"Z@.	c #152C44",
"`@.	c #1D3045",
" #.	c #0E273D",
".#.	c #1A3046",
"+#.	c #0E273C",
"@#.	c #173148",
"##.	c #102C43",
"$#.	c #1F374D",
"%#.	c #30516C",
"&#.	c #234A67",
"*#.	c #1E4464",
"=#.	c #234E6F",
"-#.	c #396181",
";#.	c #224C6D",
">#.	c #224E70",
",#.	c #35688E",
"'#.	c #44779A",
")#.	c #2B597B",
"!#.	c #244B66",
"~#.	c #214D6A",
"{#.	c #244F6A",
"]#.	c #395B74",
"^#.	c #1A394F",
"/#.	c #1B3A52",
"(#.	c #19394D",
"_#.	c #152E42",
":#.	c #162E41",
"<#.	c #122C3E",
"[#.	c #224059",
"}#.	c #233E59",
"|#.	c #132A3C",
"1#.	c #122537",
"2#.	c #0E2029",
"3#.	c #0E1E2A",
"4#.	c #10222D",
"5#.	c #0D1E29",
"6#.	c #0D202D",
"7#.	c #213848",
"8#.	c #102636",
"9#.	c #1E394B",
"0#.	c #112E3E",
"a#.	c #102A3C",
"b#.	c #122D43",
"c#.	c #133047",
"d#.	c #102941",
"e#.	c #0C243A",
"f#.	c #0D263D",
"g#.	c #0C2038",
"h#.	c #04182F",
"i#.	c #051A31",
"j#.	c #091D36",
"k#.	c #0A1D3A",
"l#.	c #08172C",
"m#.	c #081B30",
"n#.	c #081C31",
"o#.	c #0A1F36",
"p#.	c #091F33",
"q#.	c #0B2136",
"r#.	c #082136",
"s#.	c #162E45",
"t#.	c #0B2439",
"u#.	c #1F3349",
"v#.	c #0E273E",
"w#.	c #10283F",
"x#.	c #14334E",
"y#.	c #26445D",
"z#.	c #1C4260",
"A#.	c #1B405E",
"B#.	c #1A3951",
"C#.	c #16354D",
"D#.	c #1A3D5B",
"E#.	c #1B4668",
"F#.	c #375A76",
"G#.	c #1B4465",
"H#.	c #2A5777",
"I#.	c #20567E",
"J#.	c #345D82",
"K#.	c #2D5776",
"L#.	c #1D4058",
"M#.	c #254A64",
"N#.	c #1F455D",
"O#.	c #1E3D53",
"P#.	c #1A394D",
"Q#.	c #153245",
"R#.	c #112434",
"S#.	c #213A4E",
"T#.	c #11273B",
"U#.	c #102536",
"V#.	c #0D212E",
"W#.	c #0E1E29",
"X#.	c #0D1D29",
"Y#.	c #0C1C28",
"Z#.	c #0E212A",
"`#.	c #0D1F2C",
" $.	c #0F232F",
".$.	c #102637",
"+$.	c #0F2637",
"@$.	c #112B3E",
"#$.	c #112A3F",
"$$.	c #102A3F",
"%$.	c #0E233A",
"&$.	c #0D233B",
"*$.	c #152942",
"=$.	c #091C33",
"-$.	c #05182F",
";$.	c #05162F",
">$.	c #041630",
",$.	c #152542",
"'$.	c #071936",
")$.	c #011530",
"!$.	c #01142E",
"~$.	c #03142E",
"{$.	c #07162B",
"]$.	c #07172C",
"^$.	c #07192F",
"/$.	c #081B31",
"($.	c #0B1F35",
"_$.	c #091C34",
":$.	c #091D34",
"<$.	c #0B2034",
"[$.	c #0D2236",
"}$.	c #0B243C",
"|$.	c #1A2F45",
"1$.	c #11263C",
"2$.	c #132B42",
"3$.	c #112941",
"4$.	c #0F273C",
"5$.	c #10293F",
"6$.	c #183149",
"7$.	c #142F47",
"8$.	c #0F283D",
"9$.	c #132D45",
"0$.	c #213D56",
"a$.	c #143956",
"b$.	c #2C465E",
"c$.	c #1F405B",
"d$.	c #1F4362",
"e$.	c #284D6E",
"f$.	c #1D4262",
"g$.	c #3B6884",
"h$.	c #3D6482",
"i$.	c #20496A",
"j$.	c #2F536E",
"k$.	c #1E3F51",
"l$.	c #1C3E52",
"m$.	c #204057",
"n$.	c #25465E",
"o$.	c #1A3849",
"p$.	c #1A3749",
"q$.	c #1C405A",
"r$.	c #152D3F",
"s$.	c #172F41",
"t$.	c #122536",
"u$.	c #10202F",
"v$.	c #112432",
"w$.	c #122434",
"x$.	c #12273A",
"y$.	c #142A3D",
"z$.	c #142A3C",
"A$.	c #0F212E",
"B$.	c #0F202B",
"C$.	c #11293B",
"D$.	c #10283B",
"E$.	c #102D44",
"F$.	c #0E283C",
"G$.	c #0F2539",
"H$.	c #0E2B40",
"I$.	c #142E48",
"J$.	c #092138",
"K$.	c #091E36",
"L$.	c #051932",
"M$.	c #0B1D35",
"N$.	c #061932",
"O$.	c #061632",
"P$.	c #0A1B37",
"Q$.	c #061834",
"R$.	c #00152F",
"S$.	c #00132E",
"T$.	c #01142F",
"U$.	c #00142D",
"V$.	c #00132C",
"W$.	c #02132D",
"X$.	c #08182E",
"Y$.	c #081D33",
"Z$.	c #061B33",
"`$.	c #071B34",
" %.	c #0A1E34",
".%.	c #091E32",
"+%.	c #092032",
"@%.	c #11273C",
"#%.	c #12273D",
"$%.	c #10283D",
"%%.	c #11293E",
"&%.	c #1A334C",
"*%.	c #102A41",
"=%.	c #24435D",
"-%.	c #123148",
";%.	c #15324B",
">%.	c #1E4262",
",%.	c #2D4D6B",
"'%.	c #2A506F",
")%.	c #244E6E",
"!%.	c #244965",
"~%.	c #204153",
"{%.	c #1F4054",
"]%.	c #1C3D53",
"^%.	c #1C3C50",
"/%.	c #1C3D4F",
"(%.	c #1D4259",
"_%.	c #1E4159",
":%.	c #172E42",
"<%.	c #15293B",
"[%.	c #152939",
"}%.	c #172C3E",
"|%.	c #112332",
"1%.	c #142230",
"2%.	c #0F1E2C",
"3%.	c #122534",
"4%.	c #16293C",
"5%.	c #132A3B",
"6%.	c #0E2133",
"7%.	c #1B2F41",
"8%.	c #243442",
"9%.	c #0E1C28",
"0%.	c #11202C",
"a%.	c #0C1C29",
"b%.	c #0F2232",
"c%.	c #122839",
"d%.	c #0F293D",
"e%.	c #13293C",
"f%.	c #2B445A",
"g%.	c #203B51",
"h%.	c #132A3F",
"i%.	c #1D364C",
"j%.	c #1A364C",
"k%.	c #0E263F",
"l%.	c #0C223B",
"m%.	c #0A2038",
"n%.	c #0F213B",
"o%.	c #0A1D37",
"p%.	c #061833",
"q%.	c #0C1C35",
"r%.	c #0D1D37",
"s%.	c #03142F",
"t%.	c #051630",
"u%.	c #011630",
"v%.	c #0A192E",
"w%.	c #09192E",
"x%.	c #08192E",
"y%.	c #0B1D33",
"z%.	c #091B31",
"A%.	c #0A1B30",
"B%.	c #405067",
"C%.	c #415168",
"D%.	c #0B1E33",
"E%.	c #092136",
"F%.	c #0D2539",
"G%.	c #0F253A",
"H%.	c #0D2338",
"I%.	c #0D243A",
"J%.	c #0F263C",
"K%.	c #10253A",
"L%.	c #11263B",
"M%.	c #122A43",
"N%.	c #142A3F",
"O%.	c #153045",
"P%.	c #213B53",
"Q%.	c #153149",
"R%.	c #152F44",
"S%.	c #152D40",
"T%.	c #162E43",
"U%.	c #163147",
"V%.	c #18364E",
"W%.	c #193B56",
"X%.	c #1E4361",
"Y%.	c #1B4666",
"Z%.	c #3A6382",
"`%.	c #1D4E73",
" &.	c #2A597C",
".&.	c #2B4E6A",
"+&.	c #264458",
"@&.	c #1C3A4B",
"#&.	c #1D3C4D",
"$&.	c #1D3B50",
"%&.	c #1C3D52",
"&&.	c #1F3F57",
"*&.	c #1F3F58",
"=&.	c #1F4055",
"-&.	c #1C394F",
";&.	c #1F415A",
">&.	c #1C3F56",
",&.	c #1D3E55",
"'&.	c #19364D",
")&.	c #173044",
"!&.	c #182D3E",
"~&.	c #18293A",
"{&.	c #142839",
"]&.	c #101F2B",
"^&.	c #101E29",
"/&.	c #0F1B27",
"(&.	c #11202E",
"_&.	c #142636",
":&.	c #2B3E4F",
"<&.	c #21354A",
"[&.	c #0E2132",
"}&.	c #0E1A25",
"|&.	c #0D1E2F",
"1&.	c #11202D",
"2&.	c #0E1F2B",
"3&.	c #0E1B28",
"4&.	c #0D1A28",
"5&.	c #0E1D2A",
"6&.	c #102230",
"7&.	c #102434",
"8&.	c #163045",
"9&.	c #213B51",
"0&.	c #102940",
"a&.	c #0F273B",
"b&.	c #102436",
"c&.	c #0E253A",
"d&.	c #173048",
"e&.	c #0C273F",
"f&.	c #0C2339",
"g&.	c #1C2B3F",
"h&.	c #535F74",
"i&.	c #081F35",
"j&.	c #0A1F38",
"k&.	c #061831",
"l&.	c #04162E",
"m&.	c #041730",
"n&.	c #071933",
"o&.	c #051730",
"p&.	c #03152E",
"q&.	c #01122C",
"r&.	c #03152F",
"s&.	c #08182C",
"t&.	c #0A1B32",
"u&.	c #0B1B30",
"v&.	c #091D30",
"w&.	c #0B1D32",
"x&.	c #081D31",
"y&.	c #0C2034",
"z&.	c #0C2237",
"A&.	c #0E2338",
"B&.	c #0D2438",
"C&.	c #142A40",
"D&.	c #1E3248",
"E&.	c #1B3046",
"F&.	c #162A3F",
"G&.	c #13283C",
"H&.	c #162D44",
"I&.	c #162D43",
"J&.	c #162F46",
"K&.	c #23364B",
"L&.	c #193146",
"M&.	c #15314A",
"N&.	c #263E54",
"O&.	c #17334C",
"P&.	c #1E3C57",
"Q&.	c #214462",
"R&.	c #335C7A",
"S&.	c #335D7C",
"T&.	c #215074",
"U&.	c #3E637E",
"V&.	c #1D4057",
"W&.	c #1E3E52",
"X&.	c #1B3D54",
"Y&.	c #264B68",
"Z&.	c #20435D",
"`&.	c #2C4F6A",
" *.	c #1F3E56",
".*.	c #1D3C53",
"+*.	c #204056",
"@*.	c #1C394D",
"#*.	c #1D384E",
"$*.	c #1D374E",
"%*.	c #1C364A",
"&*.	c #162937",
"**.	c #112130",
"=*.	c #142331",
"-*.	c #12202B",
";*.	c #111B26",
">*.	c #101924",
",*.	c #101923",
"'*.	c #101D2B",
")*.	c #0F1D2C",
"!*.	c #102236",
"~*.	c #2B3945",
"{*.	c #101925",
"]*.	c #2B3843",
"^*.	c #35414D",
"/*.	c #111C29",
"(*.	c #0E1927",
"_*.	c #0F1F2E",
":*.	c #0F1F2F",
"<*.	c #25394D",
"[*.	c #0E253B",
"}*.	c #1D2F43",
"|*.	c #0F2438",
"1*.	c #0E2235",
"2*.	c #10273D",
"3*.	c #1C354F",
"4*.	c #152B42",
"5*.	c #0B2137",
"6*.	c #0C1F35",
"7*.	c #1E2E42",
"8*.	c #071B32",
"9*.	c #081B32",
"0*.	c #0A1D36",
"a*.	c #091E39",
"b*.	c #0D1E36",
"c*.	c #061730",
"d*.	c #03142D",
"e*.	c #00112B",
"f*.	c #091A2F",
"g*.	c #0A1C33",
"h*.	c #081E32",
"i*.	c #0C2037",
"j*.	c #0D1D35",
"k*.	c #0B1D2F",
"l*.	c #0B1D31",
"m*.	c #0C1E32",
"n*.	c #0D2035",
"o*.	c #0D2337",
"p*.	c #102337",
"q*.	c #14283E",
"r*.	c #12263B",
"s*.	c #1D3247",
"t*.	c #142B41",
"u*.	c #162F47",
"v*.	c #152D44",
"w*.	c #182E43",
"x*.	c #162E42",
"y*.	c #163048",
"z*.	c #19354E",
"A*.	c #24415B",
"B*.	c #2B4B67",
"C*.	c #295270",
"D*.	c #1C405B",
"E*.	c #1D405A",
"F*.	c #1F3D53",
"G*.	c #2D4B63",
"H*.	c #264762",
"I*.	c #1E3D54",
"J*.	c #44657F",
"K*.	c #284C66",
"L*.	c #20435E",
"M*.	c #21445E",
"N*.	c #234864",
"O*.	c #1E3C52",
"P*.	c #1B354A",
"Q*.	c #1F364A",
"R*.	c #1E364C",
"S*.	c #1E394D",
"T*.	c #182C3E",
"U*.	c #1A2C3D",
"V*.	c #172838",
"W*.	c #14212F",
"X*.	c #141E29",
"Y*.	c #131B26",
"Z*.	c #121B26",
"`*.	c #111923",
" =.	c #0F1823",
".=.	c #2E3A46",
"+=.	c #101822",
"@=.	c #111925",
"#=.	c #202C3A",
"$=.	c #122131",
"%=.	c #162331",
"&=.	c #0F1A27",
"*=.	c #0F1927",
"==.	c #101A28",
"-=.	c #0F1C2A",
";=.	c #192836",
">=.	c #0F1E2E",
",=.	c #212F3E",
"'=.	c #0D1B2C",
")=.	c #101F31",
"!=.	c #102133",
"~=.	c #0E2032",
"{=.	c #12283F",
"]=.	c #1F3147",
"^=.	c #203348",
"/=.	c #162B42",
"(=.	c #0F253D",
"_=.	c #0B1E36",
":=.	c #0A1C34",
"<=.	c #0F1E34",
"[=.	c #071930",
"}=.	c #0A1B33",
"|=.	c #0A1A33",
"1=.	c #051831",
"2=.	c #04162F",
"3=.	c #05162E",
"4=.	c #05152E",
"5=.	c #02122C",
"6=.	c #01112B",
"7=.	c #01122B",
"8=.	c #03132D",
"9=.	c #081B33",
"0=.	c #0A1C36",
"a=.	c #0B1C34",
"b=.	c #0C1E34",
"c=.	c #0F1F37",
"d=.	c #0B1E30",
"e=.	c #0C1F31",
"f=.	c #0D1F33",
"g=.	c #0E2037",
"h=.	c #0E2135",
"i=.	c #0F2236",
"j=.	c #112337",
"k=.	c #132539",
"l=.	c #1A2D3F",
"m=.	c #182F44",
"n=.	c #1C344A",
"o=.	c #21354B",
"p=.	c #182F45",
"q=.	c #223549",
"r=.	c #182C40",
"s=.	c #192E43",
"t=.	c #1F3549",
"u=.	c #1A3146",
"v=.	c #1A3249",
"w=.	c #253E53",
"x=.	c #1A334B",
"y=.	c #233B50",
"z=.	c #1C3448",
"A=.	c #1C364B",
"B=.	c #1F3C53",
"C=.	c #213E55",
"D=.	c #213F55",
"E=.	c #223D54",
"F=.	c #274762",
"G=.	c #264965",
"H=.	c #27455E",
"I=.	c #20415D",
"J=.	c #335168",
"K=.	c #21415A",
"L=.	c #2A4F6A",
"M=.	c #23445C",
"N=.	c #1C2F40",
"O=.	c #1E3447",
"P=.	c #1B2E3F",
"Q=.	c #1B3044",
"R=.	c #1A2C3C",
"S=.	c #16222F",
"T=.	c #161F2A",
"U=.	c #151E2A",
"V=.	c #141C26",
"W=.	c #141A24",
"X=.	c #121822",
"Y=.	c #121924",
"Z=.	c #121823",
"`=.	c #111822",
" -.	c #121A24",
".-.	c #101A27",
"+-.	c #26323F",
"@-.	c #142131",
"#-.	c #121A2A",
"$-.	c #111B28",
"%-.	c #111A27",
"&-.	c #121B28",
"*-.	c #101C2A",
"=-.	c #0F1D2E",
"--.	c #0E1B2C",
";-.	c #0D192A",
">-.	c #0E1929",
",-.	c #0F1B2E",
"'-.	c #0F1F32",
")-.	c #112335",
"!-.	c #14263A",
"~-.	c #0E2136",
"{-.	c #16283D",
"]-.	c #0E2137",
"^-.	c #0D1F35",
"/-.	c #1A293E",
"(-.	c #10263F",
"_-.	c #0C1F37",
":-.	c #0C1D33",
"<-.	c #0A1B31",
"[-.	c #0A1831",
"}-.	c #07162F",
"|-.	c #07172E",
"1-.	c #06162D",
"2-.	c #04152D",
"3-.	c #06172F",
"4-.	c #03132C",
"5-.	c #02122B",
"6-.	c #01112A",
"7-.	c #081C32",
"8-.	c #0C1C34",
"9-.	c #0D1D32",
"0-.	c #0C1D30",
"a-.	c #0B1F32",
"b-.	c #0C1F34",
"c-.	c #0C1F36",
"d-.	c #10233C",
"e-.	c #1D2C41",
"f-.	c #0F2134",
"g-.	c #122336",
"h-.	c #15263A",
"i-.	c #132538",
"j-.	c #132435",
"k-.	c #142737",
"l-.	c #152839",
"m-.	c #1A2E40",
"n-.	c #162B3E",
"o-.	c #192B3E",
"p-.	c #182A3D",
"q-.	c #182B40",
"r-.	c #1D3145",
"s-.	c #192D41",
"t-.	c #203448",
"u-.	c #1B2C3D",
"v-.	c #1B2D3E",
"w-.	c #1A2C3E",
"x-.	c #1B2E3E",
"y-.	c #1C2E40",
"z-.	c #1C3142",
"A-.	c #21394B",
"B-.	c #1F3B51",
"C-.	c #2A4459",
"D-.	c #213B4F",
"E-.	c #213D51",
"F-.	c #234055",
"G-.	c #203C53",
"H-.	c #223C52",
"I-.	c #203C52",
"J-.	c #223F57",
"K-.	c #233E53",
"L-.	c #24435A",
"M-.	c #234359",
"N-.	c #254157",
"O-.	c #233D53",
"P-.	c #20364C",
"Q-.	c #203548",
"R-.	c #1E3143",
"S-.	c #1D2F41",
"T-.	c #1C2E3E",
"U-.	c #192635",
"V-.	c #192432",
"W-.	c #263240",
"X-.	c #1C2B40",
"Y-.	c #1F2939",
"Z-.	c #161F2E",
"`-.	c #2D3642",
" ;.	c #141D2B",
".;.	c #222B37",
"+;.	c #15202E",
"@;.	c #1E2A39",
"#;.	c #17202F",
"$;.	c #161F2F",
"%;.	c #131B2A",
"&;.	c #121A27",
"*;.	c #111927",
"=;.	c #151E2C",
"-;.	c #121927",
";;.	c #0F1E30",
">;.	c #233447",
",;.	c #283B4E",
"';.	c #111D2E",
");.	c #101829",
"!;.	c #0F1C30",
"~;.	c #1E2D40",
"{;.	c #132436",
"];.	c #122034",
"^;.	c #0E1E32",
"/;.	c #152538",
"(;.	c #0E2034",
"_;.	c #112239",
":;.	c #14243A",
"<;.	c #0D1C33",
"[;.	c #0A1A2F",
"};.	c #08182F",
"|;.	c #0A1A32",
"1;.	c #071830",
"2;.	c #07162C",
"3;.	c #05142D",
"4;.	c #05132D",
"5;.	c #04122C",
"6;.	c #09182E",
"7;.	c #0A192F",
"8;.	c #0A1A30",
"9;.	c #0C1D32",
"0;.	c #0B1C30",
"a;.	c #0D1E30",
"b;.	c #0B1D30",
"c;.	c #0D1E33",
"d;.	c #0E1F34",
"e;.	c #0F2036",
"f;.	c #112235",
"g;.	c #122335",
"h;.	c #102235",
"i;.	c #142536",
"j;.	c #142436",
"k;.	c #162738",
"l;.	c #162737",
"m;.	c #172A3B",
"n;.	c #18293B",
"o;.	c #192A3B",
"p;.	c #1B2B3D",
"q;.	c #1E2E3F",
"r;.	c #1E3042",
"s;.	c #1F3045",
"t;.	c #1D2C3D",
"u;.	c #1B293A",
"v;.	c #1C2B39",
"w;.	c #1C2A3A",
"x;.	c #1D2B3B",
"y;.	c #1E2C3B",
"z;.	c #203242",
"A;.	c #21384B",
"B;.	c #223A4D",
"C;.	c #22384A",
"D;.	c #253A4D",
"E;.	c #243C51",
"F;.	c #263C51",
"G;.	c #283E52",
"H;.	c #223B51",
"I;.	c #314C64",
"J;.	c #24425A",
"K;.	c #253F52",
"L;.	c #274256",
"M;.	c #253F54",
"N;.	c #24394C",
"O;.	c #24394D",
"P;.	c #253A4F",
"Q;.	c #213548",
"R;.	c #1F3141",
"S;.	c #203141",
"T;.	c #1C2C3D",
"U;.	c #25374B",
"V;.	c #344659",
"W;.	c #233042",
"X;.	c #1E2938",
"Y;.	c #182131",
"Z;.	c #161F2B",
"`;.	c #1A2431",
" >.	c #25303F",
".>.	c #192333",
"+>.	c #172231",
"@>.	c #182332",
"#>.	c #1C2B3D",
"$>.	c #151E2D",
"%>.	c #141A26",
"&>.	c #131A27",
"*>.	c #142132",
"=>.	c #283647",
"->.	c #1A283B",
";>.	c #121B2B",
">>.	c #111929",
",>.	c #111E2F",
"'>.	c #122236",
")>.	c #131F33",
"!>.	c #1B2639",
"~>.	c #152441",
"{>.	c #0D1E34",
"]>.	c #112036",
"^>.	c #0C1C31",
"/>.	c #0E1D32",
"(>.	c #0C1A2F",
"_>.	c #09172D",
":>.	c #05142C",
"<>.	c #05142B",
"[>.	c #06142D",
"}>.	c #02112A",
"|>.	c #07162D",
"1>.	c #08172E",
"2>.	c #09182F",
"3>.	c #0A1930",
"4>.	c #0B1A2F",
"5>.	c #0B1A30",
"6>.	c #0A1B2E",
"7>.	c #0C1C32",
"8>.	c #0E1E33",
"9>.	c #0D1E32",
"0>.	c #0E1F33",
"a>.	c #0F1E31",
"b>.	c #101F32",
"c>.	c #102134",
"d>.	c #112234",
"e>.	c #122235",
"f>.	c #1A2939",
"g>.	c #3A4753",
"h>.	c #172636",
"i>.	c #162536",
"j>.	c #192738",
"k>.	c #182839",
"l>.	c #1C2B3B",
"m>.	c #1C2939",
"n>.	c #1E2A3A",
"o>.	c #1F2B3D",
"p>.	c #1E2838",
"q>.	c #1D2837",
"r>.	c #1E2A38",
"s>.	c #1E2B38",
"t>.	c #212B3C",
"u>.	c #222C3C",
"v>.	c #233345",
"w>.	c #243547",
"x>.	c #27384A",
"y>.	c #253646",
"z>.	c #28394C",
"A>.	c #263748",
"B>.	c #253648",
"C>.	c #2E4960",
"D>.	c #283E4F",
"E>.	c #273C4F",
"F>.	c #273D50",
"G>.	c #283F52",
"H>.	c #26384A",
"I>.	c #253546",
"J>.	c #24384B",
"K>.	c #24374B",
"L>.	c #222E3E",
"M>.	c #212E3F",
"N>.	c #213145",
"O>.	c #2F3E52",
"P>.	c #1E2A3C",
"Q>.	c #202837",
"R>.	c #1C2231",
"S>.	c #1D232F",
"T>.	c #1B2130",
"U>.	c #232D3B",
"V>.	c #1C2230",
"W>.	c #1C2433",
"X>.	c #1C2434",
"Y>.	c #1A2433",
"Z>.	c #192535",
"`>.	c #171F2C",
" ,.	c #171C29",
".,.	c #161D29",
"+,.	c #151C29",
"@,.	c #141B28",
"#,.	c #141B29",
"$,.	c #151A29",
"%,.	c #141A29",
"&,.	c #121828",
"*,.	c #111A2B",
"=,.	c #121D2E",
"-,.	c #121E31",
";,.	c #172232",
">,.	c #141C2F",
",,.	c #132646",
"',.	c #101A2F",
"),.	c #11192C",
"!,.	c #0F1A2D",
"~,.	c #0B1A2C",
"{,.	c #0F1B31",
"],.	c #0A172C",
"^,.	c #08162B",
"/,.	c #07172B",
"(,.	c #06152C",
"_,.	c #03112B",
":,.	c #03122C",
"<,.	c #010E28",
"[,.	c #02102A",
"},.	c #0B1C31",
"|,.	c #344053",
"1,.	c #0F1E33",
"2,.	c #0D1E31",
"3,.	c #0F2034",
"4,.	c #0F1F34",
"5,.	c #0E1D31",
"6,.	c #101E31",
"7,.	c #121F31",
"8,.	c #112132",
"9,.	c #112033",
"0,.	c #132132",
"a,.	c #142333",
"b,.	c #172434",
"c,.	c #192634",
"d,.	c #1A2734",
"e,.	c #1B2837",
"f,.	c #1D2A3B",
"g,.	c #1A2739",
"h,.	c #243141",
"i,.	c #1D2936",
"j,.	c #1E2936",
"k,.	c #1E2837",
"l,.	c #1E2738",
"m,.	c #1F2739",
"n,.	c #1E2736",
"o,.	c #1F2938",
"p,.	c #202A38",
"q,.	c #212A36",
"r,.	c #222D3A",
"s,.	c #232D3D",
"t,.	c #252C3B",
"u,.	c #212F40",
"v,.	c #253749",
"w,.	c #273445",
"x,.	c #283344",
"y,.	c #293442",
"z,.	c #2A3646",
"A,.	c #2B3A4D",
"B,.	c #2B3C4E",
"C,.	c #293749",
"D,.	c #2A394A",
"E,.	c #2A3C4E",
"F,.	c #293C4F",
"G,.	c #2A3A4B",
"H,.	c #2A3747",
"I,.	c #2A3C4C",
"J,.	c #293A4B",
"K,.	c #29384A",
"L,.	c #2A3A4D",
"M,.	c #283A50",
"N,.	c #2A3B50",
"O,.	c #242F3F",
"P,.	c #243140",
"Q,.	c #232F40",
"R,.	c #232F42",
"S,.	c #222938",
"T,.	c #212734",
"U,.	c #212632",
"V,.	c #1F2633",
"W,.	c #273242",
"X,.	c #253042",
"Y,.	c #1F2533",
"Z,.	c #1D212E",
"`,.	c #1E2535",
" '.	c #1F2536",
".'.	c #1C2737",
"+'.	c #1B2230",
"@'.	c #1B202D",
"#'.	c #191D29",
"$'.	c #181D2A",
"%'.	c #171C2A",
"&'.	c #151A28",
"*'.	c #151A27",
"='.	c #161C2C",
"-'.	c #131A2C",
";'.	c #121B2D",
">'.	c #182337",
",'.	c #131D31",
"''.	c #142543",
")'.	c #5988AC",
"!'.	c #193252",
"~'.	c #0C1D3A",
"{'.	c #0D1930",
"]'.	c #0B192B",
"^'.	c #0B192E",
"/'.	c #111D31",
"('.	c #09152B",
"_'.	c #0A162C",
":'.	c #09162B",
"<'.	c #08152B",
"['.	c #07142B",
"}'.	c #07142C",
"|'.	c #06132C",
"1'.	c #06122C",
"2'.	c #112136",
"3'.	c #0C1D2F",
"4'.	c #111F32",
"5'.	c #111E30",
"6'.	c #132232",
"7'.	c #152233",
"8'.	c #1C2738",
"9'.	c #162232",
"0'.	c #172334",
"a'.	c #1A2631",
"b'.	c #1D2835",
"c'.	c #1F293A",
"d'.	c #1E2A3B",
"e'.	c #212B39",
"f'.	c #1F2834",
"g'.	c #212937",
"h'.	c #1F2636",
"i'.	c #282D3D",
"j'.	c #222836",
"k'.	c #252A37",
"l'.	c #242A38",
"m'.	c #262C39",
"n'.	c #272D39",
"o'.	c #262F3E",
"p'.	c #292F3A",
"q'.	c #283141",
"r'.	c #2A394E",
"s'.	c #323D4E",
"t'.	c #2F3D4C",
"u'.	c #2E3745",
"v'.	c #2D3441",
"w'.	c #2E3847",
"x'.	c #2E3A4C",
"y'.	c #2F3D4F",
"z'.	c #2E3C4C",
"A'.	c #324357",
"B'.	c #37495E",
"C'.	c #2F3949",
"D'.	c #2E3849",
"E'.	c #2C3747",
"F'.	c #2D384B",
"G'.	c #2D3748",
"H'.	c #2B3748",
"I'.	c #33455A",
"J'.	c #384B61",
"K'.	c #2E3E54",
"L'.	c #2B394D",
"M'.	c #293343",
"N'.	c #2C3543",
"O'.	c #262A38",
"P'.	c #292D3B",
"Q'.	c #242835",
"R'.	c #252833",
"S'.	c #232734",
"T'.	c #232836",
"U'.	c #232431",
"V'.	c #21222D",
"W'.	c #20222E",
"X'.	c #212432",
"Y'.	c #1E2331",
"Z'.	c #202634",
"`'.	c #1D202D",
" ).	c #1C1E2A",
".).	c #1C1D2A",
"+).	c #191C28",
"@).	c #1A1B28",
"#).	c #1A1C29",
"$).	c #181C2A",
"%).	c #181B2B",
"&).	c #1A2030",
"*).	c #161D2C",
"=).	c #1C2534",
"-).	c #151C2D",
";).	c #141B2F",
">).	c #141933",
",).	c #1A3858",
"').	c #091930",
")).	c #10182B",
"!).	c #12192C",
"~).	c #0F182B",
"{).	c #0C172D",
"]).	c #0D162C",
"^).	c #0B152A",
"/).	c #0A1529",
"().	c #091629",
"_).	c #08142A",
":).	c #071329",
"<).	c #07132B",
"[).	c #051129",
"}).	c #06142B",
"|).	c #05132A",
"1).	c #041229",
"2).	c #031129",
"3).	c #010F27",
"4).	c #08172D",
"5).	c #0C1B30",
"6).	c #142438",
"7).	c #121F30",
"8).	c #132031",
"9).	c #131F2F",
"0).	c #162132",
"a).	c #192334",
"b).	c #182434",
"c).	c #1B2334",
"d).	c #1B2432",
"e).	c #1D2332",
"f).	c #1D2432",
"g).	c #1D2535",
"h).	c #1D2735",
"i).	c #202735",
"j).	c #222735",
"k).	c #232736",
"l).	c #242836",
"m).	c #262937",
"n).	c #262B37",
"o).	c #272A37",
"p).	c #2A2D39",
"q).	c #2A2D38",
"r).	c #2B2D38",
"s).	c #2B303D",
"t).	c #2D3039",
"u).	c #273245",
"v).	c #33445F",
"w).	c #2B3141",
"x).	c #2E313D",
"y).	c #303544",
"z).	c #303543",
"A).	c #303542",
"B).	c #303847",
"C).	c #30394A",
"D).	c #333B4B",
"E).	c #333C4F",
"F).	c #354053",
"G).	c #333B4E",
"H).	c #384255",
"I).	c #374053",
"J).	c #333B4F",
"K).	c #323B50",
"L).	c #2F3646",
"M).	c #2F374A",
"N).	c #2E394E",
"O).	c #2F3D53",
"P).	c #2D3549",
"Q).	c #2D3447",
"R).	c #2B2F40",
"S).	c #2A2C3A",
"T).	c #2A2B38",
"U).	c #282A37",
"V).	c #272933",
"W).	c #272936",
"X).	c #272B37",
"Y).	c #262531",
"Z).	c #24222E",
"`).	c #22222F",
" !.	c #262634",
".!.	c #212532",
"+!.	c #212431",
"@!.	c #1E202D",
"#!.	c #1D1E2B",
"$!.	c #1F212C",
"%!.	c #1D1E2A",
"&!.	c #1C1E2B",
"*!.	c #1B1C29",
"=!.	c #191C2A",
"-!.	c #171C2C",
";!.	c #161A29",
">!.	c #151B2E",
",!.	c #1B2335",
"'!.	c #131C2F",
")!.	c #16192C",
"!!.	c #131F39",
"~!.	c #0F182E",
"{!.	c #11172B",
"]!.	c #13192D",
"^!.	c #0E162A",
"/!.	c #0E162B",
"(!.	c #0D152A",
"_!.	c #091528",
":!.	c #081428",
"<!.	c #081329",
"[!.	c #09142C",
"}!.	c #08132C",
"|!.	c #06122A",
"1!.	c #041028",
"2!.	c #030F27",
"3!.	c #08172B",
"4!.	c #0B1A2E",
"5!.	c #0D1C30",
"6!.	c #0D1C2E",
"7!.	c #0F1E32",
"8!.	c #142334",
"9!.	c #102030",
"0!.	c #121F32",
"a!.	c #121F33",
"b!.	c #17273A",
"c!.	c #162133",
"d!.	c #192232",
"e!.	c #1A2233",
"f!.	c #1A2432",
"g!.	c #1A2331",
"h!.	c #1E2534",
"i!.	c #1F2532",
"j!.	c #202733",
"k!.	c #212834",
"l!.	c #292D3A",
"m!.	c #242734",
"n!.	c #262836",
"o!.	c #282A36",
"p!.	c #282B35",
"q!.	c #2A2C38",
"r!.	c #2B2E38",
"s!.	c #2B2E39",
"t!.	c #2F313A",
"u!.	c #2C2F38",
"v!.	c #2C3340",
"w!.	c #2F3649",
"x!.	c #2C4F67",
"y!.	c #518AA5",
"z!.	c #2E4157",
"A!.	c #343445",
"B!.	c #383A49",
"C!.	c #353645",
"D!.	c #363542",
"E!.	c #363744",
"F!.	c #383A48",
"G!.	c #383B48",
"H!.	c #363845",
"I!.	c #373845",
"J!.	c #363746",
"K!.	c #373645",
"L!.	c #373A49",
"M!.	c #5A5C6B",
"N!.	c #444D60",
"O!.	c #35394A",
"P!.	c #343544",
"Q!.	c #343645",
"R!.	c #363C4E",
"S!.	c #3B4254",
"T!.	c #3A3F4F",
"U!.	c #373D4C",
"V!.	c #302F3E",
"W!.	c #2D2834",
"X!.	c #2D2A35",
"Y!.	c #292834",
"Z!.	c #2F2D39",
"`!.	c #292731",
" ~.	c #2A262F",
".~.	c #2A2531",
"+~.	c #282531",
"@~.	c #26212D",
"#~.	c #25222D",
"$~.	c #262430",
"%~.	c #252432",
"&~.	c #22212D",
"*~.	c #21212D",
"=~.	c #20202D",
"-~.	c #201F2D",
";~.	c #1F202D",
">~.	c #1E1E2B",
",~.	c #1B1E2D",
"'~.	c #1B1F2C",
")~.	c #161C2A",
"!~.	c #1D2134",
"~~.	c #171A2E",
"{~.	c #171B2C",
"]~.	c #141A30",
"^~.	c #13192E",
"/~.	c #12172D",
"(~.	c #11182D",
"_~.	c #10182D",
":~.	c #10172A",
"<~.	c #0D162A",
"[~.	c #0B1529",
"}~.	c #0A1528",
"|~.	c #091428",
"1~.	c #0A152A",
"2~.	c #09142A",
"3~.	c #08132B",
"4~.	c #07132A",
"5~.	c #05112A",
"6~.	c #051128",
"7~.	c #09182B",
"8~.	c #09192B",
"9~.	c #0A192C",
"0~.	c #0B1A2D",
"a~.	c #0D1A2D",
"b~.	c #0F1A2C",
"c~.	c #111C2E",
"d~.	c #121D2F",
"e~.	c #141D30",
"f~.	c #132035",
"g~.	c #223649",
"h~.	c #4C6978",
"i~.	c #172336",
"j~.	c #192131",
"k~.	c #1A2230",
"l~.	c #1E2432",
"m~.	c #1F2531",
"n~.	c #202531",
"o~.	c #212531",
"p~.	c #222631",
"q~.	c #242632",
"r~.	c #252734",
"s~.	c #272734",
"t~.	c #292934",
"u~.	c #292933",
"v~.	c #2B2A33",
"w~.	c #2C2C35",
"x~.	c #2E2D36",
"y~.	c #2D2E36",
"z~.	c #2B2E36",
"A~.	c #2D2E38",
"B~.	c #323845",
"C~.	c #394256",
"D~.	c #355B76",
"E~.	c #569AAD",
"F~.	c #394C64",
"G~.	c #3B384A",
"H~.	c #3C3A47",
"I~.	c #37333E",
"J~.	c #39353E",
"K~.	c #3A3641",
"L~.	c #3C3C49",
"M~.	c #39343E",
"N~.	c #3B373F",
"O~.	c #3C3840",
"P~.	c #3C3740",
"Q~.	c #3C3640",
"R~.	c #3A3741",
"S~.	c #3E3D49",
"T~.	c #393948",
"U~.	c #3C3A46",
"V~.	c #3C3745",
"W~.	c #3F3D4D",
"X~.	c #393B4B",
"Y~.	c #393846",
"Z~.	c #37333F",
"`~.	c #35313C",
" {.	c #342F3B",
".{.	c #322B34",
"+{.	c #342B36",
"@{.	c #32282E",
"#{.	c #322C36",
"${.	c #312932",
"%{.	c #2F2934",
"&{.	c #2D2530",
"*{.	c #2D242F",
"={.	c #2C222E",
"-{.	c #2C2632",
";{.	c #2B222E",
">{.	c #29222E",
",{.	c #27212E",
"'{.	c #26212F",
"){.	c #24202F",
"!{.	c #21212F",
"~{.	c #201F2C",
"{{.	c #1F1F2D",
"]{.	c #1F212E",
"^{.	c #1B1D2B",
"/{.	c #1C1D2D",
"({.	c #1D1D2E",
"_{.	c #19192D",
":{.	c #18182A",
"<{.	c #18182B",
"[{.	c #1C1F33",
"}{.	c #14172B",
"|{.	c #12162A",
"1{.	c #10152A",
"2{.	c #0F152B",
"3{.	c #10172B",
"4{.	c #0E1528",
"5{.	c #0D1528",
"6{.	c #0C1528",
"7{.	c #0B1527",
"8{.	c #081429",
"9{.	c #071228",
"0{.	c #061329",
"a{.	c #041128",
"b{.	c #07132C",
"c{.	c #061229",
"d{.	c #051127",
"e{.	c #041026",
"f{.	c #08162E",
"g{.	c #09172C",
"h{.	c #0A182D",
"i{.	c #0A182B",
"j{.	c #152335",
"k{.	c #0C192C",
"l{.	c #0E1B2E",
"m{.	c #101B2E",
"n{.	c #121B2E",
"o{.	c #101A2C",
"p{.	c #111B2E",
"q{.	c #121C2E",
"r{.	c #131E30",
"s{.	c #141F30",
"t{.	c #171E32",
"u{.	c #162034",
"v{.	c #17293A",
"w{.	c #192132",
"x{.	c #18212F",
"y{.	c #1B2330",
"z{.	c #1C2431",
"A{.	c #1E2431",
"B{.	c #212430",
"C{.	c #22262F",
"D{.	c #242730",
"E{.	c #262732",
"F{.	c #282734",
"G{.	c #2B2933",
"H{.	c #2D2A33",
"I{.	c #2F2B34",
"J{.	c #302E35",
"K{.	c #342D35",
"L{.	c #302D35",
"M{.	c #33333C",
"N{.	c #3B3842",
"O{.	c #343138",
"P{.	c #36323A",
"Q{.	c #37323D",
"R{.	c #333043",
"S{.	c #454C60",
"T{.	c #3F3639",
"U{.	c #3E343D",
"V{.	c #443A43",
"W{.	c #3E323A",
"X{.	c #3F343C",
"Y{.	c #433941",
"Z{.	c #42353D",
"`{.	c #42363E",
" ].	c #42373F",
".].	c #443A44",
"+].	c #423840",
"@].	c #423740",
"#].	c #42363F",
"$].	c #423842",
"%].	c #423945",
"&].	c #413743",
"*].	c #413B48",
"=].	c #413C47",
"-].	c #3D333D",
";].	c #3D3239",
">].	c #3A2F36",
",].	c #3B2C30",
"'].	c #3B2D32",
")].	c #3A2A2F",
"!].	c #362A31",
"~].	c #32272F",
"{].	c #312E3C",
"]].	c #342730",
"^].	c #332730",
"/].	c #31252E",
"(].	c #302530",
"_].	c #2F242E",
":].	c #2F272F",
"<].	c #2E2732",
"[].	c #2C2430",
"}].	c #2A2430",
"|].	c #282331",
"1].	c #2C2937",
"2].	c #272532",
"3].	c #22212F",
"4].	c #1F1D2C",
"5].	c #1F1D2B",
"6].	c #1F1B2B",
"7].	c #1E1B2C",
"8].	c #1C1A2A",
"9].	c #1B1929",
"0].	c #1A1A2C",
"a].	c #16192B",
"b].	c #16182B",
"c].	c #14182B",
"d].	c #13172B",
"e].	c #101529",
"f].	c #11162A",
"g].	c #0D1427",
"h].	c #0D1629",
"i].	c #0B1429",
"j].	c #091328",
"k].	c #091327",
"l].	c #071226",
"m].	c #061227",
"n].	c #0A162E",
"o].	c #0B162D",
"p].	c #0B192C",
"q].	c #0C1A2D",
"r].	c #0F1A2E",
"s].	c #101A2E",
"t].	c #121A2D",
"u].	c #131B2E",
"v].	c #122030",
"w].	c #15202F",
"x].	c #181F30",
"y].	c #171F31",
"z].	c #1A2332",
"A].	c #1C2331",
"B].	c #1E2430",
"C].	c #1F2430",
"D].	c #2D303B",
"E].	c #262731",
"F].	c #262630",
"G].	c #292733",
"H].	c #32303C",
"I].	c #2D2832",
"J].	c #2E2A32",
"K].	c #302B33",
"L].	c #312A32",
"M].	c #312B33",
"N].	c #362C34",
"O].	c #38313B",
"P].	c #393742",
"Q].	c #342E39",
"R].	c #3A2F37",
"S].	c #3D3137",
"T].	c #3C3539",
"U].	c #4D484E",
"V].	c #413C48",
"W].	c #403138",
"X].	c #43343A",
"Y].	c #4C3B41",
"Z].	c #45343A",
"`].	c #453337",
" ^.	c #463438",
".^.	c #473436",
"+^.	c #483439",
"@^.	c #49343B",
"#^.	c #49353A",
"$^.	c #49363D",
"%^.	c #49353C",
"&^.	c #49373F",
"*^.	c #4A3840",
"=^.	c #473539",
"-^.	c #463539",
";^.	c #46333A",
">^.	c #46353B",
",^.	c #453339",
"'^.	c #423035",
")^.	c #423034",
"!^.	c #422B2F",
"~^.	c #3F2D30",
"{^.	c #3F2D32",
"]^.	c #3C2C33",
"^^.	c #3C323B",
"/^.	c #676574",
"(^.	c #3C2A31",
"_^.	c #392931",
":^.	c #37272F",
"<^.	c #35262F",
"[^.	c #35252F",
"}^.	c #322730",
"|^.	c #322630",
"1^.	c #2F252E",
"2^.	c #2D252F",
"3^.	c #2C2531",
"4^.	c #2A2433",
"5^.	c #292333",
"6^.	c #272131",
"7^.	c #272231",
"8^.	c #252230",
"9^.	c #221F2C",
"0^.	c #201D2A",
"a^.	c #1C1A28",
"b^.	c #1D1B29",
"c^.	c #191929",
"d^.	c #171829",
"e^.	c #16182A",
"f^.	c #15172A",
"g^.	c #121629",
"h^.	c #101528",
"i^.	c #0F1427",
"j^.	c #0F1528",
"k^.	c #0B1328",
"l^.	c #0A1226",
"m^.	c #0A1227",
"n^.	c #091126",
"o^.	c #061226",
"p^.	c #071227",
"q^.	c #061127",
"r^.	c #061228",
"s^.	c #061129",
"t^.	c #0D1831",
"u^.	c #0B162F",
"v^.	c #0B172D",
"w^.	c #0D192D",
"x^.	c #101A2D",
"y^.	c #161E31",
"z^.	c #171E2F",
"A^.	c #1A1E2D",
"B^.	c #1A1F2E",
"C^.	c #192030",
"D^.	c #1D2331",
"E^.	c #1F2330",
"F^.	c #252834",
"G^.	c #242531",
"H^.	c #262733",
"I^.	c #272732",
"J^.	c #282731",
"K^.	c #2B2A32",
"L^.	c #2D2B35",
"M^.	c #2E2B36",
"N^.	c #332B33",
"O^.	c #352C34",
"P^.	c #372D34",
"Q^.	c #393035",
"R^.	c #392F35",
"S^.	c #40373E",
"T^.	c #383137",
"U^.	c #3D3138",
"V^.	c #45363A",
"W^.	c #3F2F34",
"X^.	c #413335",
"Y^.	c #433336",
"Z^.	c #483A43",
"`^.	c #463439",
" /.	c #4C3B43",
"./.	c #4A3437",
"+/.	c #4A3535",
"@/.	c #4C3434",
"#/.	c #4D3433",
"$/.	c #4E3433",
"%/.	c #503435",
"&/.	c #513536",
"*/.	c #513535",
"=/.	c #4F3435",
"-/.	c #503537",
";/.	c #503639",
">/.	c #4F3537",
",/.	c #4F3637",
"'/.	c #4E3435",
")/.	c #4D3335",
"!/.	c #4E3439",
"~/.	c #4F373B",
"{/.	c #4C3334",
"]/.	c #4C3336",
"^/.	c #4B3438",
"//.	c #4A3134",
"(/.	c #482F30",
"_/.	c #452E32",
":/.	c #432D32",
"</.	c #48353A",
"[/.	c #402D32",
"}/.	c #3D303B",
"|/.	c #402A2E",
"1/.	c #3E292F",
"2/.	c #3B282E",
"3/.	c #3C2931",
"4/.	c #3A2830",
"5/.	c #37282F",
"6/.	c #35262D",
"7/.	c #32252E",
"8/.	c #32252F",
"9/.	c #312531",
"0/.	c #2F2533",
"a/.	c #2C2332",
"b/.	c #2B2231",
"c/.	c #29212F",
"d/.	c #261F2D",
"e/.	c #292330",
"f/.	c #221D2A",
"g/.	c #1F1C2A",
"h/.	c #1E1B29",
"i/.	c #191828",
"j/.	c #181828",
"k/.	c #161728",
"l/.	c #151628",
"m/.	c #141629",
"n/.	c #131629",
"o/.	c #121528",
"p/.	c #111528",
"q/.	c #0E1427",
"r/.	c #0B1326",
"s/.	c #0A1225",
"t/.	c #091124",
"u/.	c #061126",
"v/.	c #061027",
"w/.	c #051027",
"x/.	c #0A142D",
"y/.	c #0E1830",
"z/.	c #0C172B",
"A/.	c #11192D",
"B/.	c #131A2D",
"C/.	c #151C2F",
"D/.	c #161D30",
"E/.	c #151D2F",
"F/.	c #171F2E",
"G/.	c #1A1F2C",
"H/.	c #1B202F",
"I/.	c #1C2133",
"J/.	c #1E2133",
"K/.	c #1E2130",
"L/.	c #212331",
"M/.	c #242532",
"N/.	c #242430",
"O/.	c #272632",
"P/.	c #282732",
"Q/.	c #2A2831",
"R/.	c #312D37",
"S/.	c #322D38",
"T/.	c #342B33",
"U/.	c #352C33",
"V/.	c #382E34",
"W/.	c #3B3035",
"X/.	c #42373C",
"Y/.	c #41353A",
"Z/.	c #3D3135",
"`/.	c #403234",
" (.	c #443132",
".(.	c #453232",
"+(.	c #453334",
"@(.	c #493434",
"#(.	c #4D3334",
"$(.	c #4D3B3E",
"%(.	c #4C3331",
"&(.	c #4F3436",
"*(.	c #523535",
"=(.	c #523534",
"-(.	c #543635",
";(.	c #553634",
">(.	c #563633",
",(.	c #573634",
"'(.	c #583735",
")(.	c #583734",
"!(.	c #583731",
"~(.	c #583732",
"{(.	c #573632",
"](.	c #573433",
"^(.	c #573332",
"/(.	c #553432",
"((.	c #533331",
"_(.	c #523331",
":(.	c #513332",
"<(.	c #523434",
"[(.	c #4D3232",
"}(.	c #513635",
"|(.	c #4C3130",
"1(.	c #462F32",
"2(.	c #492E2C",
"3(.	c #452D2F",
"4(.	c #452C2F",
"5(.	c #4A3236",
"6(.	c #412A2E",
"7(.	c #3F282E",
"8(.	c #3D272C",
"9(.	c #3B262C",
"0(.	c #39262C",
"a(.	c #39262F",
"b(.	c #362630",
"c(.	c #33242F",
"d(.	c #342733",
"e(.	c #2F2330",
"f(.	c #2E2330",
"g(.	c #2B222F",
"h(.	c #29202D",
"i(.	c #271E2B",
"j(.	c #251D2A",
"k(.	c #241E2D",
"l(.	c #251E2D",
"m(.	c #211A29",
"n(.	c #1E1A2A",
"o(.	c #1B1927",
"p(.	c #1A1928",
"q(.	c #181827",
"r(.	c #161727",
"s(.	c #151629",
"t(.	c #141529",
"u(.	c #131428",
"v(.	c #111427",
"w(.	c #0D1326",
"x(.	c #0C1326",
"y(.	c #0B1225",
"z(.	c #071225",
"A(.	c #061125",
"B(.	c #0C182E",
"C(.	c #0C182D",
"D(.	c #0E192B",
"E(.	c #10192B",
"F(.	c #131B2D",
"G(.	c #1F2638",
"H(.	c #161D2F",
"I(.	c #171E30",
"J(.	c #1D2333",
"K(.	c #1B1F2E",
"L(.	c #1A1E2C",
"M(.	c #1E212E",
"N(.	c #1D202F",
"O(.	c #1E2333",
"P(.	c #1F2431",
"Q(.	c #222530",
"R(.	c #252632",
"S(.	c #282631",
"T(.	c #292730",
"U(.	c #2C282F",
"V(.	c #2F2A31",
"W(.	c #312A31",
"X(.	c #312830",
"Y(.	c #392F36",
"Z(.	c #372C2F",
"`(.	c #392D30",
" _.	c #3C2F31",
"._.	c #3E3031",
"+_.	c #403032",
"@_.	c #45363B",
"#_.	c #433337",
"$_.	c #463435",
"%_.	c #473332",
"&_.	c #493435",
"*_.	c #4B3436",
"=_.	c #4E3434",
"-_.	c #503331",
";_.	c #543734",
">_.	c #553633",
",_.	c #563735",
"'_.	c #563936",
")_.	c #583A36",
"!_.	c #593A35",
"~_.	c #5A3834",
"{_.	c #5B3832",
"]_.	c #5D3834",
"^_.	c #5F3834",
"/_.	c #5F3933",
"(_.	c #603A34",
"__.	c #5E3834",
":_.	c #5E3835",
"<_.	c #5D3733",
"[_.	c #5E3734",
"}_.	c #5B3632",
"|_.	c #5A3631",
"1_.	c #593531",
"2_.	c #573432",
"3_.	c #543330",
"4_.	c #51312E",
"5_.	c #4F312E",
"6_.	c #4C302D",
"7_.	c #4B302D",
"8_.	c #4B2F2E",
"9_.	c #492D30",
"0_.	c #482C2F",
"a_.	c #442A2E",
"b_.	c #41292D",
"c_.	c #40292D",
"d_.	c #40282C",
"e_.	c #3D272B",
"f_.	c #3A272D",
"g_.	c #38272F",
"h_.	c #382B33",
"i_.	c #2E222B",
"j_.	c #2E222C",
"k_.	c #2C1F2A",
"l_.	c #291E27",
"m_.	c #281E27",
"n_.	c #281F29",
"o_.	c #241C28",
"p_.	c #231B28",
"q_.	c #1F1A27",
"r_.	c #1D1927",
"s_.	c #1B1926",
"t_.	c #191826",
"u_.	c #181725",
"v_.	c #171726",
"w_.	c #161627",
"x_.	c #141527",
"y_.	c #101427",
"z_.	c #0C1224",
"A_.	c #0C1325",
"B_.	c #0C1327",
"C_.	c #0B1327",
"D_.	c #081023",
"E_.	c #081024",
"F_.	c #071125",
"G_.	c #051024",
"H_.	c #0B182D",
"I_.	c #142033",
"J_.	c #0E192D",
"K_.	c #0F192B",
"L_.	c #131C2D",
"M_.	c #181E2F",
"N_.	c #181F2E",
"O_.	c #3A4353",
"P_.	c #383F4F",
"Q_.	c #1C2030",
"R_.	c #1F212F",
"S_.	c #222330",
"T_.	c #222430",
"U_.	c #252731",
"V_.	c #252530",
"W_.	c #2B2831",
"X_.	c #2D2830",
"Y_.	c #2E282F",
"Z_.	c #342A31",
"`_.	c #362B32",
" :.	c #382C31",
".:.	c #3C2F30",
"+:.	c #403031",
"@:.	c #423131",
"#:.	c #473335",
"$:.	c #473334",
"%:.	c #493534",
"&:.	c #4B3434",
"*:.	c #4F3738",
"=:.	c #593E40",
"-:.	c #523635",
";:.	c #573836",
">:.	c #5D3B39",
",:.	c #5C3B39",
"':.	c #5E3C3A",
"):.	c #613C39",
"!:.	c #623C39",
"~:.	c #633C37",
"{:.	c #643B37",
"]:.	c #653A35",
"^:.	c #663A34",
"/:.	c #663A33",
"(:.	c #673B35",
"_:.	c #683C37",
"::.	c #653B35",
"<:.	c #633934",
"[:.	c #643934",
"}:.	c #673D37",
"|:.	c #623731",
"1:.	c #613731",
"2:.	c #603630",
"3:.	c #5E3531",
"4:.	c #5D3431",
"5:.	c #5B3530",
"6:.	c #59332F",
"7:.	c #57322E",
"8:.	c #5D3B38",
"9:.	c #52312E",
"0:.	c #51302E",
"a:.	c #502E2E",
"b:.	c #4C2C2D",
"c:.	c #4A2B2C",
"d:.	c #482B2D",
"e:.	c #462A2D",
"f:.	c #442A2D",
"g:.	c #41282B",
"h:.	c #3E262B",
"i:.	c #3B262B",
"j:.	c #3A262D",
"k:.	c #37272E",
"l:.	c #33242C",
"m:.	c #32242B",
"n:.	c #31222C",
"o:.	c #30212B",
"p:.	c #2D2029",
"q:.	c #2B2028",
"r:.	c #291F28",
"s:.	c #261C27",
"t:.	c #241B27",
"u:.	c #211A27",
"v:.	c #181727",
"w:.	c #151626",
"x:.	c #131527",
"y:.	c #121527",
"z:.	c #0C1225",
"A:.	c #0A1124",
"B:.	c #091023",
"C:.	c #061024",
"D:.	c #041023",
"E:.	c #030F22",
"F:.	c #0D192E",
"G:.	c #0D1A2C",
"H:.	c #0E1A2D",
"I:.	c #0F192C",
"J:.	c #131B2C",
"K:.	c #141B2C",
"L:.	c #161B2E",
"M:.	c #191F2F",
"N:.	c #181E2D",
"O:.	c #343C4D",
"P:.	c #333A4A",
"Q:.	c #1E2231",
"R:.	c #21222F",
"S:.	c #272631",
"T:.	c #282730",
"U:.	c #2C2830",
"V:.	c #2E2830",
"W:.	c #2F2830",
"X:.	c #322930",
"Y:.	c #342A2F",
"Z:.	c #372B30",
"`:.	c #3A2D31",
" <.	c #3D2E32",
".<.	c #3E2F31",
"+<.	c #413031",
"@<.	c #473131",
"#<.	c #493231",
"$<.	c #4C3432",
"%<.	c #4D3432",
"&<.	c #4F3433",
"*<.	c #523634",
"=<.	c #563838",
"-<.	c #563737",
";<.	c #5D3E3C",
"><.	c #5B3835",
",<.	c #603A36",
"'<.	c #633C39",
")<.	c #633D3A",
"!<.	c #643C39",
"~<.	c #673D39",
"{<.	c #693E3A",
"]<.	c #6C3F3A",
"^<.	c #6D3E39",
"/<.	c #6D3D37",
"(<.	c #6E3D34",
"_<.	c #6E3D33",
":<.	c #6D3D33",
"<<.	c #6D3C34",
"[<.	c #75443E",
"}<.	c #6E3C34",
"|<.	c #6F3D35",
"1<.	c #6D3B32",
"2<.	c #6D3B33",
"3<.	c #6C3B33",
"4<.	c #6B3A33",
"5<.	c #693933",
"6<.	c #683933",
"7<.	c #663832",
"8<.	c #633630",
"9<.	c #623630",
"0<.	c #60352F",
"a<.	c #5D332D",
"b<.	c #5A332D",
"c<.	c #59332D",
"d<.	c #57312E",
"e<.	c #55302F",
"f<.	c #522F2E",
"g<.	c #4F2D2C",
"h<.	c #4D2C2B",
"i<.	c #4A2C2B",
"j<.	c #482A2C",
"k<.	c #45292A",
"l<.	c #42282B",
"m<.	c #432C2F",
"n<.	c #3F282D",
"o<.	c #3A262B",
"p<.	c #39262B",
"q<.	c #36242A",
"r<.	c #332229",
"s<.	c #322128",
"t<.	c #302127",
"u<.	c #2D2127",
"v<.	c #2B1F27",
"w<.	c #281D26",
"x<.	c #271C27",
"y<.	c #251B27",
"z<.	c #231A27",
"A<.	c #211926",
"B<.	c #1F1927",
"C<.	c #1D1926",
"D<.	c #1B1826",
"E<.	c #181726",
"F<.	c #171625",
"G<.	c #131526",
"H<.	c #121426",
"I<.	c #111526",
"J<.	c #0F1326",
"K<.	c #0D1225",
"L<.	c #0B1124",
"M<.	c #061124",
"N<.	c #041124",
"O<.	c #031023",
"P<.	c #0E1A2F",
"Q<.	c #0B182B",
"R<.	c #0F182D",
"S<.	c #171C2F",
"T<.	c #1A1E2E",
"U<.	c #1D202E",
"V<.	c #1C202E",
"W<.	c #1F202E",
"X<.	c #24232E",
"Y<.	c #252531",
"Z<.	c #27262F",
"`<.	c #29262E",
" [.	c #2B272E",
".[.	c #2F282F",
"+[.	c #332930",
"@[.	c #362B30",
"#[.	c #3C2E31",
"$[.	c #3E2E32",
"%[.	c #412F33",
"&[.	c #433134",
"*[.	c #473435",
"=[.	c #483232",
"-[.	c #4C3230",
";[.	c #523531",
">[.	c #553733",
",[.	c #5A3837",
"'[.	c #5D3937",
")[.	c #5D3935",
"![.	c #6A4540",
"~[.	c #633A35",
"{[.	c #673C35",
"][.	c #693D37",
"^[.	c #6B3F39",
"/[.	c #6E413A",
"([.	c #6F413A",
"_[.	c #71413A",
":[.	c #73423A",
"<[.	c #74413A",
"[[.	c #753F36",
"}[.	c #763F33",
"|[.	c #774033",
"1[.	c #764033",
"2[.	c #763F34",
"3[.	c #773E32",
"4[.	c #763D31",
"5[.	c #753C31",
"6[.	c #764137",
"7[.	c #703C33",
"8[.	c #6E3A32",
"9[.	c #6C3A32",
"0[.	c #6B3932",
"a[.	c #6A3931",
"b[.	c #683830",
"c[.	c #64362E",
"d[.	c #63362F",
"e[.	c #5F342E",
"f[.	c #5D332E",
"g[.	c #5A3230",
"h[.	c #57302E",
"i[.	c #552F2E",
"j[.	c #522E2D",
"k[.	c #4A2B2A",
"l[.	c #47292B",
"m[.	c #45292B",
"n[.	c #43282C",
"o[.	c #40272B",
"p[.	c #3D252A",
"q[.	c #3A2428",
"r[.	c #382329",
"s[.	c #362227",
"t[.	c #332226",
"u[.	c #302227",
"v[.	c #2D2027",
"w[.	c #291D26",
"x[.	c #271B26",
"y[.	c #261B27",
"z[.	c #251A27",
"A[.	c #221A27",
"B[.	c #1C1826",
"C[.	c #1A1826",
"D[.	c #191725",
"E[.	c #161524",
"F[.	c #171626",
"G[.	c #151525",
"H[.	c #131426",
"I[.	c #111325",
"J[.	c #101326",
"K[.	c #071124",
"L[.	c #051125",
"M[.	c #041024",
"N[.	c #0F192D",
"O[.	c #141B2D",
"P[.	c #171D2D",
"Q[.	c #1C202C",
"R[.	c #21212E",
"S[.	c #24222C",
"T[.	c #26242E",
"U[.	c #282630",
"V[.	c #2C272E",
"W[.	c #2E272E",
"X[.	c #322830",
"Y[.	c #342931",
"Z[.	c #352A2F",
"`[.	c #382B30",
" }.	c #3F2E32",
".}.	c #422F32",
"+}.	c #443133",
"@}.	c #503C3D",
"#}.	c #4D3333",
"$}.	c #513432",
"%}.	c #553532",
"&}.	c #5B3935",
"*}.	c #5C3836",
"=}.	c #613A37",
"-}.	c #633B34",
";}.	c #643C34",
">}.	c #683C35",
",}.	c #6B3C33",
"'}.	c #704036",
")}.	c #724038",
"!}.	c #754239",
"~}.	c #764239",
"{}.	c #784339",
"]}.	c #7B4339",
"^}.	c #7C4238",
"/}.	c #7E4136",
"(}.	c #804135",
"_}.	c #814234",
":}.	c #804234",
"<}.	c #804235",
"[}.	c #7F4132",
"}}.	c #7D4031",
"|}.	c #7C3F30",
"1}.	c #7A3F31",
"2}.	c #793F32",
"3}.	c #773D30",
"4}.	c #743B2F",
"5}.	c #723A2F",
"6}.	c #713A2F",
"7}.	c #723B32",
"8}.	c #6F3A31",
"9}.	c #6B372F",
"0}.	c #68362F",
"a}.	c #64352E",
"b}.	c #60342E",
"c}.	c #5E322D",
"d}.	c #5B322D",
"e}.	c #59312C",
"f}.	c #56302C",
"g}.	c #522E2C",
"h}.	c #4F2D2B",
"i}.	c #4B2B2A",
"j}.	c #48292A",
"k}.	c #46282A",
"l}.	c #44272B",
"m}.	c #41272A",
"n}.	c #3E2529",
"o}.	c #3C2528",
"p}.	c #392427",
"q}.	c #352326",
"r}.	c #322226",
"s}.	c #302126",
"t}.	c #2E2027",
"u}.	c #2C1F28",
"v}.	c #2A1D26",
"w}.	c #271B27",
"x}.	c #261A26",
"y}.	c #231927",
"z}.	c #201926",
"A}.	c #1C1927",
"B}.	c #181624",
"C}.	c #161525",
"D}.	c #151526",
"E}.	c #121326",
"F}.	c #0D1226",
"G}.	c #0C1125",
"H}.	c #0B1024",
"I}.	c #0A0F23",
"J}.	c #090E22",
"K}.	c #080F23",
"L}.	c #070E24",
"M}.	c #060E23",
"N}.	c #0C172E",
"O}.	c #0D182D",
"P}.	c #10172D",
"Q}.	c #12182E",
"R}.	c #12182C",
"S}.	c #141A2D",
"T}.	c #161B2C",
"U}.	c #1A1C2B",
"V}.	c #1C1D2C",
"W}.	c #20212D",
"X}.	c #1F1F2B",
"Y}.	c #23222F",
"Z}.	c #26232D",
"`}.	c #29242D",
" |.	c #2B252D",
".|.	c #2D262F",
"+|.	c #30272F",
"@|.	c #31282F",
"#|.	c #342B32",
"$|.	c #372A2F",
"%|.	c #392B2F",
"&|.	c #3D2E30",
"*|.	c #3F2E2F",
"=|.	c #422F30",
"-|.	c #493131",
";|.	c #4C3132",
">|.	c #503433",
",|.	c #523433",
"'|.	c #573532",
")|.	c #5E3932",
"!|.	c #623B34",
"~|.	c #653D34",
"{|.	c #693D32",
"]|.	c #6E3E33",
"^|.	c #703E33",
"/|.	c #744134",
"(|.	c #774134",
"_|.	c #7A4235",
":|.	c #7D4337",
"<|.	c #7F4439",
"[|.	c #81463B",
"}|.	c #83473A",
"||.	c #85463A",
"1|.	c #874537",
"2|.	c #884437",
"3|.	c #884335",
"4|.	c #8E4638",
"5|.	c #8C4435",
"6|.	c #8B4435",
"7|.	c #8A4434",
"8|.	c #894333",
"9|.	c #884334",
"0|.	c #864231",
"a|.	c #844032",
"b|.	c #813F31",
"c|.	c #7F3F31",
"d|.	c #7C3E31",
"e|.	c #793C2F",
"f|.	c #773B2E",
"g|.	c #763B2E",
"h|.	c #71392E",
"i|.	c #6E3A30",
"j|.	c #6A382E",
"k|.	c #69372F",
"l|.	c #66352E",
"m|.	c #62332D",
"n|.	c #5F312C",
"o|.	c #5B302B",
"p|.	c #562E2C",
"q|.	c #542D2C",
"r|.	c #512D2C",
"s|.	c #4D2B2C",
"t|.	c #4A2A2C",
"u|.	c #47282B",
"v|.	c #45272A",
"w|.	c #42272A",
"x|.	c #3E2629",
"y|.	c #3A2527",
"z|.	c #382427",
"A|.	c #352226",
"B|.	c #322025",
"C|.	c #302027",
"D|.	c #2E1F27",
"E|.	c #2C1D27",
"F|.	c #291D27",
"G|.	c #281B26",
"H|.	c #251A26",
"I|.	c #231925",
"J|.	c #201924",
"K|.	c #1E1825",
"L|.	c #1D1825",
"M|.	c #1A1724",
"N|.	c #191724",
"O|.	c #141324",
"P|.	c #121224",
"Q|.	c #101224",
"R|.	c #0F1123",
"S|.	c #0D1224",
"T|.	c #0C1124",
"U|.	c #0B1023",
"V|.	c #0A0F22",
"W|.	c #090F22",
"X|.	c #080F22",
"Y|.	c #070E21",
"Z|.	c #0B162C",
"`|.	c #101B31",
" 1.	c #0F1A30",
".1.	c #13182C",
"+1.	c #151A2E",
"@1.	c #14192D",
"#1.	c #151A2D",
"$1.	c #181C2D",
"%1.	c #1B1D2C",
"&1.	c #1C1D2B",
"*1.	c #1F1E2C",
"=1.	c #20202C",
"-1.	c #21202C",
";1.	c #22222E",
">1.	c #25232F",
",1.	c #28242F",
"'1.	c #2B242E",
")1.	c #2D252D",
"!1.	c #30262F",
"~1.	c #372D32",
"{1.	c #3A2B2F",
"]1.	c #3E2D31",
"^1.	c #412F30",
"/1.	c #442F30",
"(1.	c #493230",
"_1.	c #4E3230",
":1.	c #513331",
"<1.	c #543532",
"[1.	c #583632",
"}1.	c #5C3732",
"|1.	c #5F3732",
"11.	c #633B33",
"21.	c #673C34",
"31.	c #6A3D34",
"41.	c #6F4135",
"51.	c #723E33",
"61.	c #784035",
"71.	c #794133",
"81.	c #7D4234",
"91.	c #844335",
"01.	c #874536",
"a1.	c #8A4639",
"b1.	c #8C4839",
"c1.	c #8D4A39",
"d1.	c #904837",
"e1.	c #934736",
"f1.	c #954A37",
"g1.	c #974938",
"h1.	c #974736",
"i1.	c #984735",
"j1.	c #974735",
"k1.	c #964734",
"l1.	c #954732",
"m1.	c #954733",
"n1.	c #944533",
"o1.	c #914432",
"p1.	c #8F4334",
"q1.	c #8D4334",
"r1.	c #8A4232",
"s1.	c #874033",
"t1.	c #834030",
"u1.	c #813E2F",
"v1.	c #7F3D2F",
"w1.	c #7B3C31",
"x1.	c #733A2F",
"y1.	c #6D382D",
"z1.	c #6D392E",
"A1.	c #68362D",
"B1.	c #64342C",
"C1.	c #61322C",
"D1.	c #5C302C",
"E1.	c #592F2D",
"F1.	c #562E2D",
"G1.	c #4E2B2C",
"H1.	c #4B2A2A",
"I1.	c #472829",
"J1.	c #452829",
"K1.	c #412728",
"L1.	c #3E2628",
"M1.	c #3B2527",
"N1.	c #392426",
"O1.	c #362226",
"P1.	c #352127",
"Q1.	c #322027",
"R1.	c #2F1F27",
"S1.	c #2C1D26",
"T1.	c #291B25",
"U1.	c #261A24",
"V1.	c #251A24",
"W1.	c #221924",
"X1.	c #201824",
"Y1.	c #1F1824",
"Z1.	c #1C1723",
"`1.	c #191523",
" 2.	c #171522",
".2.	c #161522",
"+2.	c #151424",
"@2.	c #131223",
"#2.	c #111224",
"$2.	c #101123",
"%2.	c #0E1323",
"&2.	c #091022",
"*2.	c #080F21",
"=2.	c #111B32",
"-2.	c #141A2F",
";2.	c #161C2D",
">2.	c #181D2D",
",2.	c #23222E",
"'2.	c #23232F",
")2.	c #25242F",
"!2.	c #29252F",
"~2.	c #2C252E",
"{2.	c #2F252D",
"]2.	c #31262F",
"^2.	c #392E39",
"/2.	c #372B34",
"(2.	c #3A2C30",
"_2.	c #3D2B30",
":2.	c #412D31",
"<2.	c #432E30",
"[2.	c #462E30",
"}2.	c #4A3030",
"|2.	c #4D3231",
"12.	c #553531",
"22.	c #613932",
"32.	c #643932",
"42.	c #6B3E35",
"52.	c #6E3E35",
"62.	c #703E34",
"72.	c #733E32",
"82.	c #783E33",
"92.	c #7E3F34",
"02.	c #804133",
"a2.	c #844434",
"b2.	c #894536",
"c2.	c #8C4637",
"d2.	c #8F4738",
"e2.	c #924736",
"f2.	c #954937",
"g2.	c #974A37",
"h2.	c #9A4A35",
"i2.	c #9E4935",
"j2.	c #9E4A35",
"k2.	c #9F4936",
"l2.	c #A04835",
"m2.	c #A24935",
"n2.	c #A14A35",
"o2.	c #A14A34",
"p2.	c #A04A32",
"q2.	c #A14A33",
"r2.	c #A04934",
"s2.	c #9D4733",
"t2.	c #9A4631",
"u2.	c #974632",
"v2.	c #954532",
"w2.	c #924430",
"x2.	c #8F4232",
"y2.	c #8C4231",
"z2.	c #8A4030",
"A2.	c #853E2E",
"B2.	c #823E30",
"C2.	c #7B3C2F",
"D2.	c #7C4134",
"E2.	c #733B2E",
"F2.	c #70392D",
"G2.	c #6C372C",
"H2.	c #6A362D",
"I2.	c #66352D",
"J2.	c #5D312C",
"K2.	c #592F2B",
"L2.	c #552D2B",
"M2.	c #522C2B",
"N2.	c #4F2C2A",
"O2.	c #4B2A29",
"P2.	c #472827",
"Q2.	c #452828",
"R2.	c #412727",
"S2.	c #3E2626",
"T2.	c #3C2426",
"U2.	c #392225",
"V2.	c #362125",
"W2.	c #332025",
"X2.	c #301E25",
"Y2.	c #2D1D27",
"Z2.	c #2A1C25",
"`2.	c #271B24",
" 3.	c #251B24",
".3.	c #241A24",
"+3.	c #221A26",
"@3.	c #1F1825",
"#3.	c #1B1725",
"$3.	c #181623",
"%3.	c #171523",
"&3.	c #121423",
"*3.	c #111223",
"=3.	c #0F1424",
"-3.	c #0D1325",
"   .  +  @  #  $  %  &  *  =  -  ;  >  ,  '  )  !  ~  {  ]  ^  /  (  _  :  <  [  }  |  1  2  3  4  5  6  7  8  9  0  a  b  c  d  e  f  g  h  i  j  k  l  m  n  o  p  q  r  s  t  u  v  w  x  y  z  A  B  z  C  D  E  F  G  H  I  J  K  L  M  N  O  P  Q  R  S  T  U  V  W  X  Y  Z  `   . .. +. @. #. $. %. &. *. =. -. ;. >. ,. '. ). !. ~. {. ]. ^. /. (. _. :. <. [. ",
"}. |. 1. 2. 3. $  4. 5. 6. 7. 8. 9. 0. a. b. c. d. e. f. g. h. i. j. (  k. l. m. n. o. p. q. r. s. t. u. v. w. x. y. z. A. B. B. C. D. E. F. F. G. H. z  I. J. K. L. M. N. O. P. Q. R. S. T. U. V. W. X. Y. Z. `.  + .+ ++ @+ #+ $+ %+ &+ *+ =+ -+ ;+ >+ ,+ '+ )+ !+ ~+ {+ ]+ ^+ /+ (+ _+ :+ <+ [+ }+ |+ 1+ 2+ 3+ 4+ 5+ 6+ 7+ 8+ 9+ 0+ a+ b+ c+ d+ e+ f+ g+ h+ i+ j+ k+ ",
"l+ |. m+ n+ 3. o+ p+ q+ r+ s+ t+ u+ v+ w+ x+ y+ z+ A+ B+ C+ D+ E+ F+ G+ H+ I+ :  J+ K+ L+ M+ N+ q. O+ P+ Q+ R+ 5  S+ T+ U+ V+ W+ X+ A. Y+ Z+ `+ D. a   @  @ .@ +@ @@ #@ $@ %@ +@ &@ E. *@ G  =@ -@ ;@ ;@ >@ ,@ '@ )@ !@ ~@ {@ ]@ ^@ /@ (@ _@ :@ <@ [@ }@ |@ 1@ 2@ 3@ 4@ 5@ 6@ 7@ 8@ 9@ 0@ a@ b@ c@ d@ e@ f@ g@ h@ 5+ i@ j@ k@ l@ m@ n@ o@ p@ q@ r@ s@ t@ u@ v@ w@ x@ y@ ",
"z@ A@ B@ n+ C@ D@ E@ F@ G@ H@ I@ J@ K@ L@ M@ N@ O@ P@ Q@ R@ S@ T@ U@ V@ W@ X@ Y@ Z@ `@  # .# +# M+ @# ## $# %# &# *# =# -# ;# ># ,# '# )# !# ~# {# ]# ^# 0  /# (# _# :# <# [# }# |# 1# 2# 3# 4# 5# ,@ 6# 7# 8# 9# 0# a# b# c# d# e# f# g# h# i# j# k# l# m# n# o# p# q# r# s# t# u# v# w# x# y# z# A# B# C# D# E# i@ F# G# H# I# J# K# L# M# N# O# P# Q# R# S# T# U# V# ",
"W# X# Y# Z# `#  $ .$ +$ &  @$ #$ $$ %$ &$ *$ =$ -$ ;$ >$ ,$ '$ )$ !$ ~$ {$ ]$ ^$ /$ ($ _$ :$ <$ [$ }$ |$ 1$ 2$ 3$ 4$ 5$ 6$ 7$ 8$ 9$ 0$ a$ w. 3# 2# b$ '# c$ d$ e$ f$ g$ ,@ h$ i$ j$ k$ l$ m$ m$ n$ M  o$ p$ q$ r$ s$ t$ u$ v$ w$ x$ y$ z$ U  A$ B$ C$ D$ E$ F$ G$ H$ I$ J$ K$ L$ M$ N$ O$ P$ Q$ R$ S$ C# T$ U$ V$ W$ X$ Y$ Z$ `$  % .% +% @% #% $% t@ %% &% *% =% -% ;% ",
">% ,% Y# '% `# )% !% ~% {% ]% ^% 8. /% (% _% :% <% [% }% |% 1% 2% 3% 4% 5% 6% 7% 8% 9% 0% a% b% c% d% e% f% g% h% i% j% 3$ k% %# l% m% Q+ u. 9$ n% o% p% q% r% s% t% u% v% w% x% y% z% A% B% C% D% E% F% t$ G% H% _@ I% J% K% L% M% N% O% P% Q% R% S% T% U% V% W% X% Y% Z% `%  & .& +& @& #& $& %& && *& =& -& ;& >& ,& '& )& !& ~& {& ]& ^& /& (& _& :& <& [& U# }& |& ",
"1& 2& 3& 4& 5& 6& 7& 8& 9& 0& a& b& c& d& e& f& g& h& i& j& k& l& m& n& o& p& q& r& s& t& u& v& w& x& y& z& A& B& C& D& E& F& G& H& I& J& O+ K& L& M& N& O& P& Q& R& S& T& U& V& W& X& Y& Y& Z& `&  * .* +* @* #* $* %* &* U  ** =* -* ;* D$ >* ,* '* )* !* ~* {* ]* ^* /* (* _* :* <* [* }* |* 1* 2* 3* 4* 5* 6* 7* 8* 9* 0* a* b* c* @% O# $% d* e* f* g* h* i* j* k* ",
"1& 2& l* m* n* o* p* q* r* s* t* u* v* w* x* y* z* A* B* C* D* E* F* G* H* I* J* K* L* M* N* O* P* Q* R* S* T* U* V* W* X* Y* Z* `*  = .= += @= #= $= %= &= *= == == -= ;= >= ,= '= )= != ~= {= +* ]= ^= /= (= _= := <= [= [= }= |= 1= 2= 3= 4= 5= 6= 7= 8= 9= 0= a= b= c= d= e= f= g= h= i= j= k= l= 4* m= n= o= p= q= r= s= t= u= v= w= x= y= z= A= B= C= D= E= F= G= ",
"H= I= J= K= L= M= N= O= P= Q= R= S= T= U= V= W= X= Y= Z= `=  - .- +- @- #- $- %- &- *- =- -- ;- >- ,- '- )- !- ~- {- ]- ^- /- (- _- :- <- [- }- |- 1- 2- 3- 4- 5- 6- 7- 8- 9- 0- a- b- c- d- e- f- g- h- i- j- k- l- m- n- o- p- q- r- s- t- u- v- w- x- y- z- A- B- C- D- E- F- G- H- I- J- K- L- M- m= N- O- P- Q- R- S- T- U- V- W- X- Y- Z- `-  ; .; +; @; #; $; %; ",
"&; I= *; =; -; ;; >; ,; '; ); !; ~; {; ]; ^; /; (; _; :; <; [; }; |; 1; 2; 3; 4; 5; 6; 7; 8; 9; 0; a; b; c; d; e; f; g; h; i; j; k; l; m; n; :$ o; p; q; r; s; t; u; v; w; x; y; z; A; B; C; D; E; F; G; H; I; J; K; L; M; N; O; P; Q; R; S; T; U; V; W; X; Y; Z; `;  > .> +> @> #> $> %> &> *> => -> ;> >> ,> '> )> !> ~> {> ]> ^> /> (> _> :> <> [> }> |> 1> 2> 3> 4> ",
"5> 6> 7> 8> 9> 0> a> b> c> d> e> f> g> h> i> d& j> k> l> m> n> o> p> q> r> s> t> u> v> w> x> y> z> A> B> C> D> E> F> G> H> I> J> K> L> M> N> O> P> Q> R> S> T> U> V> W> X> Y> Z> `>  , ., +, @, #, $, %, &, *, =, -, ;, >, ,, ', ), !, ~, {, ], ^, /, (, _, :, <, [, }, |, 1, 2, 3, 4, 5, 6, 7, 8, 9, 0, a, b, c, d, ~> e, ]> f, g, h, i, j, k, l, m, n, o, p, q, r, s, ",
"t, u, v, w, x, y, z, A, B, C, D, E, F, G, H, I, /; J, K, L, M, N, O, P, Q, R, S, T, U, V, W, X, Y, Z, `,  ' .' +' @' #' $' %' &' *' =' -' ;' >' ,' u& '' )' !' ~' {' ]' ^' /' (' _' :' <' [' }' |' 1' 2' 3' 4' 5' 6' 7' 8' 9' 0' a' b' c' d' e' f' g' h' i' j' k' l' m' n' o' p' q' r' s' t' 8, u' v' w' x' y' z' A' e, ]> B' C' D' E' F' G' H' I' J' K' L' M' N' O' P' ",
"Q' R' S' T' U' 0> V' W' X' Y' Z' `'  ) .) +) @) #) $) %) &) *) =) -) ;) >) ,) ') )) !) ~) {) ]) ^) /) () _) :) <) [) }) |) 1) 2) 3) 4) 5) 6) 7) 8) 9) 0) a) b) c) d) e) f) g) h) i) j) k) l) m) n) o) p) q) r) s) t) u) v) v) w) x) y) z) A) B) C) D) E) F) G) H) I) J) K) L) M) N) O) P) Q) R) S) T) U) V) W) X) e, Y) B' Z) `)  ! .! +! @! #! $! %! &! *! =! -! ;! >! ",
"Q' R' ,! '! )! !! ~! {! X' Y' ]! ^! /! (! _! :! <! [! }! |! 1! 2! 3! 4! 5! 6! 7! 8! 9! 0! a! b! c! d! e! f! g! h! i! j! k! l! m! n! o! p! q! r! s! t! u! v! w! x! y! z! A! B! C! D! E! F! G! H! I! J! K! L! M! N! O! P! Q! R! S! T! U! V! W! X! Y! Z! `!  ~ .~ +~ @~ #~ $~ %~ &~ *~ =~ -~ ;~ >~ ,~ '~ )~ !~ ~~ {~ ]~ ^~ /~ (~ _~ :~ <~ <> [~ }~ |~ 1~ 2~ 3~ 4~ 5~ 6~ 7~ ",
"Q' 8~ 9~ 0~ a~ b~ c~ d~ e~ f~ g~ h~ i~  ) j~ k~ l~ m~ n~ o~ p~ q~ r~ s~ t~ u~ v~ w~ x~ y~ z~ A~ B~ C~ D~ E~ F~ G~ H~ I~ J~ K~ L~ M~ N~ O~ P~ Q~ R~ S~ T~ U~ V~ W~ X~ Y~ Z~ `~  { .{ +{ @{ #{ ${ %{ &{ *{ ={ -{ ;{ >{ ,{ '{ ){ !{ ~{ {{ ]{ ^{ /{ ({ _{ :{ <{ [{ }{ |{ 1{ 2{ 3{ 4{ 5{ 6{ 7{ 8{ 9{ 0{ a{ b{ c{ d{ e{ f{ g{ h{ i{ j{ k{ l{ m{ n{ o{ p{ q{ r{ s{ t{ u{ v{ w{ ",
"x{ y{ z{ A{ B{ C{ D{ E{ F{ G{ H{ I{ J{ K{ L{ M{ N{ O{ P{ Q{ R{ S{ T{ U{ V{ W{ X{ Y{ Z{ `{  ] .] +] @] #] $] %] &] *] =] -] -] ;] >] ,] '] )] !] ~] {] ]] ^] /] (] _] :] <] [] }] |] 1] 2] 3] 4] 5] 6] 7] 8] 9] 0] a] b] c] d] e] f] g] h] i] j] k] l] m] n] o] p] q] r] s] t] u] v] w] x] y] z] A] B] C] D] E] F] G] H] I] J] k{ K] L] M] N] O] P] Q] R] S] T] U] V] W] ",
"X] Y] Z] `]  ^ .^ +^ @^ #^ $^ %^ &^ *^ =^ -^ ;^ >^ ,^ '^ )^ !^ ~^ {^ ]^ ^^ /^ (^ _^ :^ <^ [^ }^ |^ 1^ 2^ 3^ 4^ 5^ `{ 6^ 7^ 8^ 9^ 0^ a^ b^ c^ c^ d^ e^ f^ g^ h^ i^ j^ k^ l^ m^ n^ o^ p^ q^ r^ s^ t^ u^ v^ w^ x^ y^ z^ A^ B^ C^ D^ E^ F^ G^ H^ I^ J^ K^ L^ M^ N^ O^ P^ Q^ R^ S^ T^ U^ V^ W^ X^ Y^ Z^ `^  / ./ +/ @/ #/ $/ %/ &/ */ =/ -/ ;/ J' >/ ,/ '/ s{ )/ !/ ~/ {/ ]/ ",
"^/ // (/ _/ :/ </ [/ }/ |/ 1/ 2/ 3/ 4/ 5/ 6/ 7/ 8/ 9/ 0/ a/ b/ c/ d/ d/ e/ f/ g/ h/ i/ j/ k/ l/ k/ m/ n/ l/ o/ p/ q/ r/ s/ t/ u/ v/ w/ x/ y/ z/ y/ A/ B/ C/ D/ E/ F/ G/ H/ I/ J/ K/ L/ M/ N/ O/ P/ Q/ R/ S/ T/ U/ V/ W/ X/ Y/ Z/ `/  ( .( +( @( #( $( %( &( *( =( -( ;( >( ,( '( W^ )( !( ~( {( ]( ^( /( (( _( :( j{ <( &/ [( }( |( ;/ 1( 2( 3( 2~ r{ s{ 4( 5( 6( 7( 8( ",
"9( 0( a( b( c( d( e( f( g( h( i( j( k( l( m( n( o( p( q( r( s( s( t( u( v( w( x( y( z( A( B( C( D( E( F( G( E( H( I( J( K( L( M( N( O( P( Q( R( S( T( U( V( W( X( (% Y( Z( `(  _  _ ._ +_ @_ #_ $_ %_ &_ *_ =_ -_ ;_ -_ >_ ,_ '_ )_ !_ ~_ {_ ]_ ^_ /_ (_ __ :_ >( <_ [_ }_ |_ 1_ 2_ 3_ 4_ 5_ 6_ 7_ 8_ 9_ 0_ a_ b_ c_ d_ e_ f_ g_ h_ i_ j_ k_ l_ m_ n_ o_ u{ p_ q_ r_ s_ ",
"9( t_ a( u_ c( v_ w_ x_ y_ z_ A_ B_ C_ D_ E_ F_ G_ H_ I_ q( J_ J_ K_ L_ M_ N_ O_ P_ Q_ Q_ R_ S_ T_ U_ V_ W_ X_ Y_ Z_ `_  : .: +: @: #: $: %: &: *: =: -: ;: >: ,: ': ): !: ~: {: ]: ^: /: (: _: :: <: [: }: |: 1: 2: 3: 4: 5: 6: 7: 8: 9: 0: a: b: c: d: e: f: g: h: i: j: k: l: m: n: o: p: q: r: s: t: u: v: w: x: y: z: A: B: C: O] D: E: p, r{ F: G: H: I: J: K: L: ",
"M: N: O: P: Q: R: S: T: U: V: ,; W: X: Y: Z: E_ m( `:  < .< +< @< #< $< %< &< &< *< =< -< ;< >< ,< ,< '< '< )< !< ~< {< {< ]< ^< /< (< _< :< << [< }< |< 1< 2< 3< 4< 5< 6< 7< 8< 9< 0< a< b< c< d< e< f< g< h< i< j< k< l< m< n< o< p< q< r< q< s< t< u< v< w< w< x< y< z< A< B< C< D< E< F< G< H< I< J< K< L< M< N< O< P< Q< R< S< T< &! U< V< W< X< G: Y< Z< `<  [ .[ ",
"+[ @[ #[ $[ %[ &[ </ e( *[ =[ -[ ;[ >[ ,[ '[ )[ ![ ~[ {[ ][ ^[ /[ ([ _[ :[ <[ [[ }[ |[ 1[ 2[ 3[ 4[ 5[ 6[ 7[ 8[ 9[ 0[ a[ b[ c[ d[ e[ f[ g[ h[ i[ j[ k[ l[ m[ n[ o[ p[ q[ r[ s[ t[ u[ v[ w[ x[ y[ z[ A[ B[ C[ D[ E[ F[ G[ H[ I[ J[ K[ L[ M[ N[ O[ P[ Q[ R[ S[ T[ U[ V[ W[ W[ X[ Y[ Z[ `[  } .} +} @} #} $} h_ %} O< &} *} =} -} ;} >} ,} '} )} !} o_ ~} {} ]} ^} /} (} _} ",
"+[ :} <} [} }} |} d( 1} 2} 3} N= 4} 5} W: 6} 7} 8} 9} 0} a} b} c} d} e} f} g} h} i} j} c} k} l} m} m} n} o} p} q} r} s} t} u} v} w} x} y} z} A} B} C} D} E} F} G} H} I} J} K} L} M} N} O} P} Q} R} S} T} U} V} W} X} Y} Y} Z} `}  | .| +| @| #| $| %| &| *| =| -| ;| >| ,| '| )| +} !| ~| {| ]| ^| f_ /| (| _| :| <| [| }| || 1| 2| 3| 4| 5| 6| 7| 8| 9| 0| 7( a| b| c| ",
"+[ d| e| f| g| h| i| w_ 0> ~! j| k| l| m| n| o| p| q| r| s| t| u| v| w| x| y| z| A| B| C| D| E| F| F| G| H| I| J| K| L| M| N| O| P| Q| R| S| T| U| V| W| X| Y| Z| `|  1 .1 +1 @1 #1 $1 %1 &1 *1 =1 -1 ;1 >1 ,1 '1 )1 !1 ~1 {1 ]1 ^1 /1 (1 _1 :1 <1 [1 }1 |1 11 21 31 41 51 61 71 81 71 91 01 a1 b1 c1 d1 e1 f1 g1 h1 i1 j1 k1 l1 m1 n1 o1 6| p1 q1 r1 s1 t1 u1 v1 w1 x1 ",
"y1 d| z1 A1 B1 C1 D1 E1 F1 o* G1 H1 I1 J1 K1 L1 M1 M1 M1 N1 E| O1 P1 Q1 R1 S1 T1 U1 V1 W1 X1 Y1 Z1 `1  2 .2 +2 @2 #2 $2 %2 &2 *2 =2 -2 ;2 >2 ,2 '2 )2 !2 ~2 {2 ]2 ^2 /2 (2 _2 :2 <2 [2 }2 |2 12 22 32 42 52 62 72 82 92 02 02 a2 b2 c2 d2 e2 f2 g2 h2 i2 j2 k2 l2 m2 n2 o2 p2 q2 r2 s2 t2 u2 v2 w2 x2 y2 z2 h1 A2 B2 C2 D2 E2 F2 G2 H2 I2 J2 K2 L2 M2 N2 O2 P2 8( Q2 R2 ",
"y1 d| S2 T2 U2 %[ V2 W2 X2 0> c~ Y2 Z2 `2  3 .3 +3 @3 #3 $3 %3 &3 *3 =3 -3 ;3 >3 ,3 '3 )3 !3 ~3 {3 ]3 ^3 /3 (3 _3 :3 <3 [3 }3 |3 13 23 33 43 53 63 73 83 93 03 a3 b3 c3 d3 e3 f3 g3 h3 i3 j3 k3 l3 m3 n3 o3 p3 q3 r3 s3 t3 u3 v3 w3 x3 y3 z3 A3 B3 C3 D3 E3 F3 G3 H3 I3 J3 K3 L3 M3 N3 N3 O3 N3 P3 Q3 R3 S3 T3 U3 V3 W3 X3 Y3 Z3 `3  4 .4 +4 @4 #4 $4 %4 &4 8( *4 =4 -4 ",
";4 >4 e| ,4 '4 %[ C1 )4 </ F1 !4 ~4 {4 ]4 ^4 /4 (4 _4 :4 <4 [4 }4 |4 14 24 34 44 54 64 74 84 94 04 a4 b4 c4 d4 e4 f4 g4 h4 i4 j4 k4 l4 m4 n4 o4 p4 q4 r4 s4 t4 u4 v4 w4 t4 x4 y4 z4 A4 B4 C4 D4 E4 F4 G4 H4 I4 J4 K4 L4 M4 N4 O4 P4 Q4 R4 S4 T4 U4 V4 W4 X4 Y4 Z4 `4 `4  5 .5 +5 @5 #5 $5 %5 &5 *5 =5 -5 ;5 >5 ,5 '5 )5 !5 I2 ~5 {5 ]5 ^5 /5 (5 _5 $4 :5 &4 8( <5 [5 }5 ",
"|5 15 25 35 45 55 65 75 85 1} 95 05 a5 b5 c5 d5 e5 f5 g5 ,3 h5 i5 j5 k5 l5 m5 n5 _3 o5 p5 q5 r5 s5 t5 u5 v5 w5 x5 y5 z5 A5 B5 C5 D5 E5 F5 G5 H5 I5 J5 K5 L5 M5 N5 O5 P5 Q5 R5 S5 T5 U5 V5 W5 X5 Y5 Z5 `5  6 .6 +6 @6 #6 $6 %6 &6 *6 =6 -6 ;6 >6 ,6 '6 )6 !6 ~6 {6 H4 ]6 ^6 /6 (6 /6 _6 :6 <6 [6 }6 |6 H2 H2 16 26 36 46 56 66 66 76 86 96 06 a6 b6 c6 d6 e6 f6 g6 R2 h6 ",
"i6 j6 k6 l6 m6 n6 o6 p6 q6 r6 b~ s6 t6 u6 v6 w6 x6 y6 z6 A6 B6 C6 D6 E6 F6 G6 H6 I6 J6 K6 L6 M6 N6 O6 P6 Q6 R6 S6 T6 U6 V6 W6 X6 Y6 Z6 `6  7 .7 +7 @7 #7 $7 %7 &7 *7 =7 -7 ;7 >7 ,7 '7 )7 !7 ~7 {7 ]7 ^7 /7 (7 _7 :7 <7 [7 }7 |7 17 27 37 47 57 67 77 87 97 07 a7 b7 c7 d7 e7 f7 g7 h7 i7 j7 k7 l7 m7 n7 n7 o7 o7 56 p7 q7 r7 s7 86 t7 u7 v7 w7 x7 y7 z7 A7 B7 C7 D7 E7 ",
"|5 F7 k6 G7 m6 H7 I7 J7 K7 L7 M7 N7 O7 P7 Q7 R7 S7 T7 U7 V7 W7 X7 Y7 Z7 `7 t5  8 .8 .8 +8 @8 #8 $8 %8 &8 *8 =8 -8 ;8 >8 ,8 '8 )8 Y6 !8 ~8 {8 ]8 ^8 /8 (8 _8 :8 <8 [8 }8 |8 18 28 38 48 58 68 |8 78 88 98 08 a8 b8 c8 d8 e8 f8 g8 h8 i8 j8 k8 l8 m8 n8 o8 p8 q8 r8 s8 t8 u8 v8 w8 x8 y8 z8 A8 B8 C8 D8 E8 F8 F8 q7 G8 H8 I8 J8 K8 L8 M8 N8 O8 P8 Q8 R8 b| S8 T8 U8 V8 W8 ",
"X8 Y8 Z8 `8 m6  9 .9 +9 @9 #9 $9 %9 &9 *9 =9 -9 ;9 >9 ,9 '9 I6 )9 !9 ~9 {9 ]9 ^9 /9 (9 _9 :9 <9 [9 }9 |9 19 29 39 49 59 69 79 89 99 09 a9 b9 c9 d9 e9 f9 g9 h9 i9 j9 k9 l9 {8 m9 n9 o9 p9 q9 r9 s9 t9 u9 v9 w9 x9 y9 z9 A9 B9 C9 D9 E9 F9 G9 H9 I9 J9 K9 L9 }8 M9 N9 O9 P9 Q9 R9 S9 T9 U9 V9 W9 X9 Y9 W9 W9 X9 Z9 `9  0 .0 +0 @0 #0 $0 %0 &0 *0 P2 =0 8( -0 ;0 >0 ,0 '0 ",
")0 !0 ~0 {0 ]0 ^0 /0 (0 _0 :0 <0 [0 }0 |0 10 20 30 40 50 60 70 80 90 00 a0 b0 c0 d0 e0 f0 g0 h0 i0 j0 k0 l0 m0 n0 o0 p0 q0 r0 s0 t0 u0 v0 w0 x0 y0 z0 A0 B0 C0 D0 E0 F0 G0 H0 I0 J0 K0 L0 M0 N0 O0 P0 Q0 R0 S0 T0 U0 V0 W0 X0 Y0 Z0 `0  a .a +a @a #a $a %a &a *a =a -a ;a >a ,a 'a )a !a ~a {a ]a ^a /a (a _a :a <a [a }a |a 1a 2a 3a 4a &0 O2 5a 6a v1 7a 8a 9a 0a aa ",
"15 ba ca da ea fa ga ha ia ja ka la ma na oa pa qa ra sa ta ua va wa xa ya za Aa Ba Ca Da Ea Fa Ga Ha Ia Ja Ka La Ma Na Oa Pa Qa Ra Sa Ta Ua Va Wa Xa Ya Za `a  b .b +b @b #b $b %b &b *b =b -b ;b >b ,b 'b )b !b ~b {b ]b ^b /b (b _b :b <b [b }b |b 1b 2b 3b 4b 5b 6b 7b 8b 9b 0b ab bb cb db eb fb gb hb ib jb kb lb mb nb ob pb qb L: rb sb tb ub vb wb xb yb zb Ab ",
"Bb Cb ca Db Eb Fb Gb Hb Ib Jb Kb Lb Mb Nb Ob Pb Qb Rb Sb Tb Ub Vb Wb Xb Yb Zb `b  c .c +c @c #c $c %c &c *c =c -c ;c >c ,c 'c )c !c ~c {c ]c ^c /c (c _c :c <c [c .b }c |c 1c 2c 3c 4c 5c 6c 7c 8c 9c 0c ac bc bc cc dc ec fc gc hc ic jc kc lc mc nc oc pc qc rc sc tc uc vc wc xc yc zc Ac Bc Cc Dc Ec Fc Gc Hc Ic Jc Kc Lc Mc Nc Oc Pc A7 Qc Rc Sc Tc xb Uc Vc Wc 0a ",
"Xc Yc ca Zc `c  d .d +d @d n+ #d $d %d &d *d =d -d ;d >d ,d 'd )d !d ~d {d ]d ^d /d (d _d :d <d [d }d |d 1d 2d 3d m9 4d 5d 6d 7d 8d 9d 0d ad bd cd dd dc ed fd <c gd hd id jd kd ld md nd od (b dc pd qd rd sd td 8c ud Za vd wd xd yd zd Ad Bd Cd Dd Ed Fd Gd Hd Id Jd -c Kd Ld Md Nd Od Pd Qd Rd Sd Td Ud Vd Wd Xd Yd Zd `d  e .e A7 +e @e #e ub Sc $e Uc %e &e *e =e ",
"-e ;e >e ,e S2 'e )e !e ~e {e ]e ^e /e (e _e :e <e [e }e |e 1e 2e 3e 4e 5e 6e 7e 8e 9e 0e ae be ce de ee fe ge he ie je ke le me ne oe pe qe re se te ue ve %b we xe ye ze Ae Be Ce De Ee Fe Ge He Ie Je Ke Le Me Ne Oe Pe Qe Re Se Te Ue Ve Ve We Xe Ye Ze `e  f .f +f @f #f $f %f &f *f =f -f ;f >f ,f 'f )f !f ~f {f ]f ^f /f (f _f :f <f [f }f |f C7 1f %e 0a =e 2f ",
"Bb Yc 15 k6 3f 4f 5f 6f 7f Hb 8f 9f 0f af bf cf df ef ff gf hf if jf kf lf mf nf of pf qf rf sf tf uf vf wf xf yf zf Af Bf Cf ~c Df Ef Ff Gf Hf _c If Jf Kf Lf Mf Nf Of Pf Ue Qf Rf Sf Tf Uf He Vf Wf Xf Yf Zf `f  g .g +g @g #g $g %g &g Pf ve *g =g -g ;g >g ,g 'g )g !g |c ~g {g ]g ^g /g (g _g :g <g [g }g |g 1g 2g 3g 4g 5g 6g 7g 8g 9g 0g ag bg cg dg eg fg '0 2f ",
"gg Yc j6 hg ig jg kg lg mg ng og pg qg rg sg tg ug vg wg xg yg zg 3e Ag Bg Cg Dg Eg Fg Gg Hg Ig Jg Kg Lg Mg Ng Og Pg Qg Rg Sg Tg Ug Vg Wg Xg Yg Zg `g  h .h +h @h Xg #h $h %h &h *h Of =h -h ;h >h Uf ,h 'h )h !h ,b ~h {h ]h ^h /h (h _h :h <h Fe [h xd }h |h 1h 2h 3h [h 4h 5h 6h 7h 8h id #h 9h &g 0h ah bh ch dh eh fh gh hh ih jh kh lh mh nh oh ph %e qh rh rh sh ",
"th Yc uh vh wh xh yh zh Ah Bh Ch Dh Eh Fh Gh Hh Ih Jh Kh Lh Mh Nh Oh 1d Ph Qh Rh Sh Th Uh Vh Wh Xh Yh Zh `h  i .i +i @i #i $i Ee %i &i *i =i -i ;i >i ,i 'i )i !i ~i {i ]i ^i /i (i `f _i :i <i [i }i |i (g 1i 2i 3i 4i 5i 6i 7i 8i 9i 0i ai bi ci di ei fi gi hi ii 9d ji ki li mi 39 ni oi pi qi ri si ti ui vi wi xi yi zi Ai Bi Ci Di Ei Fi Gi Hi Ii Ji Ki 0a Li Mi ",
"Bb X8 Ni Oi Pi Qi Ri Si Ti Ui Vi Wi Xi Yi Zi `i  j .j +j @j #j $j %j &j *j =j -j ;j >j ,j 'j )j !j ~j {j ]j ^j /j (j Cf _j yf :j <j [j }j |j 1j 2j 3j 4j 5j 6j 7j hd 8j  g 9j i9 0j aj bj cj *f dj Uf ej fj gj hj ij jj kj lj mj nj oj pj qj rj sj (b tj uj vj wj xj yj pi zj Aj Bj Cj Dj Ej Fj Gj Hj Ij Jj Kj Lj Mj Nj Oj Pj Qj Rj Sj Tj Uj Vj Wj Xj Yj Ji Ki Zj Mi sh ",
"Bb Yc `j  k .k +k @k #k $k %k &k *k =k -k ;k >k ,k 'k )k !k ~k {k ]k ^k ^d /k (k _k :k <k [k }k |k 1k 2k 3k 4k 5k 6k 7k cd 8k 9k 0k ak bk ck dk ek fk rc gk >b hk ik 8c jk kk lk mk nk ok pk qk rk sk tk uk vk wk ij xk yk =b zk Ak Bk Ck Dk Ek Fk Gk Hk Ik Jk Xa tc Kk Lk Mk Nk Ok Pk Qk Rk Sk Tk Uk Vk Wk Xk Yk Zk `k  l .l +l @l #l $l %l &l *l ph cg =l -l qh ;l sh ",
">l ,l 'l )l .k !l ~l {l ]l ^l /l (l _l :l <l [l }l |l 1l 2l 3l 4l 5l 6l 7l 8l 9l 0l al bl cl dl el fl gl hl il jl kl ll ml nl ol pl E0 ql *b rl sl tl ul -i vl wl xl yl zl Al Bl (c Cl Dl El Fl Gl =i =f Hl Il Jl Kl Ll Ml Nl Ol Pl Ql Rl Ek Sl Tl Ul 8d Vl Wl Xl Yl Zl `l  m .m +m @m #m $m %m &m *m =m -m ;m >m ,m 'm )m !m ~m {m ]m ^m /m (m _m :m oh <m Ji rh ;l ;l ",
"[m }m |m 1m 2m 3m pk 4m 5m 6m 7m 8m 9m 0m am bm ;k cm dm em fm gm hm im jm km lm mm nm om pm qm rm sm tm um vm wm xm ym zm Am Bm Cm Dm Em Fm Gm Hm Im gk Jm Km Qf Lm Mm Nm Om Pm <b Qm Rm Sm :h Tm Um 2c -m Vm Wm Xm Ym Zm `m  n .n +n @n #n $n %n &n *n =n -n ;n >n pi -b ,n 'n )n !n ~n {n ]n ^n /n .h (n _n :n <n [n }n |n 1n 2n 3n 4n 5n 6n 7n 8n 9n 0n %e an bn bn ",
"cn dn en fn gn hn in ki jn kn ln mn nn on pn qn rn sn tn un vn wn xn yn zn An Bm Bn Cn Dn En Fn Gn Hn Kg In Jn Kn Ln Mn Nn On Pn Qn Rn Sn Tn Un Vn Nf Wn 9h Xn Yn Zn bj bj `n  o .o `n +o @o #o $o +h %o &o *o Gl =o -o ;o >o ,o 'o )o !o $n ~o kl {o ]o ^o /o (o _o :o ze 8c <o [o }o |o 1o 2o 3o 4o 5o =i 6o 7o 8o 9o 0o ao bo co do eo fo {f go ho io 9a jo qh ko lo ",
"mo no oo po qo 3m ro so 5o to uo vo wo f0 xo yo zo Ao Bo Co Do Eo Fo Go Ho Io Jo Ko Lo Mo No Oo Po Qo Ro So To Uo Vo Wo Xo Yo Zo `o  p .p +p El Zn gj @p #p $p %p &p *p =p -p ;p Kl >p ,p 'p )p !p ~p $n {p ]p 7j ^p /p (p _p :p <p [p }p |p 1p 2p Hk 3p 4p 5p 6p (o 7p 8p 9p 0p ap ln bp cp dp ep fp gp hp ip jp kp lp mp np op pp qp rp sp tp up vp 9n *e wp xp ko jo ",
"yp zp Ap Bp Cp Dp Ep Fp Gp Hp Ip Jp Kp Lp Mp Np Op Pp Qp 'd ln Rp bm Sp Tp Up Vp +m Wp Xp Yp Zp `p  q .q +q @q #q $q %q &q *q =q Qn -q ;q >q +o ,q 'q )q !q ~q {q ]q ^q /q (q ]q _q :q -p <q [q =o }q |q }q 1q 2q 3q 4q 5q 6o 6q ,q 7q -q 8q 9q 0q aq bq cq 'n dq eq fq gq Yl hq iq jq kq lq mq nq oq pq qq rq sq &h tq uq vq wq xq yq zq Aq Bq Cq Dq oh =e qh Eq Fq Gq ",
"Hq Iq Jq Kq Lq Mq Nq pi Oq Pq Qq Rq Sq Tq sn Uq Vq Eg Wq Xq Yq Zq `q  r .r +r @r #r $f $r %r &r *r =r -r ;r >r ,r 'r )r !r ~r {r ]r ^r /r (r _r :r <r [r }r |r 1r 2r 3r 4r 5r 6r 7r 8r 9r 0r ar br cr dr er 4i fr gr Kj hr ir jr kr %p lr mr ek nr or pr qr rr sr |j tr sc ur vr wr xr yr zr Ar Br Cr Dr Er Fr _i Gr Tm Hr Ir Jr Kr Lr Mr Nr Or Pr Qr Rr Sr rh 9a Tr jo ",
"Ur yp gg Vr Wr Xr Yr Zr `r  s .s +s @s #s $s %s &s *s =s -s ;s >s ,s 's )s .k !s ~s Za {s ]s ^s /s (s _s :s <s [s }s |s 1s 2s qq 3b 3s 4s 5s 6s 7s 8s 9s 0s as bs cs ds es fs gs fs hs is js ks ls 'q )q ms ns os @m ps qs rs ss ts us vs c9 di ws xs ys zs As Bs Cs Ds 2s >b tl Es Fs Gs Hs Is Js Ks Ls Ms Ns Os vk /p Ml Ps Qs Rs Ss Ts Us Vs Qr Ws Xs Ys *e Eq Zs `s ",
" t .t +t en @t #t $t %t &t *t =t -t ;t >t ,t 't )t !t ~t {t ]t ^t /t (t _t :t 's Un Rn <t [t }t |t 1t 2t 3t 4t +c 5t 6t 7t 8t >o 9t 0t 0i .o Zn 'q at bt ct dt et ft gt ht it jt kt lt mt gt nt 2r 0r ot kr pt qt rt st kp gj tt *p ut vt Ue Te wt xt yt zt At Bt Ct Dt Et Ft Gt Ht It Jt Kt Lt Mt Nt Ot Pt Qt Lf Rt qi St Tt Ut Vt Wt Xt Yt Zt `t  u .u +u `s @u #u $u ",
"%u &u Ap *u =u -u ;u >u ,u 'u )u !u ~u {u ]u ^u /u (u _u Os :u <u [u }u |u 1u 2u 3u 4u 5u 6u 7u 8u 9u 0u au bu cu du eu fu gu hu iu ju jp ku lu mu nu ou pu qu ru su tu uu vu wu wu xu yu zu Au Bu Cu Du Eu Fu Gu Xf Hu St Iu Ju Ku Lu Mu Nu hk Ou Pu Qu Ru Su Tu Uu Vu Wu Xu Yu Zu wn `u  v .v +v @v #v $v %v &v Dl *v =v .p -v ;v >v ,v 'v )v 5n !v Rr ~v {v ]v ^v Eq ",
"/v %u +t (v _v :v <v [v }v |v 1v 2v 3v 4v 5v du 6v 7v 8v 9v 0v Of av bv cv dv ev fv gv hv iv jv kv lv mv nv ov pv qv rv sv tv uv Zn vv wv xv yv zv Av Bv su Cv Dv Ev Fv Gv Hv Dv Iv Jv xu Kv uu Lv Mv Nv Ov Pv Qv Rv Sv Tv Uv Vv Wv -p Xv Yv Zv `v bb  w .w +w @w #w $w %w bd &w *w =w -w ;w >w ,w 'w )w !w ~w {w ]w ,s Nf ^w >o /w (w _w :w <w [w }w |w +u 1w @u 2w Eq ",
"3w %u 4w 5w 6w 7w 8w [v 9w 0w aw bw cw dw ew fw gw dw hw iw jw kw lw mw hd 6c Vm nw ow pw qw rw sw tw uw vw ww xw yw zw 5c Aw Bw Cw Dw Eu Ew Fw Gw Hw Iw Jw Gv Dv Fv Kw Lw Mw Nw Ow Mw Pw Ev Qw Rw Sw Tw Uw Vw Ww Xw Yw Ue ip Zw `w  x .x *h +x @x #x zt $x %x &x *x =x -x ;x >x ,x 'x )x !x ~x >w {x if ]x ^x -s /x zj ik (x _x :x <x [x }x |x 1x 2x 3x Rr 4x 5x 6x xp ",
"7x 8x 9x 0x ax bx cx dx ex fx gx {h hx Mp ix jx kx lx mx nx ox px qx 6i nk rx sx tx <c ux vx wx xx yx zx Ax Bx qv Cx Dx Ex Fx Gx Hx Ix Uw Jx Kx Lx Mx Nx Qw Ev Ox Px Lw Qx Rx Rx Rx Rx Sx Tx Px Ux Vx gs Wx Xx Yx Zx `x  y .y +y ns @y #y $y %y (g di &y *y =y -y ;y >y ,y 'y )y !y ~y {y ]y ^y /y (y _y :y <y [y Rp /x ye #f }y |y gu 1y +l 2y 3y 4y Ss 5y 8n 6y 6y 7y ",
" t  t 8y 9y 0y ay by cy dy ey fy gy hy iy jy ky ly Qk my ny oy py 6c qy ry sy ty Jm uy vy wy xy yy zy Ay By Cy Dy 7j Ey Fy  y vk Gy Hy Iy Jy Ky Ly My Ny Oy Kw Py Rx Rx Qy Ry Sy Sy Ry Qx Ty Ty Mw Jw kt gt Uy Pv Vy Wy Xy Yy Zy `y  z .z 6c +z @z 'o #z Wu $z %z &z *z =z -z ;z >z de ,z 'z )z !z ~z {z ]z ^z /z (z _z uy Hf 4c :z <z [z }z |x |z 1z 2z 3z 4z 5z 6z 7z ",
"8z 8z 9z 0z 0x az bz cz dz ez fz gz hz ow iz jz kz lz mz nz oz py pz qz rz sz tz uz vz wz ]i xz Be yz zz Az Bz Cz Dz Ez Fz 1q :p Gz Hz Iz Jz Kz Lz yu Mz Nz Lw Qx Qx Oz Sy Sy Sy Sy Sy Sy Pz Ty Qz xu yu Rz Sz Tz Uz -p Vz [r Wz Xz Yz Zz `z Ey  A .A +A @A #A $A %A &A *A =A -A ;A >A ,A 'A )A !A ~A {A ]A ^A /A (A Ae oi _A Hf $o :A <A [A }A |A 1A 2y 2A 3A 3A 4A 5A ",
" t 8z 6A 7A 8A 9A 0A aA bA cA dA eA fA gA hA iA jA Mh kA lA mA nA oA pA qA rA 5m sA tA ul uA Er Zq vA wA  g xA yA zA 7c AA BA CA DA EA EA FA gs GA HA IA JA Qz Qy Sy Sy KA KA KA KA KA Sy Sy LA Qx Jv MA NA OA PA QA RA SA TA UA ju VA WA XA YA ZA 2j !o `A  B .B +B @B #B $B %B &B *B =B -B ;B >B ,B 'B ~A )B !B >c ~B {B >i Wk ]B 3s ^B /B (B _B :B 1x <B [B }B 7y |B ",
"1B %u ot ju 2B 3B 4B cy 5B Sg 6B 7B 8B 9B 0B aB bB cB dB eB =h pr 0j $o fB 0v Ep gB hB 3c iB ;s jB kB ym lB mB nB Xg oB pB qB )h rB Iy Iy sB tB NA Mz uB Ty LA Oz Sy KA KA KA Sy KA KA KA KA Oz Qz vB Ux wB xB Sz yB zB Vy AB ^q BB 7q CB DB EB 6j ve FB GB HB IB JB KB LB MB NB OB PB QB RB SB TB UB VB WB XB YB ZB Gt `B  a  C .C +C @C #C Yk $C %C &C *C 4x =C -C &e ",
";C 7x >C Ku Yy 0A ,C 'C )C Y6 !C ~C {C ]C ky ^C /C (C _C :C <C $b Qm [C cj {l }C |C 1C 2C Gp Tn 3C bd 4C 5C hd )i od 6C 7C br 8C 9C 5r Jx 0C Ly aC Mz Px Rx Sy Sy Sy KA KA KA KA KA Sy KA KA Rx Qz Lw Iv bC Vx Iz cC 9s Ix dC eC Dw :x fC gC hC iC jC kC lC mC nC oC pC qC rC sC tC uC vC wC :k xC yC zC AC BC CC DC EC FC GC }y HC IC Rl JC KC LC MC NC OC PC QC RC aa ",
"SC TC UC @p VC WC XC 7p 6i YC ZC `C  D .D +D @D #D $D %D &D *D =D -D $h ;D >D ,D _t 'D Wk #r )D =s !D ak re ~D 3c kj {D vc ]D ^D /D bs (D _D :D vu xu <D Qx Qy Sy KA Sy Sy KA KA KA KA KA Sy Oz Qx Lw [D }D Iw FA |D 1D zB 2D 3D %p 4D 5D 6D 7D 8D 9D 0D aD bD cD dD eD fD gD hD iD jD kD lD mD mm nD 3e oD pD qD 3b 9d rD sD tD uD @C <A vD wD xD yD zD AD BD CD 0a DD ",
"ED Uz FD GD HD ID JD KD LD MD ND OD PD xA QD RD SD TD UD VD WD >s XD YD ZD 3m `D 2c  m  E .E +E @E #E $E %E :o 0j &E cj Aw *E 7r 2r =E FA Jx ht -E Cv <D Qz LA Sy KA KA Sy KA Sy KA Sy KA Sy Sy Ry ;E Iv >E ,E Jx 'E Uw ~q as Ix )E &h !E ~E {E ]E jl ^E /E (E _E :E <E [E }E |E 1E 2E 3E lD 4E 5E 'B 6E 7E 8E 9E 0E p0 aE bE cE dE eE fE gE hE iE jE kE lE 0a an mE nE ",
"oE pE qE rE Uv sE tE uE vE wE xE yE zE AE BE CE DE EE FE GE #m HE .r [u Ep IE JE 4o KE LE ME NE OE PE QE .E RE SE ,i Cw qt TE UE js EA VE Hz WE XE yu Lw Qx LA Sy Sy Sy KA Sy Sy Sy KA Sy Sy Oz Qx Kw Iv YE qu Tw 3r ZE 9r `E  F .F +F :A ps @F #F $F %F &F *F =F -F ;F >F ,F 'F )F !F ~F {F ]F ^F /F (F _F :F <F [F gr z0 }F |F *a JC 1F 2F 3F 4F 5F 6F 7F 9n 8F 9F Rc ",
"SC 0F RA aF bF cF uD dF eF fF gF hF iF jF kF lF mF nF oF pF qF rF KE ZB Yl oz .g 6k =D sF tF uF vF wF xF gd ~B yF :h `z zF AF BF CF DF Kz (D EF FF vu Px <D Rx Ry Sy Sy KA KA KA KA KA Sy Sy Rx Lw Kw GF tB HF Jx VE IF `E JF KF ms vk LF MF NF OF PF QF RF SF TF UF VF WF XF YF ZF `F  G .G +G {A @G 'w #G $G %G Rh yn &G *G =G -G ]r 6q Xy ;G >G zD ,G 'G =C =l )G f6 ",
"!G ~G Zx {G ]G ^G /G px (G _G :G <G [G }G |G 1G 2G 3G 4G 5G 6G 7G 8G 9G Co 0G aG bG cG dG eG fG gG gm hG iG jG +p Hf gq 5q kG lG mG nG 4r ds oG pG qG rG Nz Qz Qy Sy Sy KA Sy Sy Sy Sy Sy Sy LA Lw sG Mz mt tG (D js uG Nv vG wG xG 5s 5i yG zG AG BG CG DG EG FG GG HG IG JG KG LG MG NG OG PG QG RG SG TG UG VG WG {k vj XG YG ZG er 7q `G  H 4F .H +H Xs @H <m #H $H ",
"Eu %H &H vs +F *H =H -H ;H >H ,H 'H )H !H ~H {H ]H ^H Ay /H (H _H :H <H [H }H |H 1H 2H 3H 4H 5H 6H 7H 8H 9H _z Xl 0H aH Zw bH cH dH eH fH gH hH Sw iH jH kH lH Qx Oz Ry Sy Sy Sy Sy Sy Ry LA Qx vB xu bC mH HF Av nH oH 2r ]q Qv 4s pH qH rH sH tH uH vH wH xH yH zH AH BH CH DH EH FH GH HH IH JH KH LH MH NH OH Yo @s PH /j QH RH _p SH TH UH VH +H WH XH YH Ji ZH `H ",
" I .I +I @I #I $I %I &I *I =I -I ;I >I ,I 6s 'I Gd z0 )I !I ~I {I ]I ^I /I (I _I :I *c <I [I /A }I |I 8k 't 1I nk 2I 3I 4I 5I 6I 7I as 8I Tw gs 9I it Kv 0I IA Qz Rx LA LA Oz Sy Sy Sy Ry Ty Px Kw xu aI Ly Kx Iz bI cI dI eI fI gI +F ej hI iI jI kI qe lI mI nI oI pI qI rI sI tI ,t uI vI wI xI yI zI AI BI CI DI EI FI GI HI II JI (B KI LI MI NI OI ^v PI *e QI RI ",
"pE SI TI UI 4F El VI WI XI dF qr YI ZI `I  J .J +J iG !I @J #J $J %J 5H &J *J =J -J ;J <I >J /z ,J 8G 'J )J #f !J }c ~J Gx {J ]J ^J /J (J DF _J :J <J [J Hv Hv }J |J <D Sx <D LA LA Ty LA Lw Kw Mz 1J ht Av 2J 3J 4J 5J *p 6J 7J 8J 9J 0J aJ bJ cJ dJ eJ bD fJ gJ Sk hJ iJ jJ kJ lJ mJ 1d nJ oJ pJ qJ rJ sJ tJ uJ vJ wJ xJ yJ zJ AJ BJ CJ DJ EJ FJ GJ Sj HJ IJ JJ KJ LJ ",
"RA FD MJ NJ OJ PJ QJ RJ SJ TJ UJ VJ WJ fI >q ~o XJ YJ ZJ `J  K .K $J +K @K qD #K $K %K  s &K *K (d =K Rh -K `B Mf ;K 7p wl >K ,K 'K dH %H )K as !K VE aI Cv ~K {K ]K Iv |J ^K /K (K Lw vB Ev Mz vu _K gt :K <K Bv Jy [K Xf }K 9t xl |K 1K 2K 3K 4K }F 5K 6K 7K 8K 9K ie Vf 0K aK bK cK dK eK ]x fK gK hK iK jK kK lK mK nK oK pK qK rK sK tK uK vK wK xK an yK zK AK BK ",
"CK DK EK FK GK HK IK JK KK LK MK NK OK PK QK 8t _c RK SK TK UK VK WK XK YK ZK Tp  s `K  L O0 #i .L {k FI +L *v @L #L Od $L %L &L *L =L zB Uw -L Hy Jx ;L >L aC ,L EF 'L )L jH Qw Mz MA Ny !L ~L {L ]L ^L /L (L CF Vv _L ]D :L dj <L [L bB }L |L 2j 1L 2E 2L 3L 4L 5L ,n 6L 7L 8L 9L 0L aL bL cL dL eL fL gL hL iL jL kL lL mL nL .7 oL Mm pL qL rL 0g sL tL uL vb vL wL ",
"xL yL zL AL BL CL ID JK DL EL VJ FL GL HL IL JL KL LL Na ML NL OL /o Z0 PL QL RL SL TL +a 6G /H )w UL VL WL XL YD YL uz ~E ZL `L  M Du .M +M @M #M $M ds gt Au Lz gs pG %M jH 'L -E it &M ,E Bu tG *M Hz =M 9r -M ;M >M ,M 'M )M yw !M ~M {M ]M ^M /M (M _M :M <M jm [M }M |M Ao 1M 2M 3M 4M 5M 6M 7M 8M 9M 0M aM bM cM dM eM fM zn .C XI gM hM iM jM kM lM mM nM oM pM ",
"qM rM sM tM uM xD ti vM gq wM xM yM zM AM pr BM 3b CM DM 9E EM FM GM HM IM {i JM Ez Ez KM YL Tg LM MM NM OM PM }C |i QM `z RM Gu SM TM UM Yx ;C VM WM XM YM YM ZM `M  N .N ht ht +N @N #N $N %N &N *N CF =N -N ar ;N >N MF ,N 'N ov ^E )N !N ~N {N ]N ^N /N (N -x _N :N Bz <N [N }N |N 1N Hs 2N 3N 4N 5N 6N 7N 8N 9N 0N FI )x rD <c aN <A bN cN 4F dN eN fN ZH gN hN iN ",
"jN kN lN mN nN oN pN qN rN sN tN uN vN wN xN C0 pr yN zN AN BN <F CN s0 DN EN FN GN HN _b |p IN JN ow KN LN MN NN ON re PN ue QN RN =N SN TN UN yB SC VN bs WN XN nt (D (D YN Av ZN 6r =M `N  O VN VM .O +O 0i @O !B #O tk $O %O &O *O =O -O ;O >O ,O 'O Bl ^M )O AE !O ~O {O ]O ^O /O (O _O :O <O [O }O |O 1O 2O 3O 4O xo #c Hm 1j 5O `z gE 6O 7O 8O 9O 0O aO bO cO x7 ",
"jN dO eO fO gO hO iO jO wE kO lO mO nO oO pO qO rO sO tO uO Rg vO wO CC xO yO yO RE zO AO BO .b CO DO pe EO FO 0j GO HO Ue IO JO 8w @p KO Ku LO MO NO OO Ww 4r /D /D PO 2J QO RO nH SO TO UO VO WO 9t XO rx YO ZO `O  P 4C .P +P @P lv lv #P >O $P %P Hm Tv &P *P =P -P ;P >P ,P 'P )P !P ~P {P ]P ^P /P (P _P :P <P [P }P |P fd 1P (x HC 2P 3P .H 4P 5P C7 JJ 6P uL wL ",
"jN 7P 8P 9P 0P aP bP cP dP eP fP :G gP hP iP jP ji SE L0 kP Tp lP }H QL mP ;8 nP oP pP qP rP sP tP <h uP PE vP wP xP xm yP zP ]8 Aw kp AP BP CP DP EP FP GP :q HP IP JP as 2r 4r /D `E MO Dw KP LP {b 5B ~H MP 8H zw NP OP HI PP QP {s #P RP SP TP UP VP WP XP YP ZP `P  Q .Q +Q zH @Q im #Q $Q %Q &Q *Q =Q -Q ;Q >Q ,Q 'Q yf Fm :G )Q !Q ~Q {Q jE Xs 5x ]Q ^Q bO uL z7 ",
"/Q (Q eO dO _Q :Q <Q [Q }Q |Q 1Q 2Q 3Q +h 4Q ic 5Q 6Q 7Q 8Q 9Q _I YJ yF 0Q Gj 1j aQ bQ HL cQ dQ Wn eQ 4o z0 fQ Cf gQ hQ iQ jQ Ve kQ lQ RA mQ bi nQ 3F &g oQ pQ qQ rQ sQ .O 3D tQ }r }r :q uQ vQ Hu 3I wQ GC ym xQ yQ zQ AQ ]M OP BQ CQ DQ EQ FQ GQ HQ IQ JQ KQ LQ MQ NQ OQ PQ QQ RQ SQ 7H TQ UQ VQ WQ XQ YQ ZQ `Q $j  R .R +R |i @R OD #R qL .H $R 7F 'G Ii =e %R &R *R ",
"=R -R ;R >R ,R 'R )R !R 5s ~R <G OD {R ]R @z (g ,i ^R /R (R ,D Gj rc _R py jG :R <R qA #r [R Ck 9h Vn }R He dJ |R 1R 2R 3R {R 5O 4R 5R lu 6R 7R mr Gf Zm 7o 8R 9R hE <q 0R aR Dw bR cR dR )q eR KD fR gR -G hR iR 2q jR kR =n lR  f mR nR t0 oR pR qR rR sR tR xi %L 4s ,o |c uR vR wR xR yR zR AR BR CR DR ER 5v FR GR HR IR gk aN JR $I KR LR MR .l 3A $u 2f bO NR wL ",
"OR PR gO QR RR SR TR UR VR HD xE WR #x XR YR Xm ZR pt _r `R  S .S pH +S |c @S cQ #S $S %S Zf &S *S =S -S ;S >S ,S 'S )S !S `0 mP le ~S `y {S ]S ^S /S G0 (S _S :S <S [S vv [n Kj }S |S 7o 1S ;N |S 2S 3S YO dF oy .J 4S 5S 6S AE wm 7S 8S 9S 0S aS bS cS :i dS eS ^S fS _o Ou gS hS iS jS kS mq lS mS nS oS pS qS rS sS <h vy tS uS >o <S vS wS 8O ~v xS qh Eq qh uL wL ",
"yS zS AS BS CS DS hM %p 8R  M vQ yE ES WO FS 'q Ku =p GS HS IS JS KS LS 7j 2S MS NS OS PS QS RS SS  E TS US VS WS XS Hf YS >S ZS rA kn `S  T WC :p .T +T dF @T Rv tK #T $T [z %T wM &T *T G0 7c =T -T Hm ;T Wg >T ,T 0S 'T )T {o !T ll ~T {T ed ]T ^T /T NK 'I vE (T _T lr :T }c <T }F [T }T |T 1T 2T 3T 4T 5T 6T Np uk gr {h jR 7T 8T 9T 0T aT sL bT cT Zj |B 2f uL dT ",
"eT fT gT hT iT jT  H kT lT mT gE nT oT pT KS ar qT rT sT TO sT rT tT Kj uT #T OS vT iu [g wT Hx xT yT zT AT BT CT DT ET ,n DC (g FT GT HT IT _p 6J kp zk JT KT LT mQ HK MT 9J Tl @C ss NT OT (G PT QT xM |i rR RT ST TT UT VT WT 1j XT UP YT ZT `T  U .U +U ^c we WJ @U BO sR #U $U 6h J0 %U qF &U *U =U -U {y &c ;U Jm #O Fm >U mj ,U 'U 0T )U !U ~U {U 2f ]U ^U /U (U ",
"eT _U :U <U _Q [U }U |U 1U 2U 3U 4U 5U 6U 7U 8U `x 9U Qv Ix 0U 0U aU bU cU dU eU 5q fU gU hU iU jU KD -T kU lU mU nU oU pU 5p qU rU sU tU Qf +T uU vU wU IL xU yU zU %L AU tR ~H BU CU DU EU FU nl Ug GU HU IU *g JU KU LU vy Re hd ZA iR MU NU OU PU QU RU XG SU TU Cl oy 9J UU VU WU Qp XU &w YU ZU `U  V .V +V yr /n tx @V #V $V %V &V *V =V +u rh |B -V ;V >V ,V 'V ",
")V !V ~V gT {V ]V ;R uM ^V <Q /V (V _V :V <V [V *L CK Qv }V :q |V %u 1V 2V 3V  F 4V _h 5V 6V 7V 8V 9V 0V  i aV bV cV Cy dV eV 2s fV gV  C hV lj OD iV jV ;H kV 5C VP Ll lV mV nV oV pV qV rV IU Ik sV tV uV vV <j wV xV yV  C BO cj zV TU 6S AV BV CV DV BV EV 8v FV hk Bf xQ GV HV IV 7t JV KV LV MV NV <t OV PV QV Cz )D RV lc SV TV UV VV Rr Ki -l =e -V %R WV XV YV ",
"ZV `V  W .W +W @W #W {V $W }U %W &W *W 6J .T PJ pT fO EP 8y =W =W -W 0z ;W >W Wy ,W _h 'W [p )W 9q !W ~W {W ]W ^W aV /W (W _W :W <W [W }W |W 1W ie @R 2W 3W 4W 5W 6W 7W br 8W 9W _G 0W wd aW bW #z cW TS dW aN gR -G YO Ie #p eW fW Xm gW hW Cf iW jW 5C :j kW 8v pA C0 lW sP UP nQ xt mW nW oW pW qW rW sW fp tW tF &m uW vW wW xW yW zW 1x AW BW CW DW EW FW mM GW HW ",
"ZV `V IW JW KW LW MW NW OW PW QW aF RW SW TW UW VW WW XW YW ZW `W  X .X Ix +X @X Vv #X <p $X gS  p %X &X se ;T *X =X -X ;X >X ,X 'X )X !X ~X xm ev {X -n ]X (w XO ^X zy ^c TU <G SU |h /X (X nj cW ZC _X 3S :X ,h +F <X XR 4s @p [X }X |X 1X .E NE 2X 3X )x KV rv 4X 5X Fe Cz 6X 7X 8X 6S %i 9X 0X aX bX cX 8k dX PH eX fX gX hX iX jX kX lX mX nX oX Mi pX qX rX sX tX ",
"ZV uX vX wX xX yX zX AX {V BX tM CX :Q DX ~Q EX FX GX HX ;N IX `W 8x JX KX LX jO MX FS uT $V ~h #T mk NX 5c ZA Wl ^j OX PX QX RX 1P SX TX UX VX WX XX YX ZX `X )W  Y .Y +Y @Y XR #Y *X xQ $Y %Y &Y *Y ps =Y -Y ;Y >Y ,Y 'Y %b (i )Y !Y ~Y Xg Qt {Y Rh ]Y cm ^Y /Y (Y _Y 4X :Y <Y [Y Bz ~T }Y kI |Y 1Y 2Y 3Y 4Y 5Y 6Y *Y Gf  h aH 7Y 8Y 9Y :B 0Y aY bY `s cY )G dY GW tX ",
"ZV eY fY JW gY hY MW iY jY kY lY mY nY oY +I pY qY jO rY sY tY uY vY wY JX xY yY 3F zY AY BY Hu CY yd yF DY ZA a9 YT EY FY BV GY HY IY JY Ve KY Cy LY MY NY OY PY QY RY SY TY UY VY WY XY Im YY ZY ,h ^S `Y Ps 9J [M Wl  Z .Z +Z @Z #Z $Z %Z `B nW &Z *Z =Z 6k -Z od H0 ;Z >Z Jm ed /h ,Z 'Z )Z !Z ~Z {Z ]Z ck ^Z Dm /Z HC (Z MT _Z :Z <Z [Z @H ,0 '0 }Z 2f lM |Z GW tX ",
"ZV eY vX JW 1Z 2Z hY 3Z 4Z `G 5Z 6Z 7Z 8Z 9Z CS QW 0Z aZ bZ cZ FP dZ ^V MO 8y eZ fZ KC mp hd }q gZ !p hZ ;H ZC >Z _I Ya uk ]o iZ TU jZ !c 2s Gk ak kC kZ lZ mZ ]Z nZ oZ pZ qZ rZ sZ iO Xf tZ uZ vZ wZ xZ qs vE yZ zZ AZ hP BZ CZ DZ EZ FZ GZ zA HZ bG iq IZ sS JZ kw Ae wy yP hc 6i C0 bG #c 79 KZ ,Z LZ MZ NZ OZ SX ed PZ QZ RZ SZ TZ UZ VZ WZ cg XZ W8 E7 YZ ZZ `Z GW ",
" ` .` fY +` @` #` hY $` %` GK OC &` wT *` =` -` SI CS FP ;` >` ,` '` )` YW !` 6s tK ~` {` ]` ^` 2S &f /` (` _` :` <` hi [` +S (c }` |` :` 1` 2` 3` 4` Og 5` 6` 7` 8` ^X Ql mj ^` 9` )Y 0` Yy 2W _n !p +h 8o SH a` b` JQ c` d` e` f` g` Zf ir HN sv h` [` ,n i` j` yO k` l` .z ,c |` m` /g Dm .w n` o` p` q` jQ ~o =f r` Bk &I s` t` u` v` PC w` 0a x` y` z` A` |Z B` C` ",
"D` D` .` fY fY E` #` F` KW dN G` H` I` J` lY K` >R ;R TI L` M` N` $W pQ vS O` P` Q` R` S` T` xE Fz Ey  C 8v U` V` gd QE 8p .E ld Ue Hf 2j W` nA <i X` ~T Y` Z` ``   .. .~E ,h dE 5o + .@ .%o bi # .$ .% .& .* .= .Jf - .; .Jl > ., .g` ' .) .^R k` mP ! .8v ~ .Xq .Z *f { ..h oA 8H  h ] .]w vz ^ .^ . n 8t / .( .1Q ZG 3S 3S _ .: .< .Pr [ .} .| .1 .2 .3 .A` 4 .4 .A` ",
"D` 5 .IW fY fY JW #` F` 6 .7 .8 .9 .0 .a .jh b .c .OW d .Xk e .f .db g .h .xD i .j .k .l .m .n .o .9J Bz p .~h #f Kf $n q .#f JE _u Wf r .6i s .xt t .u .v .`O w .x .y .z .Gl /r cQ A .<A B .>i oL _p C .D .E .F .{ .@ .Vy wY G .' .H .I .I .sq &E J .J .8v 8j tA #i  a Sm 4Q 6C ;U 0j K .L .M .gS 9j 'I N .O .P .Q .R .2Q S .T .U .V .eg } .#H ZH W .X .C` 3 .ZZ 4 .Y .",
".` .` D` Z .IW ` . .....+..@..#..$..%..&..*..=..-..OW ;..>..J` ,..=` '..)..!..~..{..]..^../..(.._..:..<..>o [..}..id $n YR _R se |.. Z OZ 5c Mf 1..^c 2..3..gc 4..5..6..7.. p Gl Mm zl 8..XR 5i 9..Jj 0..a..b..c..d..ns e..f..xk (p g..h..Ym Ck $h fj i..j...h 9Q k..l..m..@o n..o..Sm $n p..Mf 8j yF }y `z q..uN =T r..s..t..u..aY v..lM w..x..x..Y .y..3 .3 .z..A..B..",
"D` 5 .fY Z .Z .C..1Z gY xX D..E..F..G..H..I..$R J..K..MJ L..oN M..6Z N..O..NC P..Q..R..SN pL S..T..U..V..dF jQ [..]r Hu W..w .X..XG Y..6S Z..`...h 9p iR  +..+.vj ++.@+.UT GY #+.1F eQ $+.%+.&+.}q W0 (..*+.bh =+.-+.;+.>+.,+.@T '+.)+.!+.~+.>e {+.yT ]+./p ^+.zV /+.(+._+.tZ :+.qs  A Wk 8c wl <+.:T >q Tv [+.}+.|+.1+.YI 2+.3+.4+.5+.6+.7+.z` 8+.A..9+.3 .3 .ZZ y..A` ",
"5 .5 ..` Z .0+.a+.b+.E` c+.d+.e+.f+.g+.h+.dN i+.j+.k+.l+.m+.qL n+.M..o+.D..p+.q+.M` r+.s+.t+.u+.v+.w+.x+.y+.z+.N .A+.Bk xW Ge 99 B+.C+.D+.E+.5c YD ci :Y ie F+.G+.H+.:R gd d..I+.Gl J+.K+.L+.eS M+.c` N+.>f zY O+.P+.Q+.0r R+.]q *L S+.T+.U+.ut =p V+.,+.W+.Zn )l X+.Y+.Z+.JS `+. x Fy  @.#h >i Gl Bw 7q fE Mj Oj ~Q .@.+@.@@.#@.$@.%@.&@.*@.GW z` =@.A..A..A..-@.=@.;@.",
">@.D` .` D` 0+.,@.'@.'@.)@.1Z !@.LW #` ~@.{@.]@.^@./@.(@.N+._@.:@.<@.[@.}@.|@.kN 1@.2@.3@.4@.5@.6@.x+.g8 7@.]` 8@.9@.*I 0@.a@.b@.c@.d@.e@.f@.IT %Z }q g@.p` +x (j h@.i@.j@.=i k@.l@.m@.n@.o@.p@.q@.2S <V _T nY UN r@.s@.Vw JP t@.u@.v@.2D w@.s@.(q aR x@.y@.9o z@.qt A@.B@.z@.AP  x Ll Aw C ._n C@.DP D@.D@.}z E@.F@.G@.NI MR H@.I@.J@.K@.L@.M@.N@.O@.O@.O@.O@.P@.Q@.R@.",
">@.D` D` D` 0+.,@.'@.'@.@` 1Z gY S@.2Z T@.U@.LW V@.W@.AW X@.Y@.Z@.`@. #..#.~a +#.OJ @#.##.$#.37 %#.=P /X &#.*#./ .4D AZ =#.-#.;#.J .>#.,#.'#.)#.!#.kj >Z SX ~#.{#.0j I+..z ]#.8t l@.^#./#.(#._#.:#.<#.[#.}#.|#.<#.1#.8r 2#.3#.4#.JF 5#.9r u@.2D 6#.,W rQ bH 7#.8#..x 3i Ju 9#.eU ju 0#.)q a#.ms fI >m b#.c#.*W d#.e#.f#.jM +H g#.h#.i#.j#.&R k#.N@.O@.O@.O@.O@.P@.Q@.R@.",
"l#.5 .5 .5 .Z .,@.'@.'@.m#..W gY F` n#.T@.U@.o#.p#.q#.r#.BW _f s#.t#.t#.zD rL u#.v#.w#.b .Pj Wt x#.[n y#.z#.A#.kX B#.C#.D#.E#.F#.G#.H#.Cs I#.J#.K#.L#.bq L#.M#.N#.O#.}K P#.^r %I gI Q#.vs xT Yn aR R#.^@.S#.T#.9Z U#.V#.Pv IP W#.X#.Y#.PO Z#.Xx 9r IP `#.R+.*E  $.cH :q JS }K :r Yw .$.KO +$.@$..F #$.$$.gM }z :@.jE %$.&$.*$.=$.-$.;$.>$.,$.'$.N@.O@.)$.GW O@.!$.Q@.~$.",
"{$.]$.5 .5 .Z .,@.^$.'@./$.#` #` #` S@.($._$.:$.<$.[$.|@.K` }$.|$.1$.2$.=..f#.3$.4$.5$.6$.7$.8$.9$.0$.a$.b$.c$.=+.pH <n d$.e$.'o f$.g$.h$.i$.j$.<b k$.l$.m$.n$.nB o$.p$.p$.iP <+.q$.Cl Q0 r$.s$.XW t$.u$.v$.w$.x$.y$.z$.A$.X#.R+.Uw dH X#.W#.B$.9r JP mu mu JP v@.w@.=N /q C$.D$.Vz E$.F$.G$.8 .xG j .5$.H$.wD I$.+H J$.K$.L$.L$.M$.N$.O$.P$.Q$.N@.R$.S$.S$.T$.U$.V$.W$.",
"{$.]$.D` .` Z .X$.^$.'@./$.#` #` n#.Y$.Z$.`$._$. %..%.+%.}@.e#.@%.BS #..#%.$%.<@.8 .%%.&%.*%.[U @y 8T =%.-%.J9 ;%.k@.lr `..>%.,%.A#.(X '%.)%.!%.&f ~%.{%.{b ]%.^%.El /%.!i L .(%.ze CY _%.:%.<%.[%.}%.|%.1%.2%.3%.4%.5%.]J 6%.7%.8%.9%.0%.'E X#.^J a%.3#.nu v@.6#.b%.:q c%.d%.e%.%%.f%.g%.h%.G$.[@.i%.j%.s#.[@.k%.l%.m%.g6 n%.o%.p%.q%.r%.s%.t%.u%.O@.O@.S$.S$.!$.Q@.R@.",
"l#.l#.>@.v%.w%.x%.'@.^$.'@.y%.z%.A%.T@.B%.C%.D%.hY MW E%.mY K` F%.K..G%.H%.I%.J%.K%.L%.M%.BW N%.*` O%.P%.Q%.R%.S%.T%.U%.V%.W%.X%.Y%.Z%.`%. &..&.+&.@&.#&.$&.%&.&&.@h *&.=&.-&.;&.>&.,&.'&.)&.!&.~&.{&.|%.]&.^&./&. O (&._&.:&.<&.[&.}&.|&.1&.2&.3&.4&.3&.5&.6&.3%._q 7&.8&.9&.0&.D$.BL a&.b&.c&.d&..@.e&.f&.g&.h&.dN i&.{@.j&.A7 k&.l&.m&.n&.o&.p&.~$.W$.W$.q&.W$.W$.r&.",
"l#.l#.l#.l#.s&.,@.^$.^$.'@.z%.t&.u&.v&.LW R2 w&.x&..%.y&.z&.A&.B&.L%.C&.sM D&.E&.F&.G&.H&.I&.C&.J&.K&.L&.M&.N&.N+.O&.P&.`I Q&.R&.&Y S&.T&.U&.V&.~J Lk W&.X&.Y&.Z&.Gd `&. *..*.+*.@*.#*.$*.U0 %*.&*.**.=*.-*.;*.>*.,*.>*.'*.)*.!*.~*.{*.]*.nu ^*./*.(*.9%. O ^J _*.:*.0s <*.[*.}*.|*.1*.5F 2*.d#.3*.Ic 4*.5*.6*.7*.o#.8*.9*.0*.a*.b*.;$.r&.c*.d*.W$.~$.~$.W$.q&.e*.e*.W$.",
"l#.l#.{$.l#.>@.f*.^$.'@.'@.z%.=$.g*. W h*.i*.j*.k*.=R l*.m*.n*.o*.[$.o*.p*.q*.lN r*.x$.s*.s#.t*.u*.v*.w*.x*.y*.$*.z*.A*.2g B*.C*.EU D*.fB E*.F*.G*.H*.I*.fB J*. E K*.L*.M*.N*.O*.P*.Q*.R*.S*.T*.U*.V*.W*.X*.Y*.Z*.`*. =..=.)*.+=.@=.{*.#=.$=.%=.&=.*=.*=.==.*=.-=.;=.>=.,=.'=.)=.!=.~=.{=.]=.Gc ^=./=.(=.a ._=.:=.:=.<=.[=.}=.|=.1=.l&.2=.3=.4=.W$.5=.5=.5=.6=.7=.q&.8=.",
"l#.l#.l#.l#.>@.,@.^$.^$.^$.'@.9=.0=.a=.l*.b=.c=.d=.e=.f=.b=.g=.h=.i=.j=.i=.k=.k=.4%.l=.m=.n=.R*.o=.p=.q=.r=.s=.t=.u=.v=.w=.x=.#*.y=.z=.A=.B=.C=.D=.E=.C=.F=.G=.H=.I=.J=.K=.L=.M=.=%.S#.N=.O=.P=.Q=.R=.S=.T=.U=.V=.W=.X=.Y=.Z=.`=. -..-.+-.@-.#-.$-.%-.%-.&-.%-.*-.=-.--.;-.>-.,-.'-.)-.!-.~-.{-.]-.^-./-.(-._-.:-.<-.[-.}-.|-.1-.2-.d*.3-.3=.4-.4-.4-.5-.5-.4-.5-.6-.5-.",
"{$.{$.v%.l#.>@.,@.^$.^$.'@.z%.7-.:=.8-.9-.0-.9-.d=.a-.b-.c-.d-.e-.6%.f-.g-.h-.i-.j-.k-.l-.m-.n-.o-.p-.q-.r-.s-.t-.l=.u-.v-.w-.x-.y-.z-.A-.B-.C-.D-.E-.F-.(V G-.H-.I-.J-.K-.L-.M-.N-.O-.P-.Q-.R-.S-.T-.U-.V-.W-.X-.Y-.Z-.`-. ;..;. ;.+;.@;.#;.$;.%;.&;.*;.=;.-;.;;.>;.,;.';.);.!;.~;.{;.'-.];.^;./;.(;._;.:;.<;.[;.};.}-.|;.1;.2;.3;.4;.5;.5;.5;.5-.5-.6-.5-.4-.5-.5-.4-.",
"2;.2;.6;.6;.7;.w%.w%.w%.8;.u&.A%.9;.A%.9-.0;.a;.b;./Q c;.d;.e;.f;.g;.h;.i;.i;.j;.k;.k;.l;.V*.m;.n;.o;.p;.q;.r;.s;.t;.u;.v;.w;.x;.y;.z;.P` A;.B;.C;.D;.E;.F;.G;.H;.I;.J;.K;.K;.L;.M;.N;.O;.P;.Q;.R;.S;.t;.T;.U;.V;.W;.X;.Y;.Z;.`;. >..>.+>.@>.#>.$>.%>.&>.&>.&;.*>.=>.->.;>.>>.,>.'>.)>.!>.!;.~>.{>.]>.7~ ^>./>.(>.v%._>.6;.]$.{$.:>.<>.[>.5;.5;.5-.5-.5-.5-.5-.4-.4-.}>.",
"|>.1>.1>.2>.3>.6;.>@.v%.4>.4>.5>.u&.6>.7>.8>.a;.9>.0>.^;.a>.b>.c>.d>.e>.f>.g>.h>.i>.j>.f>.k>.l>.t;.m>.n>.o>.p>.q>.E8 m>.r>.s>.t>.u>.v>.D;.w>.x>.y>.z>.B8 A>.B>.D;.}7 C>.D>.E>.F>.G>.H>.I>.J>.K>.w>.L>.M>.N>.O>.P>.Q>.R>.S>.T>.U>.V>.W>.X>.Y>.Z>.`>. ,..,.+,.@,.#,.$,.%,.&,.*,.=,.-,.;,.>=.>,.,,.',.),.!,.~,.y%.4>.{,.],.^,./,.{$.(,.<>.:>.4;.5;._,._,._,.:,._,.<,.[,.[,.",
"|>.1>.1>.2>.3>.6;.>@.v%.4>.4>.7;.},.yS |,.1,.2,.3,.4,.5,.6,.7,.8,.9,.0,.a,.b,.c,.d,.e,.f,.g,.h,.i,.j,.k,.l,.m,.n,.o,.p,.q,.r,.s,.t,.u,.v,.w,.x,.y,.z,.A,.B,.C,.D,.E,.F,.G,.H,.]6 I,.J,.K,.L,.M,.N,.O,.P,.Q,.R,.S,.T,.U,.V,.W,.X,.Y,.Z,.`,. '..'.+'.@'.#'.$'.%'.&'.*'.$,.='.-'.;'.>'.,'.]>.''.)'.!'.~'.{'.]'.~,.^'./'.('._'.:'.{$.<'.['.}'.|'.1'.5;.5;.5;._,.5;.[,._,.[,.",
"1>.2>.3>.1>.3>.6;.v%.>@.4>.4>.5>.},.2,.7>.2'.3'.5,.a>.4'.5'.*>.6'.7'.8'.9'.0'.Y>.a'.b'.l,.c'.d'.e'.f'.g'.h'.i'.j'.k'.l'.m'.n'.o'.p'.q'.r'.s'.t'.u'.v'.w'.x'.y'.z'.A'.B'.x'.C'.D'.E'.F'.G'.H'.I'.J'.K'.L'.M'.N'.O'.P'.Q'.R'.S'.T'.U'.V'.W'.X'.Y'.Z'.`'. )..).+).@).#).$).%).&).*).=).-).;).>).,).').)).!).~).{).]).^)./).().().()._).:).:).<).[).}).|).|).1).2).1).2).3).",
"|>.1>.};.|>.2>.4).v%.4>.4>.4>.5).6).2,.2'.2'.0-.a>.)=.7).8).9).7'.0).a).b).;,.c).d).e).f).g).h).i).j).k).l).m).n).o).p).q).r).s).t).u).v).w).x).y).z).A).B).C).D).E).F).G).H).I).J).K).E).L).M).N).O).P).Q).R).S).T).U).V).W).X).Y).Z).Z).`). !..!.+!.@!.#!.$!.%!.&!.*!.=!.-!.;!.>!.,!.'!.)!.!!.~!.{!.]!.~).^!./!.(!.^)./).()._!.:!._).<!.[!.}!.<).|!.|!.|!.[).1!.2!.2!.",
"1>.1>.1>.6;.7;.3!.s&.4>.4>.4!.^'.5!.6!.5,.7!.6,.8!.9!.0!.a!.b!.c!.d!.e!.f!.g!.h!.f).Y'.i!.j!.k!.l!.m!.n!.o!.p!.q!.r!.s!.t!.u!.v!.w!.x!.y!.z!.A!.B!.C!.D!.E!.F!.G!.H!.I!.J!.K!.L!.M!.N!.O!.P!.Q!.R!.S!.T!.L3 U!.V!.W!.X!.Y!.Z!.`!. ~..~.+~.@~.#~.$~.%~.&~.*~.=~.-~.;~.>~.&!.,~.'~.)~.!~.~~.{~.]~.^~./~.(~._~.:~.)).^!.<~.[~.}~._!.|~.1~.2~.2~.3~.4~.|!.[).[).5~.1!.6~.1!.",
"2>.2>.>@.>@.7~.8~.8~.9~.0~.a~.a~.b~.b~.c~.c~.d~.e~.7).f~.g~.h~.i~.j~.k~.f).l~.m~.n~.o~.p~.q~.r~.s~.t~.u~.v~.w~.x~.y~.z~.A~.t!.B~.C~.D~.E~.F~.G~.H~.I~.J~.K~.L~.M~.N~.O~.P~.Q~.R~.S~.T~.U~.V~.W~.X~.Y~.Z~.`~. {..{.+{.@{.#{.${.%{.%{.&{.*{.={.-{.;{.>{.,{.'{.){.!{.~{.{{.]{.^{./{.({._{.:{.<{.[{.)!.}{.|{.1{.2{.3{.4{.5{.6{.7{.|~.8{.<!.2~.<!.9{.:).0{.a{.|!.b{.c{.d{.e{.",
"f{.f{.g{.h{.i{.7~.j{.7~.k{.l{.m{.n{.o{.p{.q{.d~.r{.s{.t{.u{.v{.w{.x{.y{.z{.A{.U,.B{.C{.D{.E{.F{.G{.G{.H{.I{.J{.K{.L{.M{.N{.O{.P{.Q{.R{.S{.:& T{.U{.V{.W{.X{.Y{.Z{.`{. ]..].+].@].#].@].$].%].&].*].=].-].;].>].,].'].)].!].~].{].]].^]./].(]._].:].<].[].}].|].1].2].3].3].4].5].6].7].8].9].0].a].b].c].d].e].f].4{.4{.g].5{.h].i].j].j].k].l].m].:).6~.[).|!.6~.d{.e{.",
"n].n].o]._'.k{.p].p].q].a~.r].s].t].t].u].t].'!.v].w].x].y].z].R>.z{.A].B].C].D].q~.E].F].G].H].I].J].K].L].M].N].O].P].Q].R].S].T].U].V].W].X].Y].Z].`]. ^..^.+^.@^.#^.@^.$^.%^.&^.*^.=^.=^.-^.;^.>^.,^.'^.)^.!^.~^.{^.]^.^^./^.(^._^.:^.<^.[^.}^.|^.1^.2^.3^.4^.5^.6^.7^.8^.9^.0^.a^.a^.b^.c^.c^.d^.e^.f^.g^.g^.h^.i^.j^.4{.4{.k^.l^.m^.m^.n^.o^.p^.q^.r^.s^.6~.d{.d{.",
"t^.u^.v^.{).w^.k{.k{.a~.r].r].x^.t].u].u].>,.y^.z^.A^.B^.C^.R>.V>.D^.E^.F^.G^.H^.I^.J^.K^.L^.M^.M].N^.O^.P^.Q^.R^.S^.T^.U^.V^.W^.X^.Y^.Z^.`^. /../.+/.@/.#/.$/.%/.&/.*/.=/.-/.;/.>/.,/.'/.)/.!/.~/.{/.]/.^/.//.(/._/.:/.</.[/.}/.|/.1/.2/.3/.4/.5/.6/.7/.8/.9/.0/.a/.b/.c/.d/.e/.f/.5].g/.h/.8].9].i/.j/.k/.l/.m/.n/.o/.p/.i^.q/.5{.r/.r/.s/.t/.l].l].u/.q^.v/.w/.d{.d{.",
"x/.y/.{).{).z/.k{.a~.l{.r].r].A/.t].B/.C/.D/.E/.F/.G/.H/.I/.J/.K/.L/.M/.N/.F{.O/.P/.Q/.H{.R/.S/.T/.U/.V/.W/.X/.Y/.Z/.`/. (..(.+(.@(.#(.$(.%(.&(.*(.=(.-(.;(.>(.,(.,(.,(.'(.'(.)(.!(.~(.{(.](.^(./(.((._(.:(.<(.[(.}(.|(.1(.2(.3(.4(.5(.6(.7(.8(.9(.0(.a(.b(.c(.d(.e(.f(.g(.h(.i(.j(.k(.l(.m(.n(.a^.o(.p(.q(.r(.s(.t(.u(.o/.v(.w(.x(.x(.y(.s/.t/.z(.l].A(.u/.9{.q^.d{.d{.",
"_'.B(.C(.k{.k{.a~.l{.b~.D(.E(.*,.F(.G(.H(.I(.J(.K(.L(.M(.N(.O(.P(.Q(.R(.F].S(.T(.U(.V(.W(.X(.Y(.Z(.`(. _.._.+_.@_.#_.$_.%_.&_.*_.=_.-_.;_.>_.,_.'_.)_.!_.~_.{_.]_.^_./_.(_.__.:_.__.<_.[_.<_.<_.}_.|_.1_.2_.2_.3_.4_.5_.6_.7_.8_.9_.0_.a_.b_.c_.d_.e_.9(.f_.g_.h_./].i_.j_.k_.l_.m_.n_.o_.p_.m(.q_.r_.s_.t_.u_.v_.w_.x_.x_.o/.y_.z_.A_.g].B_.C_.r/.t/.D_.D_.E_.F_.A(.G_.",
"('.v^.H_.k{.k{.I_.J_.!,.K_.),.L_.L_.C/.I(.M_.N_.O_.P_.Q_.R_.S_.T_.U_.V_.`!.W_.X_.Y_.W(.Z_.`_. :.`(..:.+:.@:. (.#:.$:.%:.&:.*:.=:.-:.;:.'(.>:.,:.':.):.!:.~:.{:.]:.^:./:./:.(:._:.::.::.<:.[:.}:.|:.1:.2:.3:.4:.5:.6:.7:.8:.9:.0:.a:.b:.c:.d:.e:.f:.g:.h:.i:.j:.k:.l:.m:.n:.o:.p:.q:.r:.s:.t:.p_.u:.q_.r_.s_.t_.v:.v:.w:.x_.x:.y:.i^.z:.A_.r/.s/.A:.A:.A:.B:.B:.C:.D:.E:.",
"_'.v^.F:.G:.k{.H:.!,.I:.),.t].J:.K:.>!.L:.M:.N:.O:.P:.Q:.R:.N/.S:.T:.T(.U:.V:.W:.X:.Y:.Z:.`:. <..<.+<. (.@<.#<.$<.%<.&<.*<.=<.-<.;<.><.,<.'<.)<.!<.~<.{<.]<.^<./<.(<._<.:<.<<.[<.}<.|<.1<.2<.3<.4<.5<.6<.7<.8<.9<.0<.a<.b<.c<.d<.e<.f<.g<.h<.i<.j<.k<.l<.m<.n<.o<.p<.q<.r<.s<.t<.u<.v<.w<.x<.y<.z<.A<.B<.C<.D<.t_.E<.F<.w:.G<.H<.I<.J<.K<.z:.L<.x(.A:.B:.B:.B:.M<.N<.O<.",
"_'._'.P<.Q<.k{.J_.R<.A/.!).B/.K:.K:.L:.S<.T<.U<.V<.W<.&~.X<.Y<.Z<.`<. [..[.X(.+[.@[. :.#[.$[.%[.&[.*[.=[.-[.-_.;[.>[.,(.,[.'[.)[.![.~[.{[.][.^[./[.([._[.:[.<[.[[.}[.|[.1[.2[.2[.3[.3[.3[.4[.5[.6[.7[.8[.9[.0[.a[.b[.c[.d[.e[.f[.g[.h[.i[.j[.g<.h<.k[.l[.m[.n[.o[.p[.q[.r[.s[.t[.u[.v[.v<.w[.x[.y[.z[.A[.B<.B[.C[.D[.E[.F[.G[.H[.H<.I[.J[.J<.K<.x(.y(.A:.A:.B:.K[.L[.M[.",
"v^._'.P<.k{.a~.N[._~.A/.!).B/.O[.='.P[.V# ,~.Q[.M(.R[.S[.T[.U[. ~.V[.W[.X[.Y[.Z[.`[.,]. }..}.+}..^.@}.#}.$}.%}.~(.&}.*}.=}.-}.;}.>}.,}.'}.)}.:[.!}.~}.{}.]}.^}./}.(}._}.:}.(}.<}.:}.:}.[}.}}.|}.1}.2}.3}.4}.5}.6}.7}.8}.9}.0}.a}.b}.c}.d}.e}.f}.g}.h}.i}.j}.k}.l}.m}.n}.o}.p}.q}.r}.s}.t}.u}.v}.w}.x}.y}.z}.B<.A}.C[.B}.E<.F[.C}.D}.H[.E}.v(.J[.F}.G}.H}.I}.J}.K}.L}.M}.",
"N}.{).{).F:.O}.P}.Q}.R}.]!.S}.T}.%).U}.V}.W}.X}.R_.Y}.Z}.`}. |..|.+|.@|.#|.$|.%|.&|.*|.=|.@(.-|.;|.>|.,|.'|.|_.{_.)|.!|.~|.{|.]|.^|./|.(|._|.:|.<|.[|.}|.||.1|.2|.3|.4|.5|.6|.6|.7|.7|.8|.9|.9|.0|.a|.b|.c|.d|.e|.f|.g|.h|.i|.j|.k|.l|.m|.n|.o|.p|.q|.r|.s|.t|.u|.v|.w|.x|.y|.z|.A|.B|.C|.D|.E|.F|.G|.H|.I|.J|.K|.L|.M|.N|.B}.E[.C}.O|.P|.Q|.R|.S|.T|.U|.V|.J}.W|.X|.Y|.",
"{).Z|.{).`|. 1.P}..1.+1.@1.#1.$1.%1.&1.*1.=1.-1.;1.>1.,1.'1.)1.!1./].X[.~1.{1.]1.^1./1.@<.(1._1.:1.<1.[1.}1.|1.11.21.31.41.51.61.71.81.<}.91.01.a1.b1.c1.d1.e1.f1.g1.h1.i1.j1.k1.l1.l1.m1.n1.n1.o1.p1.q1.r1.s1.t1.u1.v1.w1.x1.6}.y1.z1.A1.B1.C1.D1.E1.F1.r|.G1.H1.I1.J1.K1.L1.M1.N1.O1.P1.Q1.R1.S1.T1.U1.V1.W1.X1.Y1.Z1.`1. 2..2.E[.+2.@2.#2.$2.%2.z_.T|.U|.I}.&2.&2.*2.",
"{).{).y/.=2. 1.-2.f].+1.#1.;2.>2.%1.&1.*1.=1.,2.'2.)2.!2.~2.{2.]2.^2./2.(2._2.:2.<2.[2.}2.|2.:1.12.[1.}1.22.32.42.52.62.72.82.92.02.a2.b2.c2.d2.e2.f2.g2.h2.i2.j2.k2.l2.m2.n2.o2.p2.q2.o2.r2.s2.t2.u2.v2.w2.x2.y2.z2.A2.B2.C2.D2.E2.F2.G2.H2.I2.m|.J2.K2.L2.M2.N2.O2.P2.Q2.R2.S2.T2.U2.V2.W2.X2.Y2.Z2.`2. 3..3.+3.Y1.@3.#3.N|.$3.%3.C}.+2.&3.*3.=3.-3.T|.T|.H}.W|.&2.*2."};
