/* XPM */
static char * collectible_space_xpm[] = {
"120 120 12778 3",
"   	c #0A3640",
".  	c #123A41",
"+  	c #1F4146",
"@  	c #294448",
"#  	c #334A4C",
"$  	c #3E4D4C",
"%  	c #49524E",
"&  	c #535850",
"*  	c #5A5D53",
"=  	c #636254",
"-  	c #6D6556",
";  	c #756857",
">  	c #7D6D5A",
",  	c #86725C",
"'  	c #8E755D",
")  	c #94795F",
"!  	c #9C7D5F",
"~  	c #A08160",
"{  	c #BB9F7B",
"]  	c #AC8864",
"^  	c #B88A66",
"/  	c #BD8C65",
"(  	c #C59168",
"_  	c #C99469",
":  	c #CD9769",
"<  	c #D39A6B",
"[  	c #D89B6A",
"}  	c #DC9E6B",
"|  	c #E1A06C",
"1  	c #E7A36E",
"2  	c #EBA46F",
"3  	c #EDA56F",
"4  	c #F1A86F",
"5  	c #F5AA71",
"6  	c #FBB075",
"7  	c #FCAE72",
"8  	c #FFAF72",
"9  	c #FFB173",
"0  	c #FBB171",
"a  	c #FDB573",
"b  	c #FFB572",
"c  	c #FDB672",
"d  	c #FCB672",
"e  	c #FDB574",
"f  	c #FEB773",
"g  	c #FEB974",
"h  	c #FEBA74",
"i  	c #FDBA73",
"j  	c #FBBD76",
"k  	c #FBBE76",
"l  	c #FCBF77",
"m  	c #FDC077",
"n  	c #FEC075",
"o  	c #FDBF78",
"p  	c #FEBE78",
"q  	c #FCBE77",
"r  	c #FDBC75",
"s  	c #F8C079",
"t  	c #F8C17B",
"u  	c #FDBE73",
"v  	c #FEBE74",
"w  	c #FFBE74",
"x  	c #FFBD73",
"y  	c #FEBC73",
"z  	c #FDBB74",
"A  	c #FABB73",
"B  	c #FBBC74",
"C  	c #FFB873",
"D  	c #FCB870",
"E  	c #FBB76E",
"F  	c #FCB56F",
"G  	c #FDB370",
"H  	c #FCB572",
"I  	c #FDBB78",
"J  	c #FFB979",
"K  	c #FFB677",
"L  	c #FFB073",
"M  	c #FDA76C",
"N  	c #FEA46B",
"O  	c #FFA267",
"P  	c #FDA065",
"Q  	c #FD9D64",
"R  	c #FC9A64",
"S  	c #FC9862",
"T  	c #FC9564",
"U  	c #FC9264",
"V  	c #F98E60",
"W  	c #FD8B61",
"X  	c #FC885F",
"Y  	c #FC845C",
"Z  	c #FF805A",
"`  	c #FF7D5C",
" . 	c #FE785B",
".. 	c #FA775C",
"+. 	c #F4795E",
"@. 	c #EA6F58",
"#. 	c #E26B56",
"$. 	c #D86855",
"%. 	c #CD6554",
"&. 	c #C36252",
"*. 	c #BE6357",
"=. 	c #B15B51",
"-. 	c #A7584E",
";. 	c #9E544D",
">. 	c #96524C",
",. 	c #8F524D",
"'. 	c #844D49",
"). 	c #7C4947",
"!. 	c #754748",
"~. 	c #70464B",
"{. 	c #684048",
"]. 	c #5E3C44",
"^. 	c #563A42",
"/. 	c #503942",
"(. 	c #4A3641",
"_. 	c #40333D",
":. 	c #39313D",
"<. 	c #322F3C",
"[. 	c #2C2C39",
"}. 	c #09353F",
"|. 	c #113940",
"1. 	c #1E4045",
"2. 	c #284348",
"3. 	c #32494B",
"4. 	c #48524D",
"5. 	c #51564F",
"6. 	c #585B51",
"7. 	c #616053",
"8. 	c #6B6454",
"9. 	c #736756",
"0. 	c #7A6B58",
"a. 	c #83705B",
"b. 	c #8B745C",
"c. 	c #92775E",
"d. 	c #997B5D",
"e. 	c #9D7F5E",
"f. 	c #9F805D",
"g. 	c #A98661",
"h. 	c #B38764",
"i. 	c #B98A64",
"j. 	c #BF8E66",
"k. 	c #C89467",
"l. 	c #CD9768",
"m. 	c #D3996A",
"n. 	c #D79B69",
"o. 	c #DA9C6A",
"p. 	c #E2A06C",
"q. 	c #E6A26E",
"r. 	c #E9A36E",
"s. 	c #ECA56D",
"t. 	c #EEA56D",
"u. 	c #F4A970",
"v. 	c #F8AC71",
"w. 	c #FBAD71",
"x. 	c #FDAE73",
"y. 	c #FBB073",
"z. 	c #FDB274",
"A. 	c #FEB273",
"B. 	c #FDB372",
"C. 	c #FDB373",
"D. 	c #FDB473",
"E. 	c #FDB571",
"F. 	c #FDB772",
"G. 	c #FBB975",
"H. 	c #FCBA74",
"I. 	c #FCBB74",
"J. 	c #FCBB73",
"K. 	c #FDB974",
"L. 	c #FABB76",
"M. 	c #F6C580",
"N. 	c #F7B975",
"O. 	c #F8BC79",
"P. 	c #F9BC79",
"Q. 	c #FCB971",
"R. 	c #FDBA72",
"S. 	c #FEBA72",
"T. 	c #FEB971",
"U. 	c #FDB871",
"V. 	c #FCB673",
"W. 	c #FCBA76",
"X. 	c #FBBB77",
"Y. 	c #FBB371",
"Z. 	c #FEB170",
"`. 	c #FDB16F",
" + 	c #FDB16E",
".+ 	c #FEAF6F",
"++ 	c #FEAD6D",
"@+ 	c #FBAC6C",
"#+ 	c #FBAE6F",
"$+ 	c #FEB073",
"%+ 	c #FDAC70",
"&+ 	c #FDA66D",
"*+ 	c #FCA169",
"=+ 	c #FD9E67",
"-+ 	c #FD9D65",
";+ 	c #FC9B63",
">+ 	c #FC9963",
",+ 	c #FD9762",
"'+ 	c #FC9462",
")+ 	c #FA8F61",
"!+ 	c #F98D61",
"~+ 	c #F8885E",
"{+ 	c #FE855F",
"]+ 	c #FF825E",
"^+ 	c #FF7F5C",
"/+ 	c #FF7D5A",
"(+ 	c #FD7A5A",
"_+ 	c #F87558",
":+ 	c #F27359",
"<+ 	c #E97158",
"[+ 	c #DE6C56",
"}+ 	c #D66854",
"|+ 	c #CC6554",
"1+ 	c #C36353",
"2+ 	c #B95F51",
"3+ 	c #BA665B",
"4+ 	c #A9594E",
"5+ 	c #A1564E",
"6+ 	c #97524C",
"7+ 	c #8F504A",
"8+ 	c #864D49",
"9+ 	c #7E4A47",
"0+ 	c #784747",
"a+ 	c #704345",
"b+ 	c #6C4349",
"c+ 	c #643E46",
"d+ 	c #5B3B43",
"e+ 	c #543941",
"f+ 	c #4D3742",
"g+ 	c #473540",
"h+ 	c #3E323D",
"i+ 	c #37303D",
"j+ 	c #312F3D",
"k+ 	c #2C2D3D",
"l+ 	c #09343F",
"m+ 	c #1E3F44",
"n+ 	c #274247",
"o+ 	c #3D4D4C",
"p+ 	c #47514D",
"q+ 	c #4F554E",
"r+ 	c #575A50",
"s+ 	c #5F5F52",
"t+ 	c #696354",
"u+ 	c #716756",
"v+ 	c #776957",
"w+ 	c #816F5A",
"x+ 	c #88735B",
"y+ 	c #8F765D",
"z+ 	c #94785B",
"A+ 	c #9B7C5E",
"B+ 	c #A18160",
"C+ 	c #A78461",
"D+ 	c #AF8663",
"E+ 	c #B48964",
"F+ 	c #B88B64",
"G+ 	c #C08F66",
"H+ 	c #C29266",
"I+ 	c #C89468",
"J+ 	c #D09969",
"K+ 	c #D59C6C",
"L+ 	c #D99C6B",
"M+ 	c #DD9F6C",
"N+ 	c #E0A06D",
"O+ 	c #EAA56F",
"P+ 	c #EDA66F",
"Q+ 	c #F1A870",
"R+ 	c #F3AA70",
"S+ 	c #F8AC73",
"T+ 	c #FCB076",
"U+ 	c #FBB176",
"V+ 	c #FCB275",
"W+ 	c #FCB174",
"X+ 	c #FDB173",
"Y+ 	c #FDB171",
"Z+ 	c #FEB271",
"`+ 	c #FEB372",
" @ 	c #FCB573",
".@ 	c #FBB572",
"+@ 	c #FCB571",
"@@ 	c #F8B674",
"#@ 	c #F9CB89",
"$@ 	c #FAB575",
"%@ 	c #FBB472",
"&@ 	c #FCB471",
"*@ 	c #FDB471",
"=@ 	c #FCB16F",
"-@ 	c #FDB271",
";@ 	c #FBB06F",
">@ 	c #FCAE6E",
",@ 	c #FDAC6D",
"'@ 	c #FDAB6D",
")@ 	c #FCAB6C",
"!@ 	c #FFA86B",
"~@ 	c #FDA669",
"{@ 	c #FBA667",
"]@ 	c #FCA468",
"^@ 	c #FBA36C",
"/@ 	c #FCA16B",
"(@ 	c #FD9E69",
"_@ 	c #FD9C68",
":@ 	c #FD9966",
"<@ 	c #FE9765",
"[@ 	c #FD9663",
"}@ 	c #FD9362",
"|@ 	c #FC9061",
"1@ 	c #FC8F60",
"2@ 	c #F88C61",
"3@ 	c #F89169",
"4@ 	c #F78660",
"5@ 	c #FC815F",
"6@ 	c #FF7F5F",
"7@ 	c #FE7C5C",
"8@ 	c #FC785A",
"9@ 	c #F57558",
"0@ 	c #EF7258",
"a@ 	c #E66F57",
"b@ 	c #DC6D55",
"c@ 	c #D36A55",
"d@ 	c #CB6753",
"e@ 	c #C26352",
"f@ 	c #BF685A",
"g@ 	c #B05D51",
"h@ 	c #A95A50",
"i@ 	c #99544D",
"j@ 	c #914F4C",
"k@ 	c #9B6260",
"l@ 	c #824D4B",
"m@ 	c #794847",
"n@ 	c #734546",
"o@ 	c #6C4247",
"p@ 	c #714D54",
"q@ 	c #5F3C44",
"r@ 	c #583944",
"s@ 	c #503842",
"t@ 	c #493641",
"u@ 	c #433340",
"v@ 	c #3B313D",
"w@ 	c #35313B",
"x@ 	c #2F2D3A",
"y@ 	c #292A38",
"z@ 	c #08343E",
"A@ 	c #123940",
"B@ 	c #1D3F44",
"C@ 	c #31484A",
"D@ 	c #3B4C4B",
"E@ 	c #444F4C",
"F@ 	c #4E554F",
"G@ 	c #545951",
"H@ 	c #5D5E52",
"I@ 	c #676254",
"J@ 	c #6C6554",
"K@ 	c #8A7F6E",
"L@ 	c #7C6C57",
"M@ 	c #857159",
"N@ 	c #8C755D",
"O@ 	c #91765B",
"P@ 	c #987A5D",
"Q@ 	c #9E7F61",
"R@ 	c #A38261",
"S@ 	c #AA8562",
"T@ 	c #AF8863",
"U@ 	c #B48965",
"V@ 	c #BB8D67",
"W@ 	c #BE9067",
"X@ 	c #C29267",
"Y@ 	c #C59267",
"Z@ 	c #D5A578",
"`@ 	c #E2B88B",
" # 	c #D69F71",
".# 	c #D79E6E",
"+# 	c #D99E6D",
"@# 	c #E1A16D",
"## 	c #E4A46F",
"$# 	c #E8A66F",
"%# 	c #EBA770",
"&# 	c #ECA871",
"*# 	c #F1A872",
"=# 	c #F3AA72",
"-# 	c #F2AE74",
";# 	c #F6B075",
"># 	c #F8AD73",
",# 	c #FBAF73",
"'# 	c #FDB073",
")# 	c #FDAF72",
"!# 	c #FEB071",
"~# 	c #FFB172",
"{# 	c #FEB171",
"]# 	c #FEB172",
"^# 	c #FAB073",
"/# 	c #F1AD78",
"(# 	c #E2A77F",
"_# 	c #D5A183",
":# 	c #CA9C87",
"<# 	c #BA968A",
"[# 	c #AE8F8D",
"}# 	c #AC8F8D",
"|# 	c #9C888E",
"1# 	c #94858E",
"2# 	c #93848C",
"3# 	c #9C8589",
"4# 	c #AA8985",
"5# 	c #AD8982",
"6# 	c #BD907E",
"7# 	c #CA947A",
"8# 	c #D79570",
"9# 	c #E79C6C",
"0# 	c #F3A16A",
"a# 	c #FBA56A",
"b# 	c #FBA66A",
"c# 	c #FEA369",
"d# 	c #FAA369",
"e# 	c #F5A266",
"f# 	c #FD9F68",
"g# 	c #FE9C6A",
"h# 	c #FD9967",
"i# 	c #FD9867",
"j# 	c #FD9666",
"k# 	c #FD9565",
"l# 	c #FE9163",
"m# 	c #FE9062",
"n# 	c #FE8E62",
"o# 	c #FE8A61",
"p# 	c #FD8960",
"q# 	c #FB8560",
"r# 	c #FA8360",
"s# 	c #F9815E",
"t# 	c #FD7F60",
"u# 	c #FC7C5E",
"v# 	c #F7765A",
"w# 	c #F1735A",
"x# 	c #E87058",
"y# 	c #E16F58",
"z# 	c #DA6D58",
"A# 	c #D16A55",
"B# 	c #C86652",
"C# 	c #C06350",
"D# 	c #B7604F",
"E# 	c #AF5D50",
"F# 	c #AA5C51",
"G# 	c #A25750",
"H# 	c #92514D",
"I# 	c #8D4F4E",
"J# 	c #864D4D",
"K# 	c #7D4A4C",
"L# 	c #75474A",
"M# 	c #6E4348",
"N# 	c #684248",
"O# 	c #624249",
"P# 	c #5B3C44",
"Q# 	c #543943",
"R# 	c #4C3742",
"S# 	c #453540",
"T# 	c #3F3340",
"U# 	c #39323F",
"V# 	c #33303D",
"W# 	c #2D2C3B",
"X# 	c #26293A",
"Y# 	c #07333D",
"Z# 	c #11383F",
"`# 	c #1D3E43",
" $ 	c #274246",
".$ 	c #304748",
"+$ 	c #394B4A",
"@$ 	c #434E4C",
"#$ 	c #4D544E",
"$$ 	c #5C5D52",
"%$ 	c #656254",
"&$ 	c #6A6453",
"*$ 	c #877D6D",
"=$ 	c #796A56",
"-$ 	c #826F59",
";$ 	c #89745B",
">$ 	c #8F765B",
",$ 	c #95785C",
"'$ 	c #9B7C5F",
")$ 	c #A0805F",
"!$ 	c #A58361",
"~$ 	c #A98562",
"{$ 	c #B18965",
"]$ 	c #B58A65",
"^$ 	c #B98E65",
"/$ 	c #BD9066",
"($ 	c #C19268",
"_$ 	c #C19468",
":$ 	c #C59669",
"<$ 	c #D09E70",
"[$ 	c #D09C6D",
"}$ 	c #D29C6C",
"|$ 	c #D59D6B",
"1$ 	c #D99F6D",
"2$ 	c #DCA26D",
"3$ 	c #DFA36D",
"4$ 	c #E2A46E",
"5$ 	c #E3A66F",
"6$ 	c #E9A671",
"7$ 	c #EDA872",
"8$ 	c #EDB37B",
"9$ 	c #EEB178",
"0$ 	c #F4AB72",
"a$ 	c #F6AA70",
"b$ 	c #F7AB70",
"c$ 	c #F9AC72",
"d$ 	c #EEA879",
"e$ 	c #D69E83",
"f$ 	c #BD9791",
"g$ 	c #9E919E",
"h$ 	c #7F88A4",
"i$ 	c #6483A7",
"j$ 	c #5C82A8",
"k$ 	c #5B82A8",
"l$ 	c #5E83A8",
"m$ 	c #6084A8",
"n$ 	c #6185A7",
"o$ 	c #6083A6",
"p$ 	c #5F82A4",
"q$ 	c #5F81A2",
"r$ 	c #5D7FA0",
"s$ 	c #5E7F9F",
"t$ 	c #5B7B9C",
"u$ 	c #57789A",
"v$ 	c #557696",
"w$ 	c #557592",
"x$ 	c #406083",
"y$ 	c #2D4A73",
"z$ 	c #455272",
"A$ 	c #725F6F",
"B$ 	c #976E6B",
"C$ 	c #BB7D6A",
"D$ 	c #D18C6A",
"E$ 	c #EDAB7C",
"F$ 	c #F99969",
"G$ 	c #FF9768",
"H$ 	c #FE9566",
"I$ 	c #FD9465",
"J$ 	c #FB9163",
"K$ 	c #FD8C61",
"L$ 	c #FD8A61",
"M$ 	c #FE8861",
"N$ 	c #FB845E",
"O$ 	c #FC835F",
"P$ 	c #FE8160",
"Q$ 	c #FC7F60",
"R$ 	c #F97D5F",
"S$ 	c #F6795C",
"T$ 	c #F17559",
"U$ 	c #EC7358",
"V$ 	c #E57059",
"W$ 	c #DB6E57",
"X$ 	c #D46B57",
"Y$ 	c #CE6857",
"Z$ 	c #C56654",
"`$ 	c #BC6351",
" % 	c #B76050",
".% 	c #A75A50",
"+% 	c #A15850",
"@% 	c #99554F",
"#% 	c #91524D",
"$% 	c #8A4F4C",
"%% 	c #854C4C",
"&% 	c #7E4A4C",
"*% 	c #7D4E52",
"=% 	c #72474C",
"-% 	c #6A4148",
";% 	c #644047",
">% 	c #5C3D45",
",% 	c #583C45",
"'% 	c #503743",
")% 	c #423440",
"!% 	c #3C313F",
"~% 	c #35303F",
"{% 	c #302E3C",
"]% 	c #2A2A3A",
"^% 	c #242639",
"/% 	c #08323D",
"(% 	c #12373F",
"_% 	c #264246",
":% 	c #3A4A4A",
"<% 	c #434F4B",
"[% 	c #4C544D",
"}% 	c #535650",
"|% 	c #5B5B52",
"1% 	c #646154",
"2% 	c #6F6655",
"3% 	c #786B58",
"4% 	c #7E6E58",
"5% 	c #86735C",
"6% 	c #8B7459",
"7% 	c #91775B",
"8% 	c #9A7E62",
"9% 	c #9C7E5F",
"0% 	c #A38363",
"a% 	c #A58362",
"b% 	c #AA8563",
"c% 	c #B6906A",
"d% 	c #B38B63",
"e% 	c #B78E65",
"f% 	c #BA9067",
"g% 	c #BB9168",
"h% 	c #CBA47A",
"i% 	c #C3966A",
"j% 	c #C8986B",
"k% 	c #CD996C",
"l% 	c #CF9B6B",
"m% 	c #D29D6C",
"n% 	c #D6A06E",
"o% 	c #D8A06D",
"p% 	c #D9A16E",
"q% 	c #DBA270",
"r% 	c #DFA370",
"s% 	c #E3A570",
"t% 	c #E6A76F",
"u% 	c #E6A574",
"v% 	c #D19C81",
"w% 	c #AF9294",
"x% 	c #868BA4",
"y% 	c #6688AD",
"z% 	c #628CB2",
"A% 	c #648CB3",
"B% 	c #658CB2",
"C% 	c #698DB3",
"D% 	c #6B8FB3",
"E% 	c #698CB2",
"F% 	c #6A8DB1",
"G% 	c #6D8FB1",
"H% 	c #6F90B0",
"I% 	c #7191B1",
"J% 	c #6F8FAF",
"K% 	c #6D8DAC",
"L% 	c #6E8CAB",
"M% 	c #6C8AA8",
"N% 	c #6988A6",
"O% 	c #6684A4",
"P% 	c #6583A2",
"Q% 	c #62809F",
"R% 	c #617F9C",
"S% 	c #607E9A",
"T% 	c #577592",
"U% 	c #35567C",
"V% 	c #35567B",
"W% 	c #3E5D7E",
"X% 	c #3F5D7D",
"Y% 	c #3D5877",
"Z% 	c #505971",
"`% 	c #85676C",
" & 	c #BB7768",
".& 	c #E28665",
"+& 	c #F98D63",
"@& 	c #FB8D61",
"#& 	c #FB8F63",
"$& 	c #FA8962",
"%& 	c #FD8662",
"&& 	c #F88460",
"*& 	c #F79F7A",
"=& 	c #F38160",
"-& 	c #F97C5D",
";& 	c #F67B5D",
">& 	c #EF795D",
",& 	c #E8765D",
"'& 	c #E2755E",
")& 	c #E17660",
"!& 	c #D86D57",
"~& 	c #CF6A57",
"{& 	c #CA6957",
"]& 	c #C16454",
"^& 	c #B96153",
"/& 	c #B96357",
"(& 	c #AE5C50",
"_& 	c #A75B50",
":& 	c #9F5850",
"<& 	c #98554D",
"[& 	c #92534F",
"}& 	c #8B504D",
"|& 	c #844D4C",
"1& 	c #7E4A4B",
"2& 	c #79494B",
"3& 	c #74494C",
"4& 	c #6A4348",
"5& 	c #664148",
"6& 	c #5F3E46",
"7& 	c #593C45",
"8& 	c #523842",
"9& 	c #4D3642",
"0& 	c #473440",
"a& 	c #3F323D",
"b& 	c #39313E",
"c& 	c #312F3B",
"d& 	c #272A3B",
"e& 	c #212638",
"f& 	c #09323D",
"g& 	c #13373F",
"h& 	c #1D3D43",
"i& 	c #244145",
"j& 	c #2F4648",
"k& 	c #394949",
"l& 	c #424E4B",
"m& 	c #4B534D",
"n& 	c #52554F",
"o& 	c #5A5A51",
"p& 	c #625F52",
"q& 	c #696353",
"r& 	c #6E6654",
"s& 	c #756A57",
"t& 	c #7D6D58",
"u& 	c #83715A",
"v& 	c #89755C",
"w& 	c #8E785D",
"x& 	c #A38B6F",
"y& 	c #957A5C",
"z& 	c #9E8060",
"A& 	c #A38160",
"B& 	c #A78562",
"C& 	c #A78560",
"D& 	c #AD8A64",
"E& 	c #B48F68",
"F& 	c #B48E67",
"G& 	c #B69067",
"H& 	c #C5A27A",
"I& 	c #BE946A",
"J& 	c #C2956A",
"K& 	c #C5976B",
"L& 	c #C79768",
"M& 	c #C99969",
"N& 	c #CC9B6B",
"O& 	c #CF9D6D",
"P& 	c #D09D6C",
"Q& 	c #D8AC7F",
"R& 	c #D3A373",
"S& 	c #D5A273",
"T& 	c #C29982",
"U& 	c #9B8B96",
"V& 	c #5F769E",
"W& 	c #4B79A8",
"X& 	c #5B87B1",
"Y& 	c #6089B0",
"Z& 	c #6086AD",
"`& 	c #5177A2",
" * 	c #6488AE",
".* 	c #6C8EB3",
"+* 	c #7396BA",
"@* 	c #7294B7",
"#* 	c #7193B6",
"$* 	c #7293B5",
"%* 	c #7695B6",
"&* 	c #7A97B6",
"** 	c #7C99B6",
"=* 	c #7B97B4",
"-* 	c #7592B1",
";* 	c #7390AF",
">* 	c #7590AE",
",* 	c #728DAB",
"'* 	c #728DAA",
")* 	c #6884A2",
"!* 	c #607D9C",
"~* 	c #69839F",
"{* 	c #5F7A97",
"]* 	c #557190",
"^* 	c #54718F",
"/* 	c #516E8B",
"(* 	c #58728D",
"_* 	c #546F8A",
":* 	c #4B6682",
"<* 	c #4C667C",
"[* 	c #476074",
"}* 	c #44586B",
"|* 	c #6B5B66",
"1* 	c #B36D63",
"2* 	c #E27B60",
"3* 	c #FB8261",
"4* 	c #FA8260",
"5* 	c #F88061",
"6* 	c #EF7F5F",
"7* 	c #EF7A5E",
"8* 	c #EE785B",
"9* 	c #E8765B",
"0* 	c #E2735B",
"a* 	c #DA7059",
"b* 	c #D4705B",
"c* 	c #D3705C",
"d* 	c #CC6A55",
"e* 	c #C46755",
"f* 	c #BE6553",
"g* 	c #B96454",
"h* 	c #BB6B5E",
"i* 	c #AB5B52",
"j* 	c #A75A52",
"k* 	c #9E5850",
"l* 	c #97564F",
"m* 	c #91534D",
"n* 	c #8C524F",
"o* 	c #864E4D",
"p* 	c #804C4B",
"q* 	c #7A494B",
"r* 	c #734548",
"s* 	c #6C4246",
"t* 	c #684348",
"u* 	c #613F45",
"v* 	c #493441",
"w* 	c #453441",
"x* 	c #3E313F",
"y* 	c #37313E",
"z* 	c #302E3B",
"A* 	c #2A2B3C",
"B* 	c #26293C",
"C* 	c #202639",
"D* 	c #1C3D42",
"E* 	c #244044",
"F* 	c #2E4547",
"G* 	c #384847",
"H* 	c #414E4A",
"I* 	c #49534C",
"J* 	c #51544E",
"K* 	c #595951",
"L* 	c #605F52",
"M* 	c #666352",
"N* 	c #6C6654",
"O* 	c #736A57",
"P* 	c #7A6C58",
"Q* 	c #7F6F59",
"R* 	c #84725A",
"S* 	c #89755B",
"T* 	c #90795D",
"U* 	c #947A5D",
"V* 	c #9C8062",
"W* 	c #A58563",
"X* 	c #A3825F",
"Y* 	c #A18462",
"Z* 	c #C5AC8B",
"`* 	c #AB8A65",
" = 	c #AE8C65",
".= 	c #B08D66",
"+= 	c #B59068",
"@= 	c #B79067",
"#= 	c #BB9268",
"$= 	c #BE9369",
"%= 	c #C19568",
"&= 	c #C29769",
"*= 	c #C59869",
"== 	c #C69A6A",
"-= 	c #C99B6B",
";= 	c #C5A585",
">= 	c #9D9091",
",= 	c #6D80A2",
"'= 	c #4673A4",
")= 	c #4D79A8",
"!= 	c #4A76A6",
"~= 	c #4C75A5",
"{= 	c #587FAA",
"]= 	c #4D73A1",
"^= 	c #5E81AA",
"/= 	c #6789AE",
"(= 	c #6787AC",
"_= 	c #7C9CBC",
":= 	c #7D9CBD",
"<= 	c #7F9CBC",
"[= 	c #839FBD",
"}= 	c #86A0BD",
"|= 	c #88A2BD",
"1= 	c #86A0BC",
"2= 	c #849CBA",
"3= 	c #819AB8",
"4= 	c #8099B6",
"5= 	c #8199B6",
"6= 	c #819AB5",
"7= 	c #8199B4",
"8= 	c #7791AE",
"9= 	c #7A93AE",
"0= 	c #46648B",
"a= 	c #3B5E89",
"b= 	c #47688E",
"c= 	c #47668A",
"d= 	c #5F7B98",
"e= 	c #647E99",
"f= 	c #617B96",
"g= 	c #627B93",
"h= 	c #637C93",
"i= 	c #587188",
"j= 	c #546C83",
"k= 	c #576F85",
"l= 	c #536B80",
"m= 	c #486073",
"n= 	c #3A5362",
"o= 	c #3B4D5B",
"p= 	c #775457",
"q= 	c #BB6855",
"r= 	c #E4775B",
"s= 	c #EC785D",
"t= 	c #E6765B",
"u= 	c #E0755B",
"v= 	c #D9735C",
"w= 	c #D4705A",
"x= 	c #D06F58",
"y= 	c #C96B56",
"z= 	c #C56855",
"A= 	c #BF6654",
"B= 	c #B86453",
"C= 	c #B46354",
"D= 	c #AD5E50",
"E= 	c #A85D52",
"F= 	c #A35952",
"G= 	c #9D574F",
"H= 	c #8F534E",
"I= 	c #8A524E",
"J= 	c #844F4D",
"K= 	c #7E4B4A",
"L= 	c #7A4A4B",
"M= 	c #734649",
"N= 	c #6D4347",
"O= 	c #674146",
"P= 	c #614045",
"Q= 	c #5C3D43",
"R= 	c #563B43",
"S= 	c #523A45",
"T= 	c #56414C",
"U= 	c #463343",
"V= 	c #413242",
"W= 	c #392F3F",
"X= 	c #352F3F",
"Y= 	c #302E3D",
"Z= 	c #292B3D",
"`= 	c #24293B",
" - 	c #1F2538",
".- 	c #09313D",
"+- 	c #13363F",
"@- 	c #214046",
"#- 	c #2F4A4E",
"$- 	c #2F4547",
"%- 	c #405150",
"&- 	c #404E49",
"*- 	c #48534B",
"=- 	c #50554E",
"-- 	c #57594F",
";- 	c #5D5D50",
">- 	c #636152",
",- 	c #696554",
"'- 	c #706856",
")- 	c #766A56",
"!- 	c #7B6D58",
"~- 	c #81715A",
"{- 	c #84745B",
"]- 	c #89765B",
"^- 	c #907A5D",
"/- 	c #91795A",
"(- 	c #B39A79",
"_- 	c #987E5D",
":- 	c #B39A7C",
"<- 	c #9E8564",
"[- 	c #A58864",
"}- 	c #A78964",
"|- 	c #AB8C66",
"1- 	c #AE8D67",
"2- 	c #B18F67",
"3- 	c #B49167",
"4- 	c #B69268",
"5- 	c #BA9268",
"6- 	c #BD9569",
"7- 	c #C0976B",
"8- 	c #B3967E",
"9- 	c #8A8E9D",
"0- 	c #5078A5",
"a- 	c #4A78A6",
"b- 	c #527DAA",
"c- 	c #3D6CA1",
"d- 	c #34659D",
"e- 	c #416CA0",
"f- 	c #6B90B8",
"g- 	c #81A4C5",
"h- 	c #87A7C6",
"i- 	c #8AA8C5",
"j- 	c #8BA9C5",
"k- 	c #8AA8C3",
"l- 	c #89A7C2",
"m- 	c #839DBA",
"n- 	c #87A1BC",
"o- 	c #91ABC3",
"p- 	c #93ABC3",
"q- 	c #95ACC3",
"r- 	c #8FA7C0",
"s- 	c #8AA3BE",
"t- 	c #89A1BC",
"u- 	c #8CA3BC",
"v- 	c #91A7BD",
"w- 	c #7C95B1",
"x- 	c #5D7A9D",
"y- 	c #3E5F8B",
"z- 	c #5B779A",
"A- 	c #5E7B9D",
"B- 	c #506D92",
"C- 	c #46638A",
"D- 	c #4C688B",
"E- 	c #67809D",
"F- 	c #6F87A0",
"G- 	c #68819B",
"H- 	c #6A8199",
"I- 	c #6F8498",
"J- 	c #687E93",
"K- 	c #657A8D",
"L- 	c #60768A",
"M- 	c #5E7489",
"N- 	c #5B7187",
"O- 	c #546A7F",
"P- 	c #4A6072",
"Q- 	c #374F5B",
"R- 	c #2D4650",
"S- 	c #494449",
"T- 	c #92574C",
"U- 	c #C86C55",
"V- 	c #D1715B",
"W- 	c #CC6F5C",
"X- 	c #C86D5A",
"Y- 	c #C36A56",
"Z- 	c #BD6753",
"`- 	c #BB6555",
" ; 	c #B46355",
".; 	c #AF6156",
"+; 	c #AA5F54",
"@; 	c #A55C52",
"#; 	c #9F5951",
"$; 	c #99574E",
"%; 	c #95544D",
"&; 	c #89514E",
"*; 	c #834F4C",
"=; 	c #7D4C4C",
"-; 	c #784A4B",
";; 	c #73474A",
">; 	c #6C4449",
",; 	c #78565B",
"'; 	c #74545A",
"); 	c #5D3F45",
"!; 	c #583D45",
"~; 	c #513A43",
"{; 	c #4E3945",
"]; 	c #483642",
"^; 	c #423344",
"/; 	c #3E3142",
"(; 	c #4D4454",
"_; 	c #312D3F",
":; 	c #2C2B3D",
"<; 	c #27293C",
"[; 	c #22273B",
"}; 	c #1D2538",
"|; 	c #062F3A",
"1; 	c #1E3D42",
"2; 	c #284448",
"3; 	c #2D4345",
"4; 	c #354645",
"5; 	c #3E4C48",
"6; 	c #455049",
"7; 	c #4F554D",
"8; 	c #56584E",
"9; 	c #5B5C4F",
"0; 	c #606051",
"a; 	c #676453",
"b; 	c #6D6754",
"c; 	c #736956",
"d; 	c #786C58",
"e; 	c #7E705A",
"f; 	c #82735A",
"g; 	c #86755B",
"h; 	c #8A775A",
"i; 	c #8F795B",
"j; 	c #D0C3A6",
"k; 	c #8D7C5C",
"l; 	c #9F8768",
"m; 	c #9D8361",
"n; 	c #9F8462",
"o; 	c #A38865",
"p; 	c #A68965",
"q; 	c #A88B65",
"r; 	c #AB8D66",
"s; 	c #AD8F66",
"t; 	c #AF9066",
"u; 	c #B29068",
"v; 	c #A7907B",
"w; 	c #848EA0",
"x; 	c #5A86B0",
"y; 	c #4978A9",
"z; 	c #5C86B0",
"A; 	c #5884B2",
"B; 	c #3869A0",
"C; 	c #4571A4",
"D; 	c #799CBF",
"E; 	c #8DADCA",
"F; 	c #93B0CB",
"G; 	c #96B1CB",
"H; 	c #98B2CA",
"I; 	c #93AFC9",
"J; 	c #8FAAC5",
"K; 	c #7F98B6",
"L; 	c #8EA6C0",
"M; 	c #7F97B4",
"N; 	c #768FAF",
"O; 	c #5E7AA0",
"P; 	c #5A78A1",
"Q; 	c #5E7BA1",
"R; 	c #6784A6",
"S; 	c #7A94B1",
"T; 	c #6582A5",
"U; 	c #738DAB",
"V; 	c #547298",
"W; 	c #2D5080",
"X; 	c #5F7B9D",
"Y; 	c #6D87A5",
"Z; 	c #8297AE",
"`; 	c #8B9DB1",
" > 	c #8699AE",
".> 	c #8195AB",
"+> 	c #7C91A7",
"@> 	c #788DA4",
"#> 	c #7A8EA2",
"$> 	c #7B8C9F",
"%> 	c #76889B",
"&> 	c #718495",
"*> 	c #697C8D",
"=> 	c #5F7383",
"-> 	c #586C7C",
";> 	c #4D6372",
">> 	c #4C6271",
",> 	c #475C6A",
"'> 	c #334B53",
")> 	c #2C434B",
"!> 	c #383D40",
"~> 	c #81524A",
"{> 	c #B36556",
"]> 	c #BB6958",
"^> 	c #B66755",
"/> 	c #B26656",
"(> 	c #AE6355",
"_> 	c #A96055",
":> 	c #A45E55",
"<> 	c #A05D53",
"[> 	c #9D5A51",
"}> 	c #965751",
"|> 	c #90554E",
"1> 	c #8C534D",
"2> 	c #87524D",
"3> 	c #82504E",
"4> 	c #7D4D4C",
"5> 	c #774A4B",
"6> 	c #724749",
"7> 	c #6C4547",
"8> 	c #674348",
"9> 	c #624248",
"0> 	c #5E4047",
"a> 	c #583D44",
"b> 	c #523A43",
"c> 	c #4F3B45",
"d> 	c #594853",
"e> 	c #443542",
"f> 	c #403343",
"g> 	c #3C3141",
"h> 	c #342D3E",
"i> 	c #302C3E",
"j> 	c #2B2A3C",
"k> 	c #25283B",
"l> 	c #20273A",
"m> 	c #1C2437",
"n> 	c #0A313C",
"o> 	c #12353D",
"p> 	c #1C3B41",
"q> 	c #243F44",
"r> 	c #2E4445",
"s> 	c #354746",
"t> 	c #3E4C49",
"u> 	c #445049",
"v> 	c #4D534C",
"w> 	c #54574E",
"x> 	c #595B4E",
"y> 	c #5E5E50",
"z> 	c #656253",
"A> 	c #6B6554",
"B> 	c #716855",
"C> 	c #7B6F59",
"D> 	c #7E7058",
"E> 	c #88795F",
"F> 	c #A4947B",
"G> 	c #BBAF99",
"H> 	c #E7E1CC",
"I> 	c #BCB59D",
"J> 	c #B8A484",
"K> 	c #A38A67",
"L> 	c #9C8462",
"M> 	c #9D8765",
"N> 	c #A08765",
"O> 	c #A38965",
"P> 	c #A48A65",
"Q> 	c #A68C64",
"R> 	c #9F8C75",
"S> 	c #7B879B",
"T> 	c #517FAF",
"U> 	c #497AAA",
"V> 	c #4E7CAB",
"W> 	c #6C95BE",
"X> 	c #5480B1",
"Y> 	c #4D7AAC",
"Z> 	c #4674A8",
"`> 	c #668BB4",
" , 	c #8EACCA",
"., 	c #99B4CE",
"+, 	c #9CB6CF",
"@, 	c #9FB7D0",
"#, 	c #A2B8D0",
"$, 	c #9AB3CD",
"%, 	c #88A4C2",
"&, 	c #5975A0",
"*, 	c #728BAD",
"=, 	c #6B83A7",
"-, 	c #3F5F90",
";, 	c #416192",
">, 	c #446796",
",, 	c #7A93B2",
"', 	c #96A9BF",
"), 	c #8CA1BA",
"!, 	c #7992B1",
"~, 	c #6C89AB",
"{, 	c #6683A6",
"], 	c #94A7BB",
"^, 	c #768EAB",
"/, 	c #4D6C94",
"(, 	c #6F87A5",
"_, 	c #8095AE",
":, 	c #91A2B5",
"<, 	c #99A9B9",
"[, 	c #7C91A9",
"}, 	c #6B829F",
"|, 	c #7287A1",
"1, 	c #7F92A7",
"2, 	c #8294A8",
"3, 	c #7F91A3",
"4, 	c #798B9C",
"5, 	c #788A99",
"6, 	c #738494",
"7, 	c #6C7F8F",
"8, 	c #687A8B",
"9, 	c #596D79",
"0, 	c #4C616B",
"a, 	c #495E69",
"b, 	c #4A5F6D",
"c, 	c #3B525B",
"d, 	c #2E464D",
"e, 	c #284046",
"f, 	c #374045",
"g, 	c #7B514C",
"h, 	c #A36053",
"i, 	c #A76355",
"j, 	c #A36054",
"k, 	c #9F5D54",
"l, 	c #9A5B52",
"m, 	c #975A51",
"n, 	c #935750",
"o, 	c #8E554F",
"p, 	c #89544F",
"q, 	c #83514E",
"r, 	c #804F4E",
"s, 	c #7B4D4E",
"t, 	c #754A4C",
"u, 	c #71474A",
"v, 	c #6C4548",
"w, 	c #634248",
"x, 	c #593D44",
"y, 	c #675057",
"z, 	c #4F3942",
"A, 	c #4C3A44",
"B, 	c #443540",
"C, 	c #423441",
"D, 	c #3D3241",
"E, 	c #38303F",
"F, 	c #332E3E",
"G, 	c #2E2C3D",
"H, 	c #2A2A3D",
"I, 	c #24283B",
"J, 	c #1F273A",
"K, 	c #1A2437",
"L, 	c #0B2F3C",
"M, 	c #13353E",
"N, 	c #1C3A40",
"O, 	c #243E43",
"P, 	c #2E4345",
"Q, 	c #364847",
"R, 	c #3C4A49",
"S, 	c #434F4A",
"T, 	c #4B534B",
"U, 	c #52554D",
"V, 	c #585A4E",
"W, 	c #5E5D50",
"X, 	c #646153",
"Y, 	c #696454",
"Z, 	c #6E6754",
"`, 	c #736957",
" ' 	c #7A6F55",
".' 	c #807358",
"+' 	c #8A7C63",
"@' 	c #948572",
"#' 	c #E1DCCA",
"$' 	c #938B73",
"%' 	c #988666",
"&' 	c #958161",
"*' 	c #968363",
"=' 	c #958362",
"-' 	c #9A8565",
";' 	c #9D8766",
">' 	c #9C8769",
",' 	c #7E7F8B",
"'' 	c #517EAE",
")' 	c #4476AC",
"!' 	c #4170A6",
"~' 	c #5984B0",
"{' 	c #4875A9",
"]' 	c #4674A9",
"^' 	c #527EAF",
"/' 	c #6288B4",
"(' 	c #8AA9C8",
"_' 	c #9BB6D1",
":' 	c #A1B9D2",
"<' 	c #A5BBD3",
"[' 	c #A6BCD4",
"}' 	c #A7BCD4",
"|' 	c #A2B8D1",
"1' 	c #7F98B7",
"2' 	c #496594",
"3' 	c #32558C",
"4' 	c #1E4985",
"5' 	c #3E6093",
"6' 	c #6280A8",
"7' 	c #50709D",
"8' 	c #5F7EA6",
"9' 	c #6B89AD",
"0' 	c #A3B4C7",
"a' 	c #889FBA",
"b' 	c #90A5BD",
"c' 	c #97A8BE",
"d' 	c #92A5BB",
"e' 	c #8097B1",
"f' 	c #4F7099",
"g' 	c #7A92AE",
"h' 	c #8499B2",
"i' 	c #778EAA",
"j' 	c #7088A6",
"k' 	c #6D83A0",
"l' 	c #587496",
"m' 	c #47648B",
"n' 	c #566C89",
"o' 	c #81909E",
"p' 	c #7E8E9F",
"q' 	c #8695A4",
"r' 	c #8392A1",
"s' 	c #7C8D9B",
"t' 	c #72828F",
"u' 	c #637681",
"v' 	c #627581",
"w' 	c #586C76",
"x' 	c #4B5F65",
"y' 	c #43595E",
"z' 	c #40565E",
"A' 	c #3D545D",
"B' 	c #2F474B",
"C' 	c #274043",
"D' 	c #293F43",
"E' 	c #434245",
"F' 	c #7E524B",
"G' 	c #995C52",
"H' 	c #975B51",
"I' 	c #935950",
"J' 	c #905750",
"K' 	c #8C554F",
"L' 	c #875956",
"M' 	c #7D4F4E",
"N' 	c #7A4E4E",
"O' 	c #744A4C",
"P' 	c #704749",
"Q' 	c #6C4649",
"R' 	c #684449",
"S' 	c #5A3E45",
"T' 	c #553C43",
"U' 	c #4F3A41",
"V' 	c #4D3944",
"W' 	c #473641",
"X' 	c #433540",
"Y' 	c #403342",
"Z' 	c #393240",
"`' 	c #342F3E",
" ) 	c #2F2C3D",
".) 	c #2E2F41",
"+) 	c #25273C",
"@) 	c #22263B",
"#) 	c #1D263A",
"$) 	c #182437",
"%) 	c #0A2E3B",
"&) 	c #12343D",
"*) 	c #1B393F",
"=) 	c #233D42",
"-) 	c #2D4244",
";) 	c #3B4948",
">) 	c #424E49",
",) 	c #49524A",
"') 	c #4F554C",
")) 	c #56594D",
"!) 	c #5B5B4F",
"~) 	c #616052",
"{) 	c #676353",
"]) 	c #6C6553",
"^) 	c #706855",
"/) 	c #746A56",
"() 	c #776D58",
"_) 	c #7D715B",
":) 	c #7E735B",
"<) 	c #7F7359",
"[) 	c #BCB498",
"}) 	c #847858",
"|) 	c #8A7B5E",
"1) 	c #AC9C83",
"2) 	c #918063",
"3) 	c #948262",
"4) 	c #948363",
"5) 	c #867D76",
"6) 	c #51709F",
"7) 	c #386FAB",
"8) 	c #5483B2",
"9) 	c #6A95BD",
"0) 	c #779EC4",
"a) 	c #4875AA",
"b) 	c #225696",
"c) 	c #476DA2",
"d) 	c #7798BD",
"e) 	c #9AB5D1",
"f) 	c #A4BCD5",
"g) 	c #A7BDD6",
"h) 	c #AABFD7",
"i) 	c #ADC1D8",
"j) 	c #AFC2D8",
"k) 	c #A8BCD3",
"l) 	c #A2B7CE",
"m) 	c #7F96B6",
"n) 	c #3B5C90",
"o) 	c #1A4784",
"p) 	c #506E9A",
"q) 	c #5B759F",
"r) 	c #7692B4",
"s) 	c #5676A2",
"t) 	c #5D7CA5",
"u) 	c #90A6BF",
"v) 	c #95A8BF",
"w) 	c #849BB8",
"x) 	c #7A93B1",
"y) 	c #6F89AA",
"z) 	c #57759C",
"A) 	c #5C789E",
"B) 	c #59769B",
"C) 	c #5B799F",
"D) 	c #738CAB",
"E) 	c #6681A2",
"F) 	c #496992",
"G) 	c #8598AE",
"H) 	c #78889F",
"I) 	c #426189",
"J) 	c #395882",
"K) 	c #1F4473",
"L) 	c #718397",
"M) 	c #838F98",
"N) 	c #7E8E9C",
"O) 	c #718292",
"P) 	c #738390",
"Q) 	c #75848E",
"R) 	c #73828B",
"S) 	c #5E7278",
"T) 	c #4A6264",
"U) 	c #445C5C",
"V) 	c #3C5554",
"W) 	c #375050",
"X) 	c #375153",
"Y) 	c #3F555C",
"Z) 	c #334B4E",
"`) 	c #253F40",
" ! 	c #233C3E",
".! 	c #2D3E43",
"+! 	c #534141",
"@! 	c #84534D",
"#! 	c #8B554F",
"$! 	c #88534F",
"%! 	c #84524E",
"&! 	c #80504D",
"*! 	c #7A4F4E",
"=! 	c #774C4D",
"-! 	c #72494B",
";! 	c #70484C",
">! 	c #6B4549",
",! 	c #674449",
"'! 	c #5F4046",
")! 	c #563C44",
"!! 	c #523B43",
"~! 	c #4E3A44",
"{! 	c #4A3745",
"]! 	c #443442",
"^! 	c #403341",
"/! 	c #3B2F41",
"(! 	c #363041",
"_! 	c #312D40",
":! 	c #2D2B3F",
"<! 	c #3B3C4F",
"[! 	c #24273E",
"}! 	c #20253B",
"|! 	c #1B2539",
"1! 	c #162336",
"2! 	c #1B383F",
"3! 	c #233C42",
"4! 	c #2C4144",
"5! 	c #334645",
"6! 	c #3A4A48",
"7! 	c #404E48",
"8! 	c #55584D",
"9! 	c #5A5B4F",
"0! 	c #5E5E51",
"a! 	c #646152",
"b! 	c #6E6957",
"c! 	c #6F6855",
"d! 	c #716A56",
"e! 	c #756D5B",
"f! 	c #776D5B",
"g! 	c #7B725C",
"h! 	c #81775C",
"i! 	c #93876B",
"j! 	c #85775B",
"k! 	c #867A5E",
"l! 	c #887E60",
"m! 	c #8B7F5F",
"n! 	c #8C7F64",
"o! 	c #68738A",
"p! 	c #4072A8",
"q! 	c #497AAE",
"r! 	c #5885B3",
"s! 	c #5A84B2",
"t! 	c #5983B3",
"u! 	c #507CAF",
"v! 	c #5E88B7",
"w! 	c #5E84B0",
"x! 	c #89A5C5",
"y! 	c #A5BDD7",
"z! 	c #A9BFD8",
"A! 	c #ADC1DA",
"B! 	c #B0C5DB",
"C! 	c #B3C6DA",
"D! 	c #A8BCD5",
"E! 	c #A3B8D0",
"F! 	c #7990B2",
"G! 	c #4D6A98",
"H! 	c #1E4C88",
"I! 	c #1C4683",
"J! 	c #1C4481",
"K! 	c #446293",
"L! 	c #9BAEC7",
"M! 	c #849CBB",
"N! 	c #7B95B7",
"O! 	c #708AAE",
"P! 	c #728CAE",
"Q! 	c #7189AB",
"R! 	c #54759F",
"S! 	c #6F8BAE",
"T! 	c #6C87AA",
"U! 	c #7990AF",
"V! 	c #6782A6",
"W! 	c #426593",
"X! 	c #53729B",
"Y! 	c #406290",
"Z! 	c #41628F",
"`! 	c #57749A",
" ~ 	c #5A779C",
".~ 	c #607B9D",
"+~ 	c #8293A6",
"@~ 	c #7C8DA0",
"#~ 	c #506A8E",
"$~ 	c #4F6787",
"%~ 	c #7B8DA0",
"&~ 	c #7B8C9D",
"*~ 	c #8C99A6",
"=~ 	c #87949C",
"-~ 	c #738495",
";~ 	c #778590",
">~ 	c #6A7A7B",
",~ 	c #607374",
"'~ 	c #556B6B",
")~ 	c #47605E",
"!~ 	c #395451",
"~~ 	c #304C48",
"{~ 	c #37514F",
"]~ 	c #314C4B",
"^~ 	c #3A5155",
"/~ 	c #324A4E",
"(~ 	c #233E3E",
"_~ 	c #233C3D",
":~ 	c #2E4045",
"<~ 	c #343C40",
"[~ 	c #664847",
"}~ 	c #7E504E",
"|~ 	c #7B4F4E",
"1~ 	c #774D4D",
"2~ 	c #734C4E",
"3~ 	c #704A4C",
"4~ 	c #6C484C",
"5~ 	c #69484D",
"6~ 	c #654349",
"7~ 	c #624348",
"8~ 	c #5E4046",
"9~ 	c #593E45",
"0~ 	c #553D45",
"a~ 	c #513C44",
"b~ 	c #4E3B44",
"c~ 	c #483743",
"d~ 	c #453444",
"e~ 	c #3E3444",
"f~ 	c #746E7A",
"g~ 	c #4D4958",
"h~ 	c #2E2C3F",
"i~ 	c #2A2A3E",
"j~ 	c #272A3E",
"k~ 	c #22283C",
"l~ 	c #1E243B",
"m~ 	c #1A243A",
"n~ 	c #152337",
"o~ 	c #12333D",
"p~ 	c #1A383E",
"q~ 	c #223C41",
"r~ 	c #2B4143",
"s~ 	c #324644",
"t~ 	c #394947",
"u~ 	c #404D48",
"v~ 	c #465148",
"w~ 	c #4C554B",
"x~ 	c #52574C",
"y~ 	c #575A4F",
"z~ 	c #5B5D50",
"A~ 	c #676351",
"B~ 	c #6C6754",
"C~ 	c #6E6A56",
"D~ 	c #868270",
"E~ 	c #736D5A",
"F~ 	c #766F5B",
"G~ 	c #79715B",
"H~ 	c #7E775E",
"I~ 	c #7F765F",
"J~ 	c #81785D",
"K~ 	c #837C5C",
"L~ 	c #7D7B6F",
"M~ 	c #506F9A",
"N~ 	c #467AAC",
"O~ 	c #5183B2",
"P~ 	c #5A88B8",
"Q~ 	c #5380B3",
"R~ 	c #3266A4",
"S~ 	c #4876AC",
"T~ 	c #7FA3C8",
"U~ 	c #90AECA",
"V~ 	c #A5BDD6",
"W~ 	c #ABC1DB",
"X~ 	c #ACC2DB",
"Y~ 	c #AEC4DB",
"Z~ 	c #AFC4DC",
"`~ 	c #B2C6DC",
" { 	c #A3B8D2",
".{ 	c #8098BA",
"+{ 	c #8FA1BB",
"@{ 	c #335A93",
"#{ 	c #25518D",
"${ 	c #24508C",
"%{ 	c #2B548E",
"&{ 	c #30568F",
"*{ 	c #6784AC",
"={ 	c #93A9C4",
"-{ 	c #7994B6",
";{ 	c #869EBC",
">{ 	c #6F8BB0",
",{ 	c #4F6F9B",
"'{ 	c #617DA5",
"){ 	c #6885AB",
"!{ 	c #748EB0",
"~{ 	c #92A6BF",
"{{ 	c #869CB8",
"]{ 	c #7189AA",
"^{ 	c #59779E",
"/{ 	c #3B5E8E",
"({ 	c #315587",
"_{ 	c #2C5083",
":{ 	c #345787",
"<{ 	c #446490",
"[{ 	c #5F7C9F",
"}{ 	c #6B85A4",
"|{ 	c #6A84A3",
"1{ 	c #6E86A4",
"2{ 	c #748AA2",
"3{ 	c #98A4AD",
"4{ 	c #9EA7AD",
"5{ 	c #9DA7AF",
"6{ 	c #959FA6",
"7{ 	c #8D9AA1",
"8{ 	c #72838C",
"9{ 	c #6E7F7D",
"0{ 	c #627471",
"a{ 	c #586D6A",
"b{ 	c #596F6F",
"c{ 	c #506766",
"d{ 	c #3F5954",
"e{ 	c #2D4A44",
"f{ 	c #254540",
"g{ 	c #2C4844",
"h{ 	c #385052",
"i{ 	c #3C5158",
"j{ 	c #284143",
"k{ 	c #203939",
"l{ 	c #283D41",
"m{ 	c #2B3B41",
"n{ 	c #4A3E40",
"o{ 	c #6E4A4C",
"p{ 	c #704B4E",
"q{ 	c #6C4A4E",
"r{ 	c #6A484E",
"s{ 	c #715359",
"t{ 	c #7A5E64",
"u{ 	c #60434B",
"v{ 	c #5B3F46",
"w{ 	c #583E45",
"x{ 	c #543D44",
"y{ 	c #503C45",
"z{ 	c #4C3B45",
"A{ 	c #4A3944",
"B{ 	c #453742",
"C{ 	c #423544",
"D{ 	c #403545",
"E{ 	c #393242",
"F{ 	c #352F42",
"G{ 	c #2F2D40",
"H{ 	c #2C2B40",
"I{ 	c #27293D",
"J{ 	c #23283C",
"K{ 	c #21283C",
"L{ 	c #1D253B",
"M{ 	c #18243A",
"N{ 	c #142237",
"O{ 	c #092D3A",
"P{ 	c #11333C",
"Q{ 	c #19373D",
"R{ 	c #223B40",
"S{ 	c #2A4042",
"T{ 	c #314543",
"U{ 	c #374947",
"V{ 	c #3D4C47",
"W{ 	c #444F47",
"X{ 	c #4B5349",
"Y{ 	c #50564A",
"Z{ 	c #55594D",
"`{ 	c #595C4E",
" ] 	c #5F5F50",
".] 	c #656352",
"+] 	c #676451",
"@] 	c #6A6853",
"#] 	c #8D8A77",
"$] 	c #706D58",
"%] 	c #716C58",
"&] 	c #8D8775",
"*] 	c #75735A",
"=] 	c #7A765E",
"-] 	c #7D7660",
";] 	c #6C737A",
">] 	c #3D6DA4",
",] 	c #4F83AD",
"'] 	c #4C7DAE",
")] 	c #4175AF",
"!] 	c #4A7CB3",
"~] 	c #4677AE",
"{] 	c #5E89B9",
"]] 	c #7DA1C6",
"^] 	c #9DB9D5",
"/] 	c #ABC3DB",
"(] 	c #ACC3DC",
"_] 	c #A8C1DC",
":] 	c #ACC2DC",
"<] 	c #A4BBD7",
"[] 	c #90A9CA",
"}] 	c #A2B8D3",
"|] 	c #99AECA",
"1] 	c #738DB3",
"2] 	c #5074A4",
"3] 	c #3B6399",
"4] 	c #3B6298",
"5] 	c #43689C",
"6] 	c #6A87AF",
"7] 	c #5072A2",
"8] 	c #456698",
"9] 	c #56719C",
"0] 	c #8098B8",
"a] 	c #8CA3C0",
"b] 	c #8099B9",
"c] 	c #7C96B7",
"d] 	c #718CAF",
"e] 	c #5B77A0",
"f] 	c #4F6E9B",
"g] 	c #96A9C0",
"h] 	c #A5B4C3",
"i] 	c #9AA7B4",
"j] 	c #73879C",
"k] 	c #4C6C94",
"l] 	c #2D5286",
"m] 	c #1D457C",
"n] 	c #1A4379",
"o] 	c #20467B",
"p] 	c #3A5A85",
"q] 	c #647793",
"r] 	c #5F7795",
"s] 	c #88979D",
"t] 	c #95A2A0",
"u] 	c #97A3A0",
"v] 	c #A1ABAD",
"w] 	c #9EA9AD",
"x] 	c #9EA9AF",
"y] 	c #97A3A9",
"z] 	c #929DA3",
"A] 	c #89969B",
"B] 	c #7D8D8F",
"C] 	c #6F8081",
"D] 	c #677A7A",
"E] 	c #647777",
"F] 	c #5B706E",
"G] 	c #546969",
"H] 	c #455C58",
"I] 	c #354E46",
"J] 	c #395251",
"K] 	c #344D4E",
"L] 	c #455961",
"M] 	c #41545C",
"N] 	c #2D4247",
"O] 	c #243A3C",
"P] 	c #24363B",
"Q] 	c #373839",
"R] 	c #5F4448",
"S] 	c #67484D",
"T] 	c #64454A",
"U] 	c #63454C",
"V] 	c #5D424A",
"W] 	c #5A404A",
"X] 	c #583F46",
"Y] 	c #553E45",
"Z] 	c #533D46",
"`] 	c #4C3A43",
" ^ 	c #483943",
".^ 	c #41353F",
"+^ 	c #3F3442",
"@^ 	c #3C3442",
"#^ 	c #3A3442",
"$^ 	c #322E41",
"%^ 	c #3A384D",
"&^ 	c #2B2B41",
"*^ 	c #25283E",
"=^ 	c #242940",
"-^ 	c #272E44",
";^ 	c #1A2339",
">^ 	c #162238",
",^ 	c #112135",
"'^ 	c #0B2D39",
")^ 	c #12333C",
"!^ 	c #1A373E",
"~^ 	c #223C40",
"{^ 	c #283F41",
"]^ 	c #2F4343",
"^^ 	c #374745",
"/^ 	c #3C4B46",
"(^ 	c #434F48",
"_^ 	c #48524A",
":^ 	c #4E564C",
"<^ 	c #51574C",
"[^ 	c #565B4F",
"}^ 	c #5B5E51",
"|^ 	c #606153",
"1^ 	c #626353",
"2^ 	c #656553",
"3^ 	c #696956",
"4^ 	c #6B6A57",
"5^ 	c #7F7F6C",
"6^ 	c #858571",
"7^ 	c #73725C",
"8^ 	c #888772",
"9^ 	c #5E7187",
"0^ 	c #3970A3",
"a^ 	c #5487AB",
"b^ 	c #4779AC",
"c^ 	c #3F73AD",
"d^ 	c #5282B6",
"e^ 	c #5886B8",
"f^ 	c #638EBC",
"g^ 	c #92B1D0",
"h^ 	c #A7C0DA",
"i^ 	c #ADC4DD",
"j^ 	c #A3BCD8",
"k^ 	c #89A5C8",
"l^ 	c #829DC2",
"m^ 	c #6F8AB4",
"n^ 	c #2C5593",
"o^ 	c #5177A8",
"p^ 	c #597EAD",
"q^ 	c #6C8DB7",
"r^ 	c #7795BB",
"s^ 	c #7E9BBE",
"t^ 	c #7593B9",
"u^ 	c #7895BA",
"v^ 	c #89A2C2",
"w^ 	c #829DBE",
"x^ 	c #4E6FA0",
"y^ 	c #5D77A1",
"z^ 	c #8397B7",
"A^ 	c #738CB1",
"B^ 	c #718DB3",
"C^ 	c #718CB1",
"D^ 	c #738EB2",
"E^ 	c #637FA6",
"F^ 	c #7289A8",
"G^ 	c #A2B0BA",
"H^ 	c #BBC3C3",
"I^ 	c #C4CBC9",
"J^ 	c #BDC6C4",
"K^ 	c #AFBCBA",
"L^ 	c #B1BCBB",
"M^ 	c #A7B2B4",
"N^ 	c #A1AAB0",
"O^ 	c #72808F",
"P^ 	c #556787",
"Q^ 	c #51657D",
"R^ 	c #667987",
"S^ 	c #77878E",
"T^ 	c #95A299",
"U^ 	c #889991",
"V^ 	c #8E9E99",
"W^ 	c #8FA09C",
"X^ 	c #98A6A6",
"Y^ 	c #A5AEB3",
"Z^ 	c #A1ACB1",
"`^ 	c #A3ADB5",
" / 	c #9CA6AE",
"./ 	c #949FA7",
"+/ 	c #7E8C91",
"@/ 	c #7A898D",
"#/ 	c #5F736F",
"$/ 	c #576C67",
"%/ 	c #496059",
"&/ 	c #455C51",
"*/ 	c #3B5449",
"=/ 	c #4B6163",
"-/ 	c #475B5D",
";/ 	c #4E5F65",
">/ 	c #4B5B65",
",/ 	c #3D4F55",
"'/ 	c #2B3E3C",
")/ 	c #213435",
"!/ 	c #2A3335",
"~/ 	c #513E42",
"{/ 	c #614549",
"]/ 	c #5D4247",
"^/ 	c #594146",
"// 	c #564046",
"(/ 	c #523E46",
"_/ 	c #4F3D47",
":/ 	c #4B3A45",
"</ 	c #473845",
"[/ 	c #443744",
"}/ 	c #413544",
"|/ 	c #3F3443",
"1/ 	c #3B3342",
"2/ 	c #393241",
"3/ 	c #312E3E",
"4/ 	c #2C2C3F",
"5/ 	c #282A3E",
"6/ 	c #22293E",
"7/ 	c #1C253B",
"8/ 	c #18253D",
"9/ 	c #17273F",
"0/ 	c #12243B",
"a/ 	c #092B37",
"b/ 	c #10313A",
"c/ 	c #18363C",
"d/ 	c #213B3F",
"e/ 	c #273F41",
"f/ 	c #2E4242",
"g/ 	c #354644",
"h/ 	c #3B4A47",
"i/ 	c #414D48",
"j/ 	c #465049",
"k/ 	c #4A534A",
"l/ 	c #51594E",
"m/ 	c #53594D",
"n/ 	c #575C4E",
"o/ 	c #5D6052",
"p/ 	c #606254",
"q/ 	c #767768",
"r/ 	c #676857",
"s/ 	c #6A6B59",
"t/ 	c #6C6E5A",
"u/ 	c #6E705B",
"v/ 	c #6D6F5E",
"w/ 	c #53708C",
"x/ 	c #417BA1",
"y/ 	c #48809E",
"z/ 	c #5F8DAC",
"A/ 	c #5986B7",
"B/ 	c #6592C2",
"C/ 	c #5682B5",
"D/ 	c #3C6CA6",
"E/ 	c #89A8CB",
"F/ 	c #AAC3DD",
"G/ 	c #A6C0DC",
"H/ 	c #84A0C5",
"I/ 	c #345C98",
"J/ 	c #1A4C8F",
"K/ 	c #225090",
"L/ 	c #345D98",
"M/ 	c #7894BA",
"N/ 	c #99B1CE",
"O/ 	c #9AB2CE",
"P/ 	c #86A4C5",
"Q/ 	c #7C9CC0",
"R/ 	c #7E9CC0",
"S/ 	c #7D9ABF",
"T/ 	c #839FC1",
"U/ 	c #91AAC7",
"V/ 	c #8FA7C5",
"W/ 	c #8AA2C1",
"X/ 	c #9AADC8",
"Y/ 	c #889FBE",
"Z/ 	c #849DBC",
"`/ 	c #6D8BB1",
" ( 	c #5D7DA8",
".( 	c #9FB2C5",
"+( 	c #BEC8CC",
"@( 	c #C3C9C5",
"#( 	c #BEC7BD",
"$( 	c #C5CEC9",
"%( 	c #C2CBC6",
"&( 	c #C5CDCB",
"*( 	c #C3CBCA",
"=( 	c #BCC5C6",
"-( 	c #B3BFBB",
";( 	c #A6B3A9",
">( 	c #919F8F",
",( 	c #5F7994",
"'( 	c #768C87",
")( 	c #7A8F78",
"!( 	c #809482",
"~( 	c #728B7A",
"{( 	c #81978D",
"]( 	c #91A29C",
"^( 	c #94A4A1",
"/( 	c #92A19E",
"(( 	c #8D9D9A",
"_( 	c #98A4A6",
":( 	c #9DA8AD",
"<( 	c #929EA2",
"[( 	c #859495",
"}( 	c #7D8D8C",
"|( 	c #808E90",
"1( 	c #7B8A8D",
"2( 	c #6C7D7D",
"3( 	c #4E6558",
"4( 	c #435B4B",
"5( 	c #3A5446",
"6( 	c #3F5752",
"7( 	c #5B6C72",
"8( 	c #58686D",
"9( 	c #4E5F67",
"0( 	c #4B5B63",
"a( 	c #38494B",
"b( 	c #2D3E40",
"c( 	c #293937",
"d( 	c #263232",
"e( 	c #44373C",
"f( 	c #59444C",
"g( 	c #554048",
"h( 	c #533F47",
"i( 	c #4E3C46",
"j( 	c #473844",
"k( 	c #413644",
"l( 	c #3F3444",
"m( 	c #3C3343",
"n( 	c #383241",
"o( 	c #373443",
"p( 	c #343242",
"q( 	c #1F263B",
"r( 	c #1A243B",
"s( 	c #17233C",
"t( 	c #13213B",
"u( 	c #10213A",
"v( 	c #0A2C37",
"w( 	c #11323B",
"x( 	c #19363D",
"y( 	c #203A3E",
"z( 	c #263E40",
"A( 	c #2D4142",
"B( 	c #334444",
"C( 	c #394946",
"D( 	c #3F4C47",
"E( 	c #454F48",
"F( 	c #49534B",
"G( 	c #646D65",
"H( 	c #525A4F",
"I( 	c #545A4D",
"J( 	c #5A5E50",
"K( 	c #5E6153",
"L( 	c #616454",
"M( 	c #626555",
"N( 	c #646756",
"O( 	c #656856",
"P( 	c #686D5D",
"Q( 	c #4C738F",
"R( 	c #407DA2",
"S( 	c #4B83A1",
"T( 	c #608EAB",
"U( 	c #5585B5",
"V( 	c #6892C0",
"W( 	c #547FB3",
"X( 	c #6F96C0",
"Y( 	c #9FBBD8",
"Z( 	c #92AED0",
"`( 	c #4169A1",
" _ 	c #1D4C8E",
"._ 	c #385D96",
"+_ 	c #456A9F",
"@_ 	c #587DAD",
"#_ 	c #6E90BA",
"$_ 	c #7E9EC3",
"%_ 	c #97ADC7",
"&_ 	c #BECAD6",
"*_ 	c #BBC6D4",
"=_ 	c #BDC8D5",
"-_ 	c #8BA6C6",
";_ 	c #9CB2CD",
">_ 	c #AFC0D5",
",_ 	c #BCC9DA",
"'_ 	c #C0CCDC",
")_ 	c #A6B7CF",
"!_ 	c #BCC8D9",
"~_ 	c #BECBDA",
"{_ 	c #AABBD0",
"]_ 	c #96ACC7",
"^_ 	c #859FBF",
"/_ 	c #7492B6",
"(_ 	c #B2BDC4",
"__ 	c #CFD4D2",
":_ 	c #C6CFC9",
"<_ 	c #C3CEC4",
"[_ 	c #C4CEC7",
"}_ 	c #B2C0B7",
"|_ 	c #A2B4A9",
"1_ 	c #A9B8B8",
"2_ 	c #80979C",
"3_ 	c #5C7A99",
"4_ 	c #3C5C85",
"5_ 	c #67837C",
"6_ 	c #7B947F",
"7_ 	c #708B71",
"8_ 	c #648269",
"9_ 	c #607E64",
"0_ 	c #7D9484",
"a_ 	c #799081",
"b_ 	c #778E7E",
"c_ 	c #84978D",
"d_ 	c #7D9288",
"e_ 	c #678071",
"f_ 	c #8F9E9C",
"g_ 	c #9EA8AB",
"h_ 	c #82928C",
"i_ 	c #75877F",
"j_ 	c #5F7669",
"k_ 	c #778884",
"l_ 	c #7C8A8C",
"m_ 	c #6A7C7A",
"n_ 	c #566B64",
"o_ 	c #3D5749",
"p_ 	c #405849",
"q_ 	c #596A66",
"r_ 	c #5A6A6C",
"s_ 	c #546465",
"t_ 	c #526166",
"u_ 	c #43545A",
"v_ 	c #3B4B4D",
"w_ 	c #2C3D3D",
"x_ 	c #293832",
"y_ 	c #293332",
"z_ 	c #453C42",
"A_ 	c #4E3E48",
"B_ 	c #4D3B46",
"C_ 	c #4A3A45",
"D_ 	c #473A45",
"E_ 	c #443845",
"F_ 	c #413645",
"G_ 	c #3D3544",
"H_ 	c #3B3343",
"I_ 	c #393243",
"J_ 	c #363141",
"K_ 	c #322E3F",
"L_ 	c #2F2C3E",
"M_ 	c #2D2B3E",
"N_ 	c #292A3E",
"O_ 	c #25283D",
"P_ 	c #21273C",
"Q_ 	c #1B263D",
"R_ 	c #16233A",
"S_ 	c #132239",
"T_ 	c #102238",
"U_ 	c #10323B",
"V_ 	c #1F393D",
"W_ 	c #2C4142",
"X_ 	c #304343",
"Y_ 	c #374846",
"Z_ 	c #3C4A46",
"`_ 	c #424E48",
" : 	c #465149",
".: 	c #515C53",
"+: 	c #4D574C",
"@: 	c #51594D",
"#: 	c #565C4F",
"$: 	c #5B6052",
"%: 	c #606355",
"&: 	c #7E8175",
"*: 	c #616555",
"=: 	c #62695F",
"-: 	c #4C7890",
";: 	c #4481A2",
">: 	c #4F87A7",
",: 	c #5D8EAB",
"': 	c #4D7FB3",
"): 	c #6894C3",
"!: 	c #6D96C3",
"~: 	c #5480B4",
"{: 	c #4674AC",
"]: 	c #5D85B4",
"^: 	c #6989B4",
"/: 	c #235192",
"(: 	c #385D97",
"_: 	c #6587B4",
":: 	c #395F98",
"<: 	c #194688",
"[: 	c #184789",
"}: 	c #335D98",
"|: 	c #809DC1",
"1: 	c #BBC8D7",
"2: 	c #D6DDE5",
"3: 	c #D7DEE8",
"4: 	c #CFD8E3",
"5: 	c #B8C8DB",
"6: 	c #B7C7DA",
"7: 	c #C0CDDD",
"8: 	c #C9D3E1",
"9: 	c #D1D9E5",
"0: 	c #CCD5E2",
"a: 	c #D4DCE5",
"b: 	c #CED7E2",
"c: 	c #C6D1DE",
"d: 	c #CBD5E0",
"e: 	c #D1D9DF",
"f: 	c #DEE1E0",
"g: 	c #D8DDDB",
"h: 	c #D3DAD5",
"i: 	c #B3C3B6",
"j: 	c #B2C2CA",
"k: 	c #C4CFCE",
"l: 	c #BAC7B9",
"m: 	c #A6B8A6",
"n: 	c #9CB1A2",
"o: 	c #A4B5A6",
"p: 	c #526F7C",
"q: 	c #3F636C",
"r: 	c #6B8872",
"s: 	c #638366",
"t: 	c #6B896C",
"u: 	c #4A704F",
"v: 	c #68876E",
"w: 	c #849B89",
"x: 	c #809684",
"y: 	c #738D79",
"z: 	c #5F7E67",
"A: 	c #7A9182",
"B: 	c #667F6C",
"C: 	c #748A7D",
"D: 	c #99A6A2",
"E: 	c #768879",
"F: 	c #7E8F84",
"G: 	c #77887F",
"H: 	c #576F59",
"I: 	c #708276",
"J: 	c #62776E",
"K: 	c #778583",
"L: 	c #697971",
"M: 	c #576A58",
"N: 	c #556652",
"O: 	c #566656",
"P: 	c #51625D",
"Q: 	c #536365",
"R: 	c #4D5D63",
"S: 	c #425151",
"T: 	c #334442",
"U: 	c #35423C",
"V: 	c #313B33",
"W: 	c #2B312F",
"X: 	c #312C33",
"Y: 	c #463745",
"Z: 	c #463845",
"`: 	c #433845",
" < 	c #403745",
".< 	c #3E3646",
"+< 	c #393343",
"@< 	c #383344",
"#< 	c #363142",
"$< 	c #403E4F",
"%< 	c #323144",
"&< 	c #23273B",
"*< 	c #1F263C",
"=< 	c #1C263C",
"-< 	c #19243D",
";< 	c #15233C",
">< 	c #12223C",
",< 	c #142640",
"'< 	c #0A2C38",
")< 	c #0F303A",
"!< 	c #17343B",
"~< 	c #1E383C",
"{< 	c #253D3F",
"]< 	c #2B4041",
"^< 	c #2F4243",
"/< 	c #364746",
"(< 	c #3B4946",
"_< 	c #414D47",
":< 	c #48544B",
"<< 	c #4B574C",
"[< 	c #4F5A4D",
"}< 	c #535B4E",
"|< 	c #575D4F",
"1< 	c #5B5F51",
"2< 	c #65695C",
"3< 	c #5D655A",
"4< 	c #4A7891",
"5< 	c #417F9D",
"6< 	c #538BA8",
"7< 	c #5086A4",
"8< 	c #5082AD",
"9< 	c #618FC0",
"0< 	c #6791C0",
"a< 	c #89ABCF",
"b< 	c #537BAF",
"c< 	c #285999",
"d< 	c #436BA3",
"e< 	c #4F76AA",
"f< 	c #6185B3",
"g< 	c #809DC2",
"h< 	c #5A7CAC",
"i< 	c #305893",
"j< 	c #2A5592",
"k< 	c #2D5794",
"l< 	c #597CAC",
"m< 	c #3F679E",
"n< 	c #7C96BB",
"o< 	c #B1C2D7",
"p< 	c #CAD5E3",
"q< 	c #CFDAE5",
"r< 	c #ABBDD4",
"s< 	c #A2B7D0",
"t< 	c #ACBDD3",
"u< 	c #C6D1DF",
"v< 	c #C5D0DF",
"w< 	c #A5B8D0",
"x< 	c #93A9C6",
"y< 	c #BECBDB",
"z< 	c #D4DDE6",
"A< 	c #CDD7E2",
"B< 	c #CED8DD",
"C< 	c #E0E3E0",
"D< 	c #DCE0DC",
"E< 	c #DBE1DC",
"F< 	c #CED7CE",
"G< 	c #B3C3C0",
"H< 	c #94AABD",
"I< 	c #97AF93",
"J< 	c #A6B9A7",
"K< 	c #9CB29E",
"L< 	c #749375",
"M< 	c #6A8B6A",
"N< 	c #537963",
"O< 	c #6F8E61",
"P< 	c #5E825A",
"Q< 	c #547951",
"R< 	c #6F8E6F",
"S< 	c #869E84",
"T< 	c #8FA592",
"U< 	c #6B896F",
"V< 	c #6D8A72",
"W< 	c #5D7E63",
"X< 	c #57785C",
"Y< 	c #778F7B",
"Z< 	c #57765A",
"`< 	c #788D7D",
" [ 	c #919F9A",
".[ 	c #7D9083",
"+[ 	c #6C826F",
"@[ 	c #738674",
"#[ 	c #687D6B",
"$[ 	c #6F8274",
"%[ 	c #778676",
"&[ 	c #7F8B83",
"*[ 	c #868F8B",
"=[ 	c #768176",
"-[ 	c #697556",
";[ 	c #58674E",
">[ 	c #566550",
",[ 	c #57665D",
"'[ 	c #546469",
")[ 	c #4E5B5C",
"![ 	c #3D4541",
"~[ 	c #3E4743",
"{[ 	c #394444",
"][ 	c #313A38",
"^[ 	c #292C2C",
"/[ 	c #3A353F",
"([ 	c #443948",
"_[ 	c #403644",
":[ 	c #3E3745",
"<[ 	c #423C4C",
"[[ 	c #383444",
"}[ 	c #332F41",
"|[ 	c #332F42",
"1[ 	c #2F2C40",
"2[ 	c #2B2C3F",
"3[ 	c #292B3E",
"4[ 	c #24273C",
"5[ 	c #22273C",
"6[ 	c #1B253D",
"7[ 	c #18243C",
"8[ 	c #15223B",
"9[ 	c #102038",
"0[ 	c #0F1F39",
"a[ 	c #0B2B36",
"b[ 	c #10303A",
"c[ 	c #18343C",
"d[ 	c #1E383D",
"e[ 	c #243C40",
"f[ 	c #2A3F40",
"g[ 	c #5A6765",
"h[ 	c #4F5C59",
"i[ 	c #43504B",
"j[ 	c #465249",
"k[ 	c #48544A",
"l[ 	c #4D594E",
"m[ 	c #505B50",
"n[ 	c #535D50",
"o[ 	c #566052",
"p[ 	c #576258",
"q[ 	c #487690",
"r[ 	c #377793",
"s[ 	c #5089A5",
"t[ 	c #50879E",
"u[ 	c #5486A3",
"v[ 	c #5B8ABC",
"w[ 	c #517DB3",
"x[ 	c #678EBD",
"y[ 	c #7094C0",
"z[ 	c #3B65A0",
"A[ 	c #2F5998",
"B[ 	c #5980B1",
"C[ 	c #597EAF",
"D[ 	c #82A0C5",
"E[ 	c #7C9CC3",
"F[ 	c #7B9AC1",
"G[ 	c #587CAE",
"H[ 	c #6285B3",
"I[ 	c #698AB6",
"J[ 	c #6788B5",
"K[ 	c #5378AA",
"L[ 	c #5E7FAE",
"M[ 	c #5777A8",
"N[ 	c #C2CFE0",
"O[ 	c #B2C3D8",
"P[ 	c #91A8C5",
"Q[ 	c #9AAFCB",
"R[ 	c #BAC8DB",
"S[ 	c #7F9BBF",
"T[ 	c #9FB3CD",
"U[ 	c #CFD9E4",
"V[ 	c #CBD6E1",
"W[ 	c #D2DBDB",
"X[ 	c #C2CCC0",
"Y[ 	c #D5DBCE",
"Z[ 	c #D3DCD3",
"`[ 	c #C4D2C5",
" } 	c #A1B4B5",
".} 	c #6D8AAA",
"+} 	c #7D9C76",
"@} 	c #6F9368",
"#} 	c #588365",
"$} 	c #608870",
"%} 	c #4F7A5D",
"&} 	c #537D50",
"*} 	c #416E54",
"=} 	c #315C64",
"-} 	c #4A744B",
";} 	c #587F56",
">} 	c #5B8157",
",} 	c #88A186",
"'} 	c #87A087",
")} 	c #769176",
"!} 	c #4B724C",
"~} 	c #476D49",
"{} 	c #4E714E",
"]} 	c #52734F",
"^} 	c #5E7A5C",
"/} 	c #627E67",
"(} 	c #7F9384",
"_} 	c #68816A",
":} 	c #829480",
"<} 	c #637A57",
"[} 	c #5F7650",
"}} 	c #798761",
"|} 	c #748358",
"1} 	c #838D78",
"2} 	c #8E9693",
"3} 	c #767F6A",
"4} 	c #6E7757",
"5} 	c #687051",
"6} 	c #5F694C",
"7} 	c #5A664C",
"8} 	c #536460",
"9} 	c #536163",
"0} 	c #484F4E",
"a} 	c #3F413F",
"b} 	c #3F4443",
"c} 	c #384144",
"d} 	c #2F3334",
"e} 	c #2B2C2B",
"f} 	c #312D34",
"g} 	c #3B3544",
"h} 	c #393443",
"i} 	c #353242",
"j} 	c #343142",
"k} 	c #312F41",
"l} 	c #303040",
"m} 	c #2D2D40",
"n} 	c #2B2C40",
"o} 	c #292B3F",
"p} 	c #25293D",
"q} 	c #20273F",
"r} 	c #1D253F",
"s} 	c #19253D",
"t} 	c #16233D",
"u} 	c #12213A",
"v} 	c #112139",
"w} 	c #0D1E37",
"x} 	c #102F39",
"y} 	c #17333B",
"z} 	c #1E373D",
"A} 	c #233A40",
"B} 	c #283E40",
"C} 	c #314443",
"D} 	c #6B7877",
"E} 	c #596764",
"F} 	c #445048",
"G} 	c #47534A",
"H} 	c #49554B",
"I} 	c #4C594F",
"J} 	c #5C685D",
"K} 	c #515D51",
"L} 	c #447186",
"M} 	c #367798",
"N} 	c #3E7A9B",
"O} 	c #51889E",
"P} 	c #6395A9",
"Q} 	c #85ADCF",
"R} 	c #87ABD0",
"S} 	c #84A7CD",
"T} 	c #5178AE",
"U} 	c #5C83B5",
"V} 	c #466FA7",
"W} 	c #4D73A9",
"X} 	c #7E9EC5",
"Y} 	c #88A6C9",
"Z} 	c #7A9AC2",
"`} 	c #7392BB",
" | 	c #5A7EAE",
".| 	c #5A7DAE",
"+| 	c #6484B2",
"@| 	c #5377A9",
"#| 	c #42669D",
"$| 	c #335A96",
"%| 	c #4A6FA5",
"&| 	c #577DAE",
"*| 	c #7896BC",
"=| 	c #8EA9C9",
"-| 	c #A4B8D0",
";| 	c #7591B7",
">| 	c #88A0C0",
",| 	c #92ABCA",
"'| 	c #7495BD",
")| 	c #D9E0E9",
"!| 	c #E7EAED",
"~| 	c #EDEEED",
"{| 	c #EAEBE6",
"]| 	c #E5E7DF",
"^| 	c #DDE2D4",
"/| 	c #C3D2BE",
"(| 	c #88A891",
"_| 	c #4C71A0",
":| 	c #3E6699",
"<| 	c #7D9F7A",
"[| 	c #668F72",
"}| 	c #688F7A",
"|| 	c #517E68",
"1| 	c #437358",
"2| 	c #2A5772",
"3| 	c #416D51",
"4| 	c #3D6B4E",
"5| 	c #4F794B",
"6| 	c #567B54",
"7| 	c #698B63",
"8| 	c #688B61",
"9| 	c #71906D",
"0| 	c #809C80",
"a| 	c #5E815A",
"b| 	c #5D7E53",
"c| 	c #758E6B",
"d| 	c #879B7F",
"e| 	c #9AA891",
"f| 	c #82967E",
"g| 	c #90A08B",
"h| 	c #6D856C",
"i| 	c #87977F",
"j| 	c #7B8B53",
"k| 	c #748450",
"l| 	c #7B8855",
"m| 	c #7C8551",
"n| 	c #7E864E",
"o| 	c #8B9082",
"p| 	c #7F856D",
"q| 	c #6E744C",
"r| 	c #656A48",
"s| 	c #5B6345",
"t| 	c #5F6848",
"u| 	c #516152",
"v| 	c #576561",
"w| 	c #4D5755",
"x| 	c #464B4B",
"y| 	c #3D4040",
"z| 	c #3B3D3C",
"A| 	c #373B3F",
"B| 	c #313335",
"C| 	c #272829",
"D| 	c #2D2B34",
"E| 	c #363243",
"F| 	c #333142",
"G| 	c #322F42",
"H| 	c #2F2F40",
"I| 	c #2D2F3F",
"J| 	c #2B2D3E",
"K| 	c #282C3E",
"L| 	c #262A3E",
"M| 	c #23283E",
"N| 	c #20273D",
"O| 	c #343B53",
"P| 	c #1C2540",
"Q| 	c #17243C",
"R| 	c #11203A",
"S| 	c #10213B",
"T| 	c #0D1E38",
"U| 	c #0F2E38",
"V| 	c #153239",
"W| 	c #1D363C",
"X| 	c #223A3F",
"Y| 	c #273D40",
"Z| 	c #2C4041",
"`| 	c #3F4D49",
" 1 	c #414F48",
".1 	c #43524A",
"+1 	c #47564D",
"@1 	c #48574D",
"#1 	c #56645A",
"$1 	c #48707A",
"%1 	c #3B7C98",
"&1 	c #34719A",
"*1 	c #3C74A2",
"=1 	c #467C9D",
"-1 	c #6390BA",
";1 	c #81A6CE",
">1 	c #668AB8",
",1 	c #3F649E",
"'1 	c #5077AC",
")1 	c #6186B7",
"!1 	c #6085B6",
"~1 	c #5F84B5",
"{1 	c #7697C1",
"]1 	c #8CA8CB",
"^1 	c #88A5C9",
"/1 	c #87A3C7",
"(1 	c #7B98BF",
"_1 	c #7996BE",
":1 	c #5376A9",
"<1 	c #5679AA",
"[1 	c #3D659E",
"}1 	c #486FA5",
"|1 	c #4F77AA",
"11 	c #7291BA",
"21 	c #6C8FBA",
"31 	c #5479AA",
"41 	c #2E5894",
"51 	c #39649D",
"61 	c #7F9DBF",
"71 	c #7496BD",
"81 	c #88A2C3",
"91 	c #D3DDE7",
"01 	c #F0F1F0",
"a1 	c #F2F2EF",
"b1 	c #E7EAE2",
"c1 	c #DBE3D8",
"d1 	c #D2DDCE",
"e1 	c #B5C9B3",
"f1 	c #799C86",
"g1 	c #2E5A8C",
"h1 	c #26538A",
"i1 	c #648B74",
"j1 	c #68905F",
"k1 	c #618669",
"l1 	c #36616D",
"m1 	c #3C6A66",
"n1 	c #5D8071",
"o1 	c #537B54",
"p1 	c #537E43",
"q1 	c #698D50",
"r1 	c #5E8353",
"s1 	c #8CA57D",
"t1 	c #7A986C",
"u1 	c #7A9974",
"v1 	c #769572",
"w1 	c #69895F",
"x1 	c #889E72",
"y1 	c #AAB69C",
"z1 	c #9DAC91",
"A1 	c #9FAC93",
"B1 	c #96A48A",
"C1 	c #96A486",
"D1 	c #919E82",
"E1 	c #718765",
"F1 	c #8F9B75",
"G1 	c #859156",
"H1 	c #878F51",
"I1 	c #868B4F",
"J1 	c #84874E",
"K1 	c #7D804E",
"L1 	c #818469",
"M1 	c #6F7249",
"N1 	c #696B47",
"O1 	c #676846",
"P1 	c #606446",
"Q1 	c #5D6444",
"R1 	c #5D6953",
"S1 	c #576355",
"T1 	c #535D59",
"U1 	c #485150",
"V1 	c #404548",
"W1 	c #3A3E41",
"X1 	c #343639",
"Y1 	c #2C2D2F",
"Z1 	c #252625",
"`1 	c #2C2B38",
" 2 	c #303042",
".2 	c #2E2E41",
"+2 	c #2C2D40",
"@2 	c #2A2D3E",
"#2 	c #272B3E",
"$2 	c #252A3E",
"%2 	c #21273D",
"&2 	c #1F273C",
"*2 	c #1D263F",
"=2 	c #18233E",
"-2 	c #16243C",
";2 	c #13223B",
">2 	c #0F2039",
",2 	c #0E1F39",
"'2 	c #0B1D37",
")2 	c #092934",
"!2 	c #16333A",
"~2 	c #1B353B",
"{2 	c #21383D",
"]2 	c #263D40",
"^2 	c #2A3F41",
"/2 	c #2E4243",
"(2 	c #324544",
"_2 	c #3B4B49",
":2 	c #3E4E49",
"<2 	c #40504A",
"[2 	c #43524C",
"}2 	c #45554D",
"|2 	c #43646F",
"12 	c #418099",
"22 	c #39769F",
"32 	c #215DA0",
"42 	c #366BA0",
"52 	c #4174A7",
"62 	c #3C6BA9",
"72 	c #34609F",
"82 	c #1A4B91",
"92 	c #5276A9",
"02 	c #587EB2",
"a2 	c #496FA6",
"b2 	c #4369A2",
"c2 	c #98B2D1",
"d2 	c #8BA8CB",
"e2 	c #7898C1",
"f2 	c #6988B5",
"g2 	c #6A85B0",
"h2 	c #7B97BE",
"i2 	c #6182B1",
"j2 	c #6487B5",
"k2 	c #6184B3",
"l2 	c #5476A8",
"m2 	c #5D7FAE",
"n2 	c #5274A6",
"o2 	c #7B96BC",
"p2 	c #6E8FBA",
"q2 	c #698EBA",
"r2 	c #4F77AB",
"s2 	c #346097",
"t2 	c #436CA1",
"u2 	c #7090B8",
"v2 	c #9CB3CE",
"w2 	c #C2D1E0",
"x2 	c #EDF0EE",
"y2 	c #EAEDE4",
"z2 	c #D5DFD3",
"A2 	c #9FB99C",
"B2 	c #99B49D",
"C2 	c #A0BCA2",
"D2 	c #689063",
"E2 	c #527E69",
"F2 	c #2B578A",
"G2 	c #3B6596",
"H2 	c #2D5A77",
"I2 	c #4C7363",
"J2 	c #4E7366",
"K2 	c #598353",
"L2 	c #6F9462",
"M2 	c #527E45",
"N2 	c #507C43",
"O2 	c #5B8447",
"P2 	c #849F68",
"Q2 	c #7E997D",
"R2 	c #96AC79",
"S2 	c #94AB7E",
"T2 	c #7D9A76",
"U2 	c #7B976A",
"V2 	c #AAB69F",
"W2 	c #9EAA7E",
"X2 	c #B8BFA1",
"Y2 	c #BAC0AF",
"Z2 	c #B8BEA7",
"`2 	c #9FA86E",
" 3 	c #72874F",
".3 	c #698155",
"+3 	c #8A9667",
"@3 	c #8E9454",
"#3 	c #8D8E4E",
"$3 	c #888A4D",
"%3 	c #888A4C",
"&3 	c #7C824A",
"*3 	c #797D49",
"=3 	c #767947",
"-3 	c #717345",
";3 	c #6D6E45",
">3 	c #686744",
",3 	c #646344",
"'3 	c #656A55",
")3 	c #555A4B",
"!3 	c #585E56",
"~3 	c #5B6368",
"{3 	c #494A48",
"]3 	c #3E4041",
"^3 	c #363739",
"/3 	c #303032",
"(3 	c #2D2D2C",
"_3 	c #242424",
":3 	c #282B3A",
"<3 	c #2B2E42",
"[3 	c #2A2D41",
"}3 	c #272C3F",
"|3 	c #282E41",
"13 	c #252B41",
"23 	c #222840",
"33 	c #1F263E",
"43 	c #1C263B",
"53 	c #1B253E",
"63 	c #18243F",
"73 	c #14233B",
"83 	c #12223B",
"93 	c #0B1E37",
"03 	c #0B1F38",
"a3 	c #16323A",
"b3 	c #1B343A",
"c3 	c #20373C",
"d3 	c #283E41",
"e3 	c #2D4143",
"f3 	c #304344",
"g3 	c #3B4C48",
"h3 	c #3F504B",
"i3 	c #41524C",
"j3 	c #425C60",
"k3 	c #397A95",
"l3 	c #4280A0",
"m3 	c #215DA4",
"n3 	c #407597",
"o3 	c #3D7394",
"p3 	c #1A529B",
"q3 	c #1C5098",
"r3 	c #2C5696",
"s3 	c #7495BF",
"t3 	c #305897",
"u3 	c #5A7DAF",
"v3 	c #7597C1",
"w3 	c #8FACCE",
"x3 	c #6284B3",
"y3 	c #4E71A6",
"z3 	c #6684B2",
"A3 	c #325995",
"B3 	c #456AA1",
"C3 	c #4268A0",
"D3 	c #5D7CAD",
"E3 	c #4E6FA3",
"F3 	c #3F659E",
"G3 	c #3E639C",
"H3 	c #40669F",
"I3 	c #426BA3",
"J3 	c #6C8FB2",
"K3 	c #8EAAB9",
"L3 	c #9AB3B2",
"M3 	c #3C689F",
"N3 	c #38639C",
"O3 	c #5878A7",
"P3 	c #9FB6D1",
"Q3 	c #B0C3D8",
"R3 	c #E2E8E2",
"S3 	c #BBCAB9",
"T3 	c #829CB1",
"U3 	c #8EAA9C",
"V3 	c #8AA7A3",
"W3 	c #648C64",
"X3 	c #558269",
"Y3 	c #295482",
"Z3 	c #164584",
"`3 	c #224F7F",
" 4 	c #416974",
".4 	c #5A8450",
"+4 	c #688D50",
"@4 	c #61875D",
"#4 	c #638B4E",
"$4 	c #507B4A",
"%4 	c #4A7944",
"&4 	c #6C915A",
"*4 	c #8EA873",
"=4 	c #94AC77",
"-4 	c #A6B782",
";4 	c #A0B281",
">4 	c #8CA577",
",4 	c #91A574",
"'4 	c #8FA15D",
")4 	c #95A25E",
"!4 	c #B5BC98",
"~4 	c #C0C4AE",
"{4 	c #B9BF9D",
"]4 	c #B3B890",
"^4 	c #A0A865",
"/4 	c #5E7944",
"(4 	c #7C884B",
"_4 	c #949650",
":4 	c #8E8F50",
"<4 	c #82854E",
"[4 	c #87874B",
"}4 	c #84834A",
"|4 	c #7D7C47",
"14 	c #777747",
"24 	c #747446",
"34 	c #6F7045",
"44 	c #6B6B44",
"54 	c #666443",
"64 	c #64644A",
"74 	c #656956",
"84 	c #62685C",
"94 	c #5F6569",
"04 	c #5A5F63",
"a4 	c #413F3B",
"b4 	c #393B39",
"c4 	c #343636",
"d4 	c #313232",
"e4 	c #292927",
"f4 	c #212223",
"g4 	c #262B3E",
"h4 	c #242A3F",
"i4 	c #262C3F",
"j4 	c #232A3F",
"k4 	c #20283F",
"l4 	c #202841",
"m4 	c #1F2840",
"n4 	c #1A253A",
"o4 	c #18243D",
"p4 	c #16233E",
"q4 	c #13223A",
"r4 	c #0E2039",
"s4 	c #0C1F38",
"t4 	c #0A1E37",
"u4 	c #0A2934",
"v4 	c #102E38",
"w4 	c #1A3339",
"x4 	c #1F373C",
"y4 	c #2C4143",
"z4 	c #364946",
"A4 	c #384B48",
"B4 	c #3A4D49",
"C4 	c #3D5352",
"D4 	c #367094",
"E4 	c #3271A2",
"F4 	c #447DA7",
"G4 	c #2B63A0",
"H4 	c #598C95",
"I4 	c #285D97",
"J4 	c #174D96",
"K4 	c #154991",
"L4 	c #15448B",
"M4 	c #19468C",
"N4 	c #1B488D",
"O4 	c #718FBA",
"P4 	c #98B3D2",
"Q4 	c #88A6CB",
"R4 	c #7291BC",
"S4 	c #5C7DAD",
"T4 	c #5A7AAB",
"U4 	c #6080B0",
"V4 	c #41639C",
"W4 	c #355995",
"X4 	c #476AA0",
"Y4 	c #40639C",
"Z4 	c #285595",
"`4 	c #255293",
" 5 	c #245292",
".5 	c #1E498B",
"+5 	c #224D8E",
"@5 	c #456FA6",
"#5 	c #7F9CB4",
"$5 	c #BED0AD",
"%5 	c #AAC194",
"&5 	c #829BB2",
"*5 	c #88A3C5",
"=5 	c #738EB6",
"-5 	c #6D8EB9",
";5 	c #6182B0",
">5 	c #6787B0",
",5 	c #446A9C",
"'5 	c #708999",
")5 	c #5C8185",
"!5 	c #638F5A",
"~5 	c #51835B",
"{5 	c #477576",
"]5 	c #45687C",
"^5 	c #1A4786",
"/5 	c #325D73",
"(5 	c #4D706C",
"_5 	c #557F59",
":5 	c #618A47",
"<5 	c #779855",
"[5 	c #5A8446",
"}5 	c #547E42",
"|5 	c #658D5F",
"15 	c #86A46C",
"25 	c #90AA71",
"35 	c #9DB287",
"45 	c #BAC6AC",
"55 	c #BAC6B1",
"65 	c #93A97A",
"75 	c #ABB892",
"85 	c #B7BF7F",
"95 	c #A2AE7B",
"05 	c #B0B68D",
"a5 	c #A5AE7D",
"b5 	c #B8BC8E",
"c5 	c #B8BA8A",
"d5 	c #B0B275",
"e5 	c #9AA266",
"f5 	c #708445",
"g5 	c #98954F",
"h5 	c #94904E",
"i5 	c #8B884E",
"j5 	c #89844D",
"k5 	c #86814B",
"l5 	c #827B4A",
"m5 	c #7D7748",
"n5 	c #787345",
"o5 	c #757246",
"p5 	c #706C44",
"q5 	c #6B6543",
"r5 	c #645E45",
"s5 	c #656556",
"t5 	c #5D635C",
"u5 	c #5E635E",
"v5 	c #60666B",
"w5 	c #545958",
"x5 	c #3E4140",
"y5 	c #3D3C3A",
"z5 	c #353638",
"A5 	c #2F302E",
"B5 	c #282825",
"C5 	c #1E2128",
"D5 	c #242B3E",
"E5 	c #232B40",
"F5 	c #212A40",
"G5 	c #1E273F",
"H5 	c #1C2841",
"I5 	c #222D47",
"J5 	c #1A253C",
"K5 	c #15223C",
"L5 	c #0D2039",
"M5 	c #0C2039",
"N5 	c #091E37",
"O5 	c #0B2934",
"P5 	c #102C37",
"Q5 	c #153139",
"R5 	c #193339",
"S5 	c #1E373B",
"T5 	c #253C41",
"U5 	c #6D8083",
"V5 	c #273E41",
"W5 	c #2D4242",
"X5 	c #344845",
"Y5 	c #364A48",
"Z5 	c #384C49",
"`5 	c #346386",
" 6 	c #2263A8",
".6 	c #2B69A0",
"+6 	c #2F6AA8",
"@6 	c #275F9D",
"#6 	c #386C97",
"$6 	c #194F99",
"%6 	c #114690",
"&6 	c #12438B",
"*6 	c #0F4088",
"=6 	c #345A97",
"-6 	c #7D9BC2",
";6 	c #9CB5D5",
">6 	c #A3BBD7",
",6 	c #7996BF",
"'6 	c #45669D",
")6 	c #375995",
"!6 	c #274D8E",
"~6 	c #47689E",
"{6 	c #395E99",
"]6 	c #1B488B",
"^6 	c #295595",
"/6 	c #2D5997",
"(6 	c #2D5492",
"_6 	c #345B97",
":6 	c #3C649F",
"<6 	c #295493",
"[6 	c #235394",
"}6 	c #235597",
"|6 	c #7195A4",
"16 	c #BFD09D",
"26 	c #AABBAD",
"36 	c #5A7FB0",
"46 	c #587CAD",
"56 	c #557EB0",
"66 	c #4F76AB",
"76 	c #325E9B",
"86 	c #ACBB9C",
"96 	c #A6B48F",
"06 	c #325689",
"a6 	c #66905E",
"b6 	c #5E8C68",
"c6 	c #4E7382",
"d6 	c #174787",
"e6 	c #114183",
"f6 	c #6B8B64",
"g6 	c #92AC55",
"h6 	c #9DB157",
"i6 	c #7A9C50",
"j6 	c #759856",
"k6 	c #568146",
"l6 	c #668D50",
"m6 	c #7FA06E",
"n6 	c #9AB280",
"o6 	c #ACBE96",
"p6 	c #C2CEB7",
"q6 	c #C5CDA9",
"r6 	c #BCC59A",
"s6 	c #B6C097",
"t6 	c #B5C09A",
"u6 	c #C8CDAB",
"v6 	c #B7C0A0",
"w6 	c #889A54",
"x6 	c #A2AD84",
"y6 	c #A9B076",
"z6 	c #B0B376",
"A6 	c #B1AF6D",
"B6 	c #AAA76A",
"C6 	c #9C9E50",
"D6 	c #989851",
"E6 	c #96904D",
"F6 	c #91894C",
"G6 	c #90864E",
"H6 	c #8A814D",
"I6 	c #877E4D",
"J6 	c #827749",
"K6 	c #7C7147",
"L6 	c #7B7347",
"M6 	c #756E46",
"N6 	c #6C6244",
"O6 	c #5A5349",
"P6 	c #5B5951",
"Q6 	c #6A6E5D",
"R6 	c #636866",
"S6 	c #63696C",
"T6 	c #5A6268",
"U6 	c #424443",
"V6 	c #403E3C",
"W6 	c #393939",
"X6 	c #353838",
"Y6 	c #282E31",
"Z6 	c #212522",
"`6 	c #1F2431",
" 7 	c #212940",
".7 	c #1E2940",
"+7 	c #1B2740",
"@7 	c #192842",
"#7 	c #23324B",
"$7 	c #16243D",
"%7 	c #17243F",
"&7 	c #14223B",
"*7 	c #11223A",
"=7 	c #0E203B",
"-7 	c #0C203A",
";7 	c #091D38",
">7 	c #0A2833",
",7 	c #0F2C37",
"'7 	c #143038",
")7 	c #193338",
"!7 	c #1C353A",
"~7 	c #223B3F",
"{7 	c #3B5054",
"]7 	c #2C4141",
"^7 	c #2F4442",
"/7 	c #334745",
"(7 	c #344846",
"_7 	c #345674",
":7 	c #2061AA",
"<7 	c #1C5CA6",
"[7 	c #2763AA",
"}7 	c #215BA3",
"|7 	c #235A9E",
"17 	c #1A519A",
"27 	c #174E97",
"37 	c #134891",
"47 	c #1E4A8F",
"57 	c #466BA3",
"67 	c #88A5CA",
"77 	c #9BB5D4",
"87 	c #B3C7DE",
"97 	c #B8CAE0",
"07 	c #9FB5D3",
"a7 	c #6383B2",
"b7 	c #2D5393",
"c7 	c #123E85",
"d7 	c #124086",
"e7 	c #1E488B",
"f7 	c #47679D",
"g7 	c #2B508E",
"h7 	c #1A478B",
"i7 	c #265495",
"j7 	c #255393",
"k7 	c #436FA2",
"l7 	c #658994",
"m7 	c #B1C396",
"n7 	c #A9BDC5",
"o7 	c #E6ECDE",
"p7 	c #D8E0C1",
"q7 	c #3C67A2",
"r7 	c #2A5B9B",
"s7 	c #537AAD",
"t7 	c #3A65A0",
"u7 	c #285697",
"v7 	c #BDC880",
"w7 	c #849885",
"x7 	c #93A687",
"y7 	c #8FA180",
"z7 	c #104385",
"A7 	c #104184",
"B7 	c #1D4782",
"C7 	c #788F70",
"D7 	c #ACBD5F",
"E7 	c #97B05E",
"F7 	c #7B9D53",
"G7 	c #87A454",
"H7 	c #74964E",
"I7 	c #9AB065",
"J7 	c #BBC895",
"K7 	c #BFCCB1",
"L7 	c #D4DBCE",
"M7 	c #D7DCCB",
"N7 	c #D4D7B4",
"O7 	c #C9CD91",
"P7 	c #CED2A9",
"Q7 	c #C4CBA9",
"R7 	c #BFC69E",
"S7 	c #A7B376",
"T7 	c #99A55A",
"U7 	c #B2B78E",
"V7 	c #BDBC85",
"W7 	c #B6B46E",
"X7 	c #ACAB62",
"Y7 	c #ABA867",
"Z7 	c #A7A261",
"`7 	c #A29C57",
" 8 	c #9A934E",
".8 	c #948B4C",
"+8 	c #91864F",
"@8 	c #8C8252",
"#8 	c #8C814E",
"$8 	c #877A4A",
"%8 	c #7E6E47",
"&8 	c #7D7148",
"*8 	c #786D47",
"=8 	c #6E5F44",
"-8 	c #585653",
";8 	c #6D624E",
">8 	c #6C6C5A",
",8 	c #6D7476",
"'8 	c #666D68",
")8 	c #60686B",
"!8 	c #474C49",
"~8 	c #444341",
"{8 	c #42413F",
"]8 	c #3B3D3D",
"^8 	c #2D343A",
"/8 	c #252C2E",
"(8 	c #1E2221",
"_8 	c #1D273A",
":8 	c #1D2940",
"<8 	c #1A2740",
"[8 	c #17253F",
"}8 	c #16253E",
"|8 	c #152540",
"18 	c #26354F",
"28 	c #10213C",
"38 	c #12253F",
"48 	c #1E334F",
"58 	c #0A203B",
"68 	c #081E37",
"78 	c #071C36",
"88 	c #0F2C36",
"98 	c #193238",
"08 	c #20393D",
"a8 	c #233B40",
"b8 	c #263E41",
"c8 	c #294041",
"d8 	c #506363",
"e8 	c #5E6F6F",
"f8 	c #344D54",
"g8 	c #316AA7",
"h8 	c #1A59A4",
"i8 	c #1B57A1",
"j8 	c #1A539E",
"k8 	c #1B539E",
"l8 	c #1A519C",
"m8 	c #3362A3",
"n8 	c #1C5198",
"o8 	c #4871AA",
"p8 	c #5B81B4",
"q8 	c #7B9CC5",
"r8 	c #8AA8CC",
"s8 	c #99B2D2",
"t8 	c #96ACCC",
"u8 	c #ADC0DA",
"v8 	c #92ADCF",
"w8 	c #708FBB",
"x8 	c #345996",
"y8 	c #133F85",
"z8 	c #164186",
"A8 	c #42669E",
"B8 	c #8DA7CA",
"C8 	c #8DA8CB",
"D8 	c #7793BB",
"E8 	c #2D5B9B",
"F8 	c #215396",
"G8 	c #3162A1",
"H8 	c #9DB59B",
"I8 	c #C8D7A3",
"J8 	c #D0DBC2",
"K8 	c #7993B4",
"L8 	c #B4C2BE",
"M8 	c #DAE29D",
"N8 	c #728C9A",
"O8 	c #3968A4",
"P8 	c #33619E",
"Q8 	c #3B67A2",
"R8 	c #2D5D9B",
"S8 	c #14458B",
"T8 	c #B1BE85",
"U8 	c #738B84",
"V8 	c #768D8A",
"W8 	c #5C768A",
"X8 	c #6885A3",
"Y8 	c #6B8875",
"Z8 	c #8AA46C",
"`8 	c #8C9E75",
" 9 	c #A6BB62",
".9 	c #A2B760",
"+9 	c #8FAA64",
"@9 	c #9AB15E",
"#9 	c #94AC54",
"$9 	c #87A455",
"%9 	c #ACBF8E",
"&9 	c #D4DAC2",
"*9 	c #D3DAC5",
"=9 	c #CCD4BF",
"-9 	c #C9D0A6",
";9 	c #C0C881",
">9 	c #B7C066",
",9 	c #B5BF80",
"'9 	c #B9C079",
")9 	c #A5B15C",
"!9 	c #AEB65F",
"~9 	c #9DA759",
"{9 	c #AEAE61",
"]9 	c #B3AF65",
"^9 	c #AEAC5D",
"/9 	c #A9A85D",
"(9 	c #ABA65D",
"_9 	c #A7A05A",
":9 	c #A29A54",
"<9 	c #9E9650",
"[9 	c #988E4D",
"}9 	c #96894E",
"|9 	c #938453",
"19 	c #938455",
"29 	c #8C7B4F",
"39 	c #827049",
"49 	c #82704B",
"59 	c #7E6A4B",
"69 	c #78684B",
"79 	c #6E6758",
"89 	c #6E6750",
"99 	c #6E6B56",
"09 	c #6F7370",
"a9 	c #6D7575",
"b9 	c #626A6F",
"c9 	c #595B5A",
"d9 	c #4E4E45",
"e9 	c #4B4C46",
"f9 	c #424343",
"g9 	c #383C41",
"h9 	c #2C3034",
"i9 	c #242929",
"j9 	c #1A2028",
"k9 	c #1A283E",
"l9 	c #1E2C43",
"m9 	c #182640",
"n9 	c #18273F",
"o9 	c #13233E",
"p9 	c #13233F",
"q9 	c #0E223B",
"r9 	c #081F3B",
"s9 	c #0A203D",
"t9 	c #081D38",
"u9 	c #071C37",
"v9 	c #0B2833",
"w9 	c #0E2B36",
"x9 	c #132F37",
"y9 	c #183137",
"z9 	c #1F383C",
"A9 	c #223A3E",
"B9 	c #253D41",
"C9 	c #334A4B",
"D9 	c #3D5151",
"E9 	c #3E6F98",
"F9 	c #205EA8",
"G9 	c #1A54A0",
"H9 	c #1B529D",
"I9 	c #1C529C",
"J9 	c #1A529C",
"K9 	c #21569D",
"L9 	c #5D87BA",
"M9 	c #557FB5",
"N9 	c #8FABCF",
"O9 	c #A0B9D7",
"P9 	c #87A2C7",
"Q9 	c #6F91BE",
"R9 	c #577CB0",
"S9 	c #5177AC",
"T9 	c #7897C1",
"U9 	c #9CB5D3",
"V9 	c #88A1C6",
"W9 	c #4469A1",
"X9 	c #2B5494",
"Y9 	c #325997",
"Z9 	c #6C8DBA",
"`9 	c #A7BCD8",
" 0 	c #8CA5C8",
".0 	c #688AB8",
"+0 	c #1C4E92",
"@0 	c #2A599A",
"#0 	c #DEE6D6",
"$0 	c #F2F5DB",
"%0 	c #94A6BA",
"&0 	c #89A49A",
"*0 	c #C1CE76",
"=0 	c #D8DF79",
"-0 	c #A0B19F",
";0 	c #35639F",
">0 	c #466A99",
",0 	c #8E9C85",
"'0 	c #A8B481",
")0 	c #BECC77",
"!0 	c #B8C96F",
"~0 	c #C1D087",
"{0 	c #BBCA86",
"]0 	c #C9D5B2",
"^0 	c #ACC18F",
"/0 	c #ADBF71",
"(0 	c #B2C265",
"_0 	c #A7BB6C",
":0 	c #B8C669",
"<0 	c #AABC6D",
"[0 	c #9AB05A",
"}0 	c #A3B559",
"|0 	c #97AF64",
"10 	c #B5C597",
"20 	c #D6DCC3",
"30 	c #D4DBC1",
"40 	c #B3C291",
"50 	c #B1BE76",
"60 	c #BCC46C",
"70 	c #BCC366",
"80 	c #B2BB65",
"90 	c #BAC075",
"00 	c #B6BD77",
"a0 	c #BCBE6F",
"b0 	c #C0C18D",
"c0 	c #ACAC78",
"d0 	c #B2AE64",
"e0 	c #AFAC5E",
"f0 	c #AAA75D",
"g0 	c #A9A45C",
"h0 	c #AAA15B",
"i0 	c #A59955",
"j0 	c #A19450",
"k0 	c #9E8F53",
"l0 	c #9A8953",
"m0 	c #9C8A56",
"n0 	c #9C8A5A",
"o0 	c #947F56",
"p0 	c #927D58",
"q0 	c #8A7753",
"r0 	c #877252",
"s0 	c #806C4F",
"t0 	c #7A6E54",
"u0 	c #7B7861",
"v0 	c #767762",
"w0 	c #747B7A",
"x0 	c #6D767A",
"y0 	c #686E75",
"z0 	c #616564",
"A0 	c #5A5B58",
"B0 	c #4F4E47",
"C0 	c #474A4C",
"D0 	c #3D4146",
"E0 	c #313436",
"F0 	c #282E32",
"G0 	c #202524",
"H0 	c #182333",
"I0 	c #19283F",
"J0 	c #15243B",
"K0 	c #15243D",
"L0 	c #11213B",
"M0 	c #0D2139",
"N0 	c #091F3A",
"O0 	c #071F3B",
"P0 	c #061E38",
"Q0 	c #041C36",
"R0 	c #0A2733",
"S0 	c #0D2A35",
"T0 	c #122E36",
"U0 	c #173137",
"V0 	c #1B3439",
"W0 	c #1F373B",
"X0 	c #213A3E",
"Y0 	c #233C40",
"Z0 	c #335568",
"`0 	c #3C77B6",
" a 	c #396FB1",
".a 	c #3063A8",
"+a 	c #1A519B",
"@a 	c #164E98",
"#a 	c #416BA7",
"$a 	c #638BBC",
"%a 	c #89A8CD",
"&a 	c #A2BBD9",
"*a 	c #6C85B0",
"=a 	c #335B99",
"-a 	c #4D74AA",
";a 	c #4D71A7",
">a 	c #5B7CAE",
",a 	c #6184B5",
"'a 	c #6486B6",
")a 	c #4D72A9",
"!a 	c #6B8CBA",
"~a 	c #6586B5",
"{a 	c #6D8CB8",
"]a 	c #94ADCE",
"^a 	c #A8BCD8",
"/a 	c #6683B1",
"(a 	c #18488E",
"_a 	c #5571A4",
":a 	c #B3C6DD",
"<a 	c #B5C6D0",
"[a 	c #B8C8CE",
"}a 	c #728CAC",
"|a 	c #5C768C",
"1a 	c #AFC378",
"2a 	c #CED86E",
"3a 	c #E2E78E",
"4a 	c #E2E7A3",
"5a 	c #6E86A5",
"6a 	c #3A5F95",
"7a 	c #A1B37B",
"8a 	c #C4D269",
"9a 	c #CBD770",
"0a 	c #BCCC6F",
"aa 	c #B4C666",
"ba 	c #BECE7E",
"ca 	c #B3C788",
"da 	c #AEC48A",
"ea 	c #BFCD84",
"fa 	c #C8D378",
"ga 	c #C3CE68",
"ha 	c #BDCA72",
"ia 	c #C0CC72",
"ja 	c #B4C475",
"ka 	c #A4B85F",
"la 	c #97AE58",
"ma 	c #82A164",
"na 	c #B0C299",
"oa 	c #BAC9A1",
"pa 	c #C1CB8D",
"qa 	c #B6C16E",
"ra 	c #B9C36B",
"sa 	c #B8C165",
"ta 	c #B9C161",
"ua 	c #BAC05E",
"va 	c #B7BD5E",
"wa 	c #C2C47A",
"xa 	c #C1C082",
"ya 	c #D1D0B6",
"za 	c #A8A660",
"Aa 	c #ACA859",
"Ba 	c #ADA65B",
"Ca 	c #B3AA6E",
"Da 	c #B1A86C",
"Ea 	c #AD9F60",
"Fa 	c #A89758",
"Ga 	c #A69355",
"Ha 	c #A28E53",
"Ia 	c #9E8855",
"Ja 	c #938357",
"Ka 	c #7A7360",
"La 	c #9A855A",
"Ma 	c #9B8B66",
"Na 	c #938661",
"Oa 	c #8A7757",
"Pa 	c #816B4D",
"Qa 	c #7E7351",
"Ra 	c #7B7457",
"Sa 	c #7A7F68",
"Ta 	c #6C726C",
"Ua 	c #6F777A",
"Va 	c #6E7277",
"Wa 	c #676A6B",
"Xa 	c #5F5F5D",
"Ya 	c #545048",
"Za 	c #4A4D4D",
"`a 	c #3C424A",
" b 	c #363C43",
".b 	c #2A3237",
"+b 	c #252C2D",
"@b 	c #1C2125",
"#b 	c #142338",
"$b 	c #11223B",
"%b 	c #10203A",
"&b 	c #0B2038",
"*b 	c #081F3A",
"=b 	c #061E3B",
"-b 	c #051D38",
";b 	c #041C37",
">b 	c #0E2A36",
",b 	c #112D37",
"'b 	c #163138",
")b 	c #19333A",
"!b 	c #1C383C",
"~b 	c #263E42",
"{b 	c #274144",
"]b 	c #33689E",
"^b 	c #2C67AD",
"/b 	c #4B7DB9",
"(b 	c #3365A8",
"_b 	c #20549B",
":b 	c #1E5299",
"<b 	c #4068A4",
"[b 	c #5D86B9",
"}b 	c #91ADCF",
"|b 	c #849EC3",
"1b 	c #5571A3",
"2b 	c #1F488C",
"3b 	c #4A6EA5",
"4b 	c #2D5291",
"5b 	c #6183B4",
"6b 	c #6C8CBA",
"7b 	c #6486B5",
"8b 	c #3F67A2",
"9b 	c #38619E",
"0b 	c #587CB0",
"ab 	c #5E81B2",
"bb 	c #7B99C2",
"cb 	c #6788B7",
"db 	c #5777AA",
"eb 	c #143D83",
"fb 	c #4066A0",
"gb 	c #5C7EB0",
"hb 	c #6184B4",
"ib 	c #5B81B3",
"jb 	c #436AA4",
"kb 	c #1D4E94",
"lb 	c #6F8688",
"mb 	c #AFBF7C",
"nb 	c #D0DA7C",
"ob 	c #CAD785",
"pb 	c #99AA97",
"qb 	c #7A8C97",
"rb 	c #B0BF88",
"sb 	c #C1D06B",
"tb 	c #C0CF67",
"ub 	c #ACC166",
"vb 	c #A9C16D",
"wb 	c #BECC81",
"xb 	c #D4DC94",
"yb 	c #C5D397",
"zb 	c #C8D5AF",
"Ab 	c #B6C668",
"Bb 	c #BCCA6E",
"Cb 	c #B7C663",
"Db 	c #B4C470",
"Eb 	c #C2CD7D",
"Fb 	c #B5C36B",
"Gb 	c #B0BF64",
"Hb 	c #ACBC73",
"Ib 	c #AEBF8D",
"Jb 	c #C2CD9D",
"Kb 	c #A7B87E",
"Lb 	c #BDC77A",
"Mb 	c #C2C979",
"Nb 	c #B9C36D",
"Ob 	c #BAC262",
"Pb 	c #B2BB5C",
"Qb 	c #BEC25E",
"Rb 	c #C0C25E",
"Sb 	c #C6C78C",
"Tb 	c #D5D6BE",
"Ub 	c #BAB97B",
"Vb 	c #A4A761",
"Wb 	c #A7A557",
"Xb 	c #B2A35C",
"Yb 	c #B19E63",
"Zb 	c #AF9C61",
"`b 	c #B0A162",
" c 	c #AB9A5B",
".c 	c #AD985D",
"+c 	c #A79059",
"@c 	c #A2865B",
"#c 	c #817563",
"$c 	c #3A4563",
"%c 	c #887D64",
"&c 	c #9E8F69",
"*c 	c #978764",
"=c 	c #857250",
"-c 	c #83764F",
";c 	c #817B4C",
">c 	c #7B7C56",
",c 	c #73776A",
"'c 	c #6E7265",
")c 	c #6F7470",
"!c 	c #6D7074",
"~c 	c #6D7072",
"{c 	c #62605B",
"]c 	c #575046",
"^c 	c #4E4F4D",
"/c 	c #3C454D",
"(c 	c #374049",
"_c 	c #31373D",
":c 	c #2A3234",
"<c 	c #23272A",
"[c 	c #19222F",
"}c 	c #13233D",
"|c 	c #13243E",
"1c 	c #0F223D",
"2c 	c #0D213C",
"3c 	c #0C203C",
"4c 	c #0B1F3C",
"5c 	c #0A1F3C",
"6c 	c #0A1F3E",
"7c 	c #112643",
"8c 	c #051C37",
"9c 	c #0A2632",
"0c 	c #0F2B36",
"ac 	c #153038",
"bc 	c #173239",
"cc 	c #1A363B",
"dc 	c #1C393D",
"ec 	c #1F3B3F",
"fc 	c #344C4F",
"gc 	c #2C526F",
"hc 	c #437CBA",
"ic 	c #245CA5",
"jc 	c #265BA3",
"kc 	c #3765A6",
"lc 	c #21549A",
"mc 	c #416AA6",
"nc 	c #6990C0",
"oc 	c #84A1C7",
"pc 	c #4A6AA1",
"qc 	c #144289",
"rc 	c #0E3C84",
"sc 	c #103D84",
"tc 	c #224A8D",
"uc 	c #4B72A9",
"vc 	c #355D9A",
"wc 	c #456DA6",
"xc 	c #3863A0",
"yc 	c #36619E",
"zc 	c #2A5596",
"Ac 	c #315B9A",
"Bc 	c #476DA6",
"Cc 	c #5679AC",
"Dc 	c #2D5695",
"Ec 	c #1B4286",
"Fc 	c #5073A8",
"Gc 	c #3D65A1",
"Hc 	c #4871A9",
"Ic 	c #648AB9",
"Jc 	c #2E5999",
"Kc 	c #154A91",
"Lc 	c #395C91",
"Mc 	c #677E8A",
"Nc 	c #2E5490",
"Oc 	c #2C5694",
"Pc 	c #2A5899",
"Qc 	c #95A488",
"Rc 	c #E2E57A",
"Sc 	c #C6D369",
"Tc 	c #ADC160",
"Uc 	c #A2BC68",
"Vc 	c #ABC485",
"Wc 	c #B9CE97",
"Xc 	c #BBCE99",
"Yc 	c #B2C67D",
"Zc 	c #B6C87C",
"`c 	c #A9BF6B",
" d 	c #A0B85D",
".d 	c #ADBF61",
"+d 	c #A9BE67",
"@d 	c #C9D37D",
"#d 	c #B7C777",
"$d 	c #ABBE6D",
"%d 	c #C1CD8B",
"&d 	c #D6DBAB",
"*d 	c #CED6A9",
"=d 	c #C9D294",
"-d 	c #C5CD80",
";d 	c #B2BE74",
">d 	c #AEBA80",
",d 	c #C4CA89",
"'d 	c #C8CB69",
")d 	c #C5C660",
"!d 	c #BABF5D",
"~d 	c #B6BA5E",
"{d 	c #C6C689",
"]d 	c #D7D7BF",
"^d 	c #A8AB76",
"/d 	c #AFAD5A",
"(d 	c #AAA556",
"_d 	c #ACA25E",
":d 	c #AE9A5D",
"<d 	c #9F9063",
"[d 	c #384A6E",
"}d 	c #49546C",
"|d 	c #AC9A5F",
"1d 	c #B09965",
"2d 	c #B39A6E",
"3d 	c #9B8B72",
"4d 	c #193862",
"5d 	c #716B6B",
"6d 	c #A89877",
"7d 	c #9D8666",
"8d 	c #8E7154",
"9d 	c #82694D",
"0d 	c #82784D",
"ad 	c #7F7F50",
"bd 	c #72745C",
"cd 	c #747A56",
"dd 	c #6E7472",
"ed 	c #64625D",
"fd 	c #717577",
"gd 	c #6A6B6C",
"hd 	c #5A544A",
"id 	c #515150",
"jd 	c #414953",
"kd 	c #3A424B",
"ld 	c #363E45",
"md 	c #30373B",
"nd 	c #1D2226",
"od 	c #12233D",
"pd 	c #0E213C",
"qd 	c #0B203B",
"rd 	c #081E3B",
"sd 	c #081F3D",
"td 	c #081E3C",
"ud 	c #0C2834",
"vd 	c #0D2935",
"wd 	c #3E5559",
"xd 	c #576B6D",
"yd 	c #1E3C40",
"zd 	c #354E52",
"Ad 	c #3A6FA4",
"Bd 	c #4E84BF",
"Cd 	c #1B529F",
"Dd 	c #2C60A5",
"Ed 	c #1B5099",
"Fd 	c #3764A4",
"Gd 	c #6B92C1",
"Hd 	c #809EC5",
"Id 	c #375B98",
"Jd 	c #124088",
"Kd 	c #0D3C84",
"Ld 	c #123F87",
"Md 	c #244F91",
"Nd 	c #456CA5",
"Od 	c #3F68A3",
"Pd 	c #325E9D",
"Qd 	c #3963A0",
"Rd 	c #5076AC",
"Sd 	c #5C7EB1",
"Td 	c #4F71A7",
"Ud 	c #22498C",
"Vd 	c #244B8D",
"Wd 	c #6A88B6",
"Xd 	c #7F9DC6",
"Yd 	c #7495C0",
"Zd 	c #5676A9",
"`d 	c #194B91",
" e 	c #3C68A4",
".e 	c #235599",
"+e 	c #204D90",
"@e 	c #526E91",
"#e 	c #1F5194",
"$e 	c #ABBB7B",
"%e 	c #AFBE76",
"&e 	c #C9D669",
"*e 	c #C6D267",
"=e 	c #BDCC65",
"-e 	c #A9C063",
";e 	c #A0BC70",
">e 	c #C2D194",
",e 	c #C8D79C",
"'e 	c #BBCF9A",
")e 	c #A7C080",
"!e 	c #9CB760",
"~e 	c #A3BB5C",
"{e 	c #A3B95C",
"]e 	c #9DB459",
"^e 	c #89A966",
"/e 	c #90AD67",
"(e 	c #8EAC66",
"_e 	c #A2B987",
":e 	c #CCD6A9",
"<e 	c #CFD690",
"[e 	c #CAD38E",
"}e 	c #CDD48E",
"|e 	c #C7CE7F",
"1e 	c #C1C96C",
"2e 	c #D1D59F",
"3e 	c #DEE0C3",
"4e 	c #C6C983",
"5e 	c #C8C863",
"6e 	c #BDBF60",
"7e 	c #BEC271",
"8e 	c #C2C588",
"9e 	c #B7B760",
"0e 	c #B2AF56",
"ae 	c #B2A859",
"be 	c #B2A35B",
"ce 	c #9C9D61",
"de 	c #51656F",
"ee 	c #143B70",
"fe 	c #737073",
"ge 	c #A99566",
"he 	c #B1986D",
"ie 	c #BCA87D",
"je 	c #BEB391",
"ke 	c #888479",
"le 	c #8C8266",
"me 	c #AE9D80",
"ne 	c #A48D6E",
"oe 	c #977D5E",
"pe 	c #8B7154",
"qe 	c #83754C",
"re 	c #7C7D4A",
"se 	c #73704B",
"te 	c #7C7F69",
"ue 	c #737779",
"ve 	c #6E706F",
"we 	c #727679",
"xe 	c #6F7175",
"ye 	c #62635F",
"ze 	c #575A5D",
"Ae 	c #444D56",
"Be 	c #404750",
"Ce 	c #384148",
"De 	c #363C41",
"Ee 	c #2E3438",
"Fe 	c #18202D",
"Ge 	c #0C203B",
"He 	c #0A1F3B",
"Ie 	c #061E3A",
"Je 	c #061D3A",
"Ke 	c #051D39",
"Le 	c #041C38",
"Me 	c #0B2733",
"Ne 	c #0E2A35",
"Oe 	c #112C37",
"Pe 	c #153037",
"Qe 	c #253F44",
"Re 	c #385155",
"Se 	c #1B393E",
"Te 	c #1F4768",
"Ue 	c #4B81BC",
"Ve 	c #568BC2",
"We 	c #3266AB",
"Xe 	c #3869AA",
"Ye 	c #587FB4",
"Ze 	c #799EC9",
"`e 	c #567DB2",
" f 	c #1D4A8F",
".f 	c #103F88",
"+f 	c #0F3C85",
"@f 	c #0E3C85",
"#f 	c #19448A",
"$f 	c #285193",
"%f 	c #3C64A0",
"&f 	c #315D9C",
"*f 	c #3F67A3",
"=f 	c #698BB9",
"-f 	c #6C8EBB",
";f 	c #4B72AA",
">f 	c #496CA3",
",f 	c #254A8C",
"'f 	c #4669A1",
")f 	c #6F8EBB",
"!f 	c #7B99C3",
"~f 	c #86A0C6",
"{f 	c #3F5F98",
"]f 	c #1F4487",
"^f 	c #5572A4",
"/f 	c #3C69A4",
"(f 	c #64849E",
"_f 	c #B8CC75",
":f 	c #C5D379",
"<f 	c #CED96C",
"[f 	c #CED96B",
"}f 	c #CED672",
"|f 	c #CFD976",
"1f 	c #CCD87B",
"2f 	c #BACD79",
"3f 	c #ABC27B",
"4f 	c #AEC589",
"5f 	c #B5CA85",
"6f 	c #C8D699",
"7f 	c #BFCF90",
"8f 	c #A8BE72",
"9f 	c #99B45A",
"0f 	c #BDC964",
"af 	c #B3C264",
"bf 	c #8BA85B",
"cf 	c #83A155",
"df 	c #BAC668",
"ef 	c #B7C687",
"ff 	c #C5D3BD",
"gf 	c #B4C493",
"hf 	c #CFD486",
"if 	c #D0D385",
"jf 	c #C2CA73",
"kf 	c #C9CE6E",
"lf 	c #C8CD79",
"mf 	c #CED08E",
"nf 	c #ADB26C",
"of 	c #BFBD61",
"pf 	c #9BA06A",
"qf 	c #7B8772",
"rf 	c #C1C56A",
"sf 	c #CBCC8E",
"tf 	c #B7BA78",
"uf 	c #AFAE60",
"vf 	c #AFA85B",
"wf 	c #B2A55A",
"xf 	c #948F62",
"yf 	c #133C71",
"zf 	c #153B6E",
"Af 	c #988B70",
"Bf 	c #B9A479",
"Cf 	c #B8A078",
"Df 	c #BFAD85",
"Ef 	c #C1BC9F",
"Ff 	c #B9AB8E",
"Gf 	c #A29863",
"Hf 	c #A6926B",
"If 	c #A48B67",
"Jf 	c #9E8566",
"Kf 	c #8E7558",
"Lf 	c #897B4F",
"Mf 	c #837E49",
"Nf 	c #7C7A55",
"Of 	c #7F8280",
"Pf 	c #797F86",
"Qf 	c #60666E",
"Rf 	c #70747A",
"Sf 	c #6B6E71",
"Tf 	c #666A71",
"Uf 	c #545C65",
"Vf 	c #454E58",
"Wf 	c #3F4852",
"Xf 	c #3B434B",
"Yf 	c #353B41",
"Zf 	c #30363A",
"`f 	c #282D30",
" g 	c #1B1F22",
".g 	c #0F2037",
"+g 	c #0C213C",
"@g 	c #031B37",
"#g 	c #0D2934",
"$g 	c #102B36",
"%g 	c #142F36",
"&g 	c #143036",
"*g 	c #385257",
"=g 	c #243F45",
"-g 	c #3A6FA5",
";g 	c #4C84BF",
">g 	c #72A2D0",
",g 	c #4778B4",
"'g 	c #527EB6",
")g 	c #7398C5",
"!g 	c #406AA6",
"~g 	c #194890",
"{g 	c #0F3F88",
"]g 	c #0E3D85",
"^g 	c #0B3A82",
"/g 	c #315796",
"(g 	c #4A71A8",
"_g 	c #5379AE",
":g 	c #5678AC",
"<g 	c #5475A8",
"[g 	c #4468A0",
"}g 	c #244B8C",
"|g 	c #426098",
"1g 	c #6D8CB9",
"2g 	c #728EB8",
"3g 	c #8EA7CB",
"4g 	c #6985B2",
"5g 	c #45639B",
"6g 	c #8195BA",
"7g 	c #48679E",
"8g 	c #96B0D0",
"9g 	c #5A7FB1",
"0g 	c #3F689A",
"ag 	c #CFD97D",
"bg 	c #D2DC70",
"cg 	c #C8D56A",
"dg 	c #B3C76E",
"eg 	c #C0D17F",
"fg 	c #BED084",
"gg 	c #9EBB70",
"hg 	c #A3BD7B",
"ig 	c #B6CB97",
"jg 	c #ADC385",
"kg 	c #91AF75",
"lg 	c #8AA96A",
"mg 	c #7E9F5A",
"ng 	c #6B9455",
"og 	c #A3B75E",
"pg 	c #BFCA66",
"qg 	c #AFC067",
"rg 	c #C2CB69",
"sg 	c #C0CB65",
"tg 	c #AEC071",
"ug 	c #C2D0A4",
"vg 	c #A8BE9E",
"wg 	c #B2C07D",
"xg 	c #C0C876",
"yg 	c #C1C76D",
"zg 	c #BCC372",
"Ag 	c #85937A",
"Bg 	c #B1B676",
"Cg 	c #B0B370",
"Dg 	c #647377",
"Eg 	c #113D7A",
"Fg 	c #5D7072",
"Gg 	c #C2C66C",
"Hg 	c #C6C875",
"Ig 	c #CACB8D",
"Jg 	c #C1C080",
"Kg 	c #B2AC59",
"Lg 	c #B0A958",
"Mg 	c #9D9663",
"Ng 	c #3F526F",
"Og 	c #0D376D",
"Pg 	c #34446D",
"Qg 	c #A99C80",
"Rg 	c #C0B392",
"Sg 	c #BFB08B",
"Tg 	c #C1BB9C",
"Ug 	c #B6AF9C",
"Vg 	c #A99878",
"Wg 	c #A69062",
"Xg 	c #A18B64",
"Yg 	c #9E835F",
"Zg 	c #95815F",
"`g 	c #8C8150",
" h 	c #88834D",
".h 	c #70715F",
"+h 	c #7E8171",
"@h 	c #717574",
"#h 	c #656C73",
"$h 	c #73787F",
"%h 	c #636A73",
"&h 	c #59626B",
"*h 	c #49535D",
"=h 	c #434C54",
"-h 	c #3E454D",
";h 	c #33393F",
">h 	c #2B3034",
",h 	c #1F2426",
"'h 	c #131E2B",
")h 	c #0A1F3A",
"!h 	c #071F3A",
"~h 	c #041E39",
"{h 	c #041D37",
"]h 	c #122E37",
"^h 	c #16343A",
"/h 	c #153439",
"(h 	c #1D4460",
"_h 	c #2E6BAF",
":h 	c #4C80BB",
"<h 	c #6494C6",
"[h 	c #5782B8",
"}h 	c #456CA7",
"|h 	c #235297",
"1h 	c #11438C",
"2h 	c #104089",
"3h 	c #0D3E86",
"4h 	c #103D86",
"5h 	c #103D85",
"6h 	c #3D649E",
"7h 	c #6387B8",
"8h 	c #5173A7",
"9h 	c #1D458A",
"0h 	c #083A83",
"ah 	c #073A83",
"bh 	c #1B4489",
"ch 	c #5D7EB0",
"dh 	c #85A1C7",
"eh 	c #7290BB",
"fh 	c #6885B3",
"gh 	c #6C8BB9",
"hh 	c #5372A6",
"ih 	c #849BBF",
"jh 	c #8DA0C2",
"kh 	c #31518F",
"lh 	c #164087",
"mh 	c #3E629E",
"nh 	c #4C6AA0",
"oh 	c #1B4E96",
"ph 	c #154D97",
"qh 	c #B3BC89",
"rh 	c #DDE479",
"sh 	c #CAD770",
"th 	c #D0DB77",
"uh 	c #C8D67B",
"vh 	c #B7CA72",
"wh 	c #8FB175",
"xh 	c #A5BD8A",
"yh 	c #A2B688",
"zh 	c #B4C3A1",
"Ah 	c #97AF8A",
"Bh 	c #94AD86",
"Ch 	c #689156",
"Dh 	c #749A55",
"Eh 	c #A2BA5B",
"Fh 	c #A0B663",
"Gh 	c #BAC768",
"Hh 	c #CED46C",
"Ih 	c #C6CE66",
"Jh 	c #85A66C",
"Kh 	c #BCCA85",
"Lh 	c #A5BA7A",
"Mh 	c #9BB17A",
"Nh 	c #C3C771",
"Oh 	c #C7CA71",
"Ph 	c #90997B",
"Qh 	c #0D3E7D",
"Rh 	c #3E567C",
"Sh 	c #AEAF6A",
"Th 	c #9BA368",
"Uh 	c #657375",
"Vh 	c #71826D",
"Wh 	c #899A5B",
"Xh 	c #92A46B",
"Yh 	c #AAB471",
"Zh 	c #B7BC68",
"`h 	c #B5B659",
" i 	c #B3B258",
".i 	c #ADAE57",
"+i 	c #8E9360",
"@i 	c #0E356C",
"#i 	c #0E356A",
"$i 	c #736B6D",
"%i 	c #A89474",
"&i 	c #BEB08E",
"*i 	c #BCB397",
"=i 	c #B6A181",
"-i 	c #B1946D",
";i 	c #A58560",
">i 	c #A2835D",
",i 	c #94805C",
"'i 	c #8E7C55",
")i 	c #8F8753",
"!i 	c #7E7851",
"~i 	c #807C56",
"{i 	c #73725B",
"]i 	c #6A6F73",
"^i 	c #6F747A",
"/i 	c #73787D",
"(i 	c #6B7179",
"_i 	c #5D656E",
":i 	c #4E5760",
"<i 	c #444B54",
"[i 	c #40474E",
"}i 	c #384047",
"|i 	c #353C41",
"1i 	c #23282A",
"2i 	c #161D20",
"3i 	c #0B1F39",
"4i 	c #09213C",
"5i 	c #051E3A",
"6i 	c #041D38",
"7i 	c #031C37",
"8i 	c #011B36",
"9i 	c #092531",
"0i 	c #0C2833",
"ai 	c #102D37",
"bi 	c #133038",
"ci 	c #153338",
"di 	c #4F686C",
"ei 	c #1D528B",
"fi 	c #215EA7",
"gi 	c #356AAD",
"hi 	c #2A5DA2",
"ii 	c #134792",
"ji 	c #11438D",
"ki 	c #12418B",
"li 	c #0F3D85",
"mi 	c #174288",
"ni 	c #4769A1",
"oi 	c #6283B2",
"pi 	c #5A7BAD",
"qi 	c #345693",
"ri 	c #264B8C",
"si 	c #184187",
"ti 	c #164289",
"ui 	c #5170A5",
"vi 	c #97ACCC",
"wi 	c #8098BE",
"xi 	c #355C9B",
"yi 	c #6784B3",
"zi 	c #3F5C96",
"Ai 	c #6D89B6",
"Bi 	c #4E6CA1",
"Ci 	c #0F3B84",
"Di 	c #0C3B84",
"Ei 	c #0B3A84",
"Fi 	c #0B3B85",
"Gi 	c #0B3C86",
"Hi 	c #0F418C",
"Ii 	c #184E98",
"Ji 	c #8FA388",
"Ki 	c #C2D16D",
"Li 	c #9BB85F",
"Mi 	c #A5BF6A",
"Ni 	c #A7BF69",
"Oi 	c #ADC168",
"Pi 	c #9AB282",
"Qi 	c #B9C8A4",
"Ri 	c #A0B56B",
"Si 	c #9DB277",
"Ti 	c #A2B76C",
"Ui 	c #ADB977",
"Vi 	c #6B915A",
"Wi 	c #729852",
"Xi 	c #8DAB58",
"Yi 	c #93AD59",
"Zi 	c #BCC966",
"`i 	c #D4D870",
" j 	c #C3CC67",
".j 	c #86A56A",
"+j 	c #AABF98",
"@j 	c #B2C4A1",
"#j 	c #B1C08F",
"$j 	c #CCCD82",
"%j 	c #AAB375",
"&j 	c #4A6679",
"*j 	c #0E3F7D",
"=j 	c #0F3C79",
"-j 	c #4F6376",
";j 	c #3E5C7B",
">j 	c #193E77",
",j 	c #08336F",
"'j 	c #3F5581",
")j 	c #758791",
"!j 	c #5A7B58",
"~j 	c #7A926C",
"{j 	c #8B9C78",
"]j 	c #94A26E",
"^j 	c #7F9465",
"/j 	c #9BA267",
"(j 	c #7E8864",
"_j 	c #2D456A",
":j 	c #0D356A",
"<j 	c #133668",
"[j 	c #756D6C",
"}j 	c #AFA084",
"|j 	c #B8A380",
"1j 	c #B39977",
"2j 	c #B1926B",
"3j 	c #A78762",
"4j 	c #A2835E",
"5j 	c #9A7D5B",
"6j 	c #8C7555",
"7j 	c #8B7B57",
"8j 	c #847855",
"9j 	c #827B58",
"0j 	c #7C7853",
"aj 	c #5E6265",
"bj 	c #717679",
"cj 	c #6B7272",
"dj 	c #696F75",
"ej 	c #636971",
"fj 	c #49525B",
"gj 	c #414952",
"hj 	c #404951",
"ij 	c #3A434B",
"jj 	c #373E43",
"kj 	c #31373B",
"lj 	c #282C2E",
"mj 	c #1A1F1F",
"nj 	c #0F1D2F",
"oj 	c #102742",
"pj 	c #021C37",
"qj 	c #0B2732",
"rj 	c #122F37",
"sj 	c #143139",
"tj 	c #1C3A4A",
"uj 	c #1A589F",
"vj 	c #2861A9",
"wj 	c #275CA3",
"xj 	c #154C97",
"yj 	c #134A94",
"zj 	c #134690",
"Aj 	c #12428C",
"Bj 	c #11408A",
"Cj 	c #114189",
"Dj 	c #0F3E86",
"Ej 	c #1E488D",
"Fj 	c #375E9A",
"Gj 	c #375C98",
"Hj 	c #18468D",
"Ij 	c #466AA3",
"Jj 	c #8AA3C6",
"Kj 	c #7793BC",
"Lj 	c #40619B",
"Mj 	c #3F629D",
"Nj 	c #88A3C8",
"Oj 	c #7890B8",
"Pj 	c #99AFCF",
"Qj 	c #617AAB",
"Rj 	c #607FB1",
"Sj 	c #40609A",
"Tj 	c #0B3A85",
"Uj 	c #17468E",
"Vj 	c #315A95",
"Wj 	c #3B5D99",
"Xj 	c #3D609D",
"Yj 	c #5171A8",
"Zj 	c #134590",
"`j 	c #184E99",
" k 	c #8BAB75",
".k 	c #C2D169",
"+k 	c #A5BF60",
"@k 	c #9EBB63",
"#k 	c #8BAE63",
"$k 	c #90AD5C",
"%k 	c #ACBC90",
"&k 	c #C3CF6D",
"*k 	c #B5C468",
"=k 	c #D2D973",
"-k 	c #DBDF75",
";k 	c #416190",
">k 	c #517584",
",k 	c #5F8961",
"'k 	c #6E954B",
")k 	c #789D50",
"!k 	c #85A454",
"~k 	c #ADBF66",
"{k 	c #B0C063",
"]k 	c #87A35D",
"^k 	c #B9C571",
"/k 	c #D0D57D",
"(k 	c #CFD387",
"_k 	c #C6CB7E",
":k 	c #B3B476",
"<k 	c #0D3E7E",
"[k 	c #0F3D7B",
"}k 	c #0B3573",
"|k 	c #0C3673",
"1k 	c #073370",
"2k 	c #07326F",
"3k 	c #09336F",
"4k 	c #29477B",
"5k 	c #0D356F",
"6k 	c #163D75",
"7k 	c #5D7676",
"8k 	c #92A478",
"9k 	c #83975C",
"0k 	c #8D9B4E",
"ak 	c #9BA55B",
"bk 	c #99A166",
"ck 	c #8E9559",
"dk 	c #525B67",
"ek 	c #0D3568",
"fk 	c #535269",
"gk 	c #A38B72",
"hk 	c #AC916C",
"ik 	c #AE956E",
"jk 	c #A88965",
"kk 	c #A98C68",
"lk 	c #A28560",
"mk 	c #9D8759",
"nk 	c #947E53",
"ok 	c #948056",
"pk 	c #968963",
"qk 	c #897D57",
"rk 	c #777053",
"sk 	c #5C5F5D",
"tk 	c #666B56",
"uk 	c #6A7265",
"vk 	c #6C7473",
"wk 	c #686F75",
"xk 	c #535C65",
"yk 	c #454E56",
"zk 	c #414B54",
"Ak 	c #3E474F",
"Bk 	c #373E44",
"Ck 	c #34393E",
"Dk 	c #2A3031",
"Ek 	c #1E2222",
"Fk 	c #161E25",
"Gk 	c #061E39",
"Hk 	c #051E39",
"Ik 	c #041D39",
"Jk 	c #112E36",
"Kk 	c #16436E",
"Lk 	c #1A58A3",
"Mk 	c #19549F",
"Nk 	c #164F99",
"Ok 	c #134B95",
"Pk 	c #124691",
"Qk 	c #10448E",
"Rk 	c #14448C",
"Sk 	c #114088",
"Tk 	c #275092",
"Uk 	c #355D9B",
"Vk 	c #295395",
"Wk 	c #6D8DB9",
"Xk 	c #7492BD",
"Yk 	c #7190BC",
"Zk 	c #3C639F",
"`k 	c #234D90",
" l 	c #5879AC",
".l 	c #7E9AC3",
"+l 	c #7995BE",
"@l 	c #2D5495",
"#l 	c #7690BA",
"$l 	c #7D96BF",
"%l 	c #3F619D",
"&l 	c #42609B",
"*l 	c #18438B",
"=l 	c #3D629F",
"-l 	c #3C678D",
";l 	c #7DA75E",
">l 	c #7AA564",
",l 	c #96B58F",
"'l 	c #71968B",
")l 	c #527D86",
"!l 	c #5D8288",
"~l 	c #B8CB6A",
"{l 	c #DEE275",
"]l 	c #CAD46C",
"^l 	c #9DB65E",
"/l 	c #AFC06E",
"(l 	c #AAC067",
"_l 	c #95B076",
":l 	c #5F837F",
"<l 	c #2B5C8D",
"[l 	c #819E6D",
"}l 	c #A7BD6E",
"|l 	c #909E86",
"1l 	c #1B4B90",
"2l 	c #637D89",
"3l 	c #A3B562",
"4l 	c #82A056",
"5l 	c #679152",
"6l 	c #7DA05B",
"7l 	c #8EA95A",
"8l 	c #97AF60",
"9l 	c #C2C975",
"0l 	c #CAD077",
"al 	c #C4CD7A",
"bl 	c #BAC57E",
"cl 	c #8C997B",
"dl 	c #0B3877",
"el 	c #0E3976",
"fl 	c #0A3572",
"gl 	c #0C3572",
"hl 	c #083371",
"il 	c #0A3571",
"jl 	c #143C76",
"kl 	c #304E80",
"ll 	c #374F7D",
"ml 	c #143971",
"nl 	c #38567C",
"ol 	c #879C6F",
"pl 	c #ADB377",
"ql 	c #98A461",
"rl 	c #9CA461",
"sl 	c #A7A85B",
"tl 	c #B5B458",
"ul 	c #898662",
"vl 	c #0B3468",
"wl 	c #0A3467",
"xl 	c #4C536C",
"yl 	c #AFA187",
"zl 	c #AD996F",
"Al 	c #9D8B56",
"Bl 	c #9B8658",
"Cl 	c #A18E58",
"Dl 	c #998B56",
"El 	c #998455",
"Fl 	c #948851",
"Gl 	c #908157",
"Hl 	c #79705B",
"Il 	c #68625B",
"Jl 	c #615B4A",
"Kl 	c #656047",
"Ll 	c #6B6B4B",
"Ml 	c #636951",
"Nl 	c #666D66",
"Ol 	c #5C6467",
"Pl 	c #4B535A",
"Ql 	c #464F56",
"Rl 	c #444B50",
"Sl 	c #3B4248",
"Tl 	c #373D42",
"Ul 	c #2D3335",
"Vl 	c #232728",
"Wl 	c #1B1F21",
"Xl 	c #0B1D35",
"Yl 	c #031D38",
"Zl 	c #082430",
"`l 	c #122F39",
" m 	c #17508F",
".m 	c #1957A2",
"+m 	c #17509C",
"@m 	c #134994",
"#m 	c #10458F",
"$m 	c #14458D",
"%m 	c #1A498F",
"&m 	c #17468C",
"*m 	c #325796",
"=m 	c #18468C",
"-m 	c #315A99",
";m 	c #1B498E",
">m 	c #6786B0",
",m 	c #87A4C8",
"'m 	c #4B689E",
")m 	c #5C79AA",
"!m 	c #7D97BF",
"~m 	c #92AACC",
"{m 	c #5977AB",
"]m 	c #5476AC",
"^m 	c #728FBC",
"/m 	c #6480B0",
"(m 	c #315292",
"_m 	c #23468B",
":m 	c #6083B5",
"<m 	c #234D92",
"[m 	c #4F7687",
"}m 	c #90B25D",
"|m 	c #A0B962",
"1m 	c #D3D171",
"2m 	c #CCCF6F",
"3m 	c #B1C166",
"4m 	c #B1C268",
"5m 	c #97B36F",
"6m 	c #98B373",
"7m 	c #A1B76A",
"8m 	c #768B99",
"9m 	c #2C5DA1",
"0m 	c #607F8D",
"am 	c #3A6292",
"bm 	c #164992",
"cm 	c #225494",
"dm 	c #698984",
"em 	c #ADC064",
"fm 	c #B2C468",
"gm 	c #7E8D88",
"hm 	c #14498F",
"im 	c #325C8C",
"jm 	c #829878",
"km 	c #97B061",
"lm 	c #85A45F",
"mm 	c #93AC5D",
"nm 	c #8BA85D",
"om 	c #A1B56F",
"pm 	c #A1B465",
"qm 	c #A8B867",
"rm 	c #BBC56E",
"sm 	c #547173",
"tm 	c #0E3C7A",
"um 	c #0C3775",
"vm 	c #183F7B",
"wm 	c #51727C",
"xm 	c #748C5B",
"ym 	c #7E945A",
"zm 	c #96A281",
"Am 	c #BFC7CB",
"Bm 	c #A7B5BC",
"Cm 	c #919E94",
"Dm 	c #939E7A",
"Em 	c #A4A36A",
"Fm 	c #ACAC75",
"Gm 	c #B0A969",
"Hm 	c #AAA676",
"Im 	c #999F5F",
"Jm 	c #B6B159",
"Km 	c #8C925D",
"Lm 	c #0A3367",
"Mm 	c #083367",
"Nm 	c #7E7975",
"Om 	c #B6AC7C",
"Pm 	c #9E8E5B",
"Qm 	c #9F865E",
"Rm 	c #96815B",
"Sm 	c #998458",
"Tm 	c #9C8956",
"Um 	c #988D54",
"Vm 	c #8C7F5C",
"Wm 	c #776D60",
"Xm 	c #68635B",
"Ym 	c #676156",
"Zm 	c #686350",
"`m 	c #6C6F58",
" n 	c #6B6F59",
".n 	c #646A65",
"+n 	c #4A5451",
"@n 	c #475052",
"#n 	c #3D4545",
"$n 	c #363E3C",
"%n 	c #333737",
"&n 	c #272B2C",
"*n 	c #1C2020",
"=n 	c #121D2C",
"-n 	c #0A2531",
";n 	c #1E3540",
">n 	c #1C333E",
",n 	c #102C36",
"'n 	c #13354E",
")n 	c #1A58A1",
"!n 	c #164E9A",
"~n 	c #124792",
"{n 	c #13468F",
"]n 	c #1E4C92",
"^n 	c #18478E",
"/n 	c #4469A3",
"(n 	c #39609D",
"_n 	c #315897",
":n 	c #4567A0",
"<n 	c #6E8DBA",
"[n 	c #5577AB",
"}n 	c #365D9B",
"|n 	c #6385B4",
"1n 	c #5D80B3",
"2n 	c #6784B2",
"3n 	c #A2B7D5",
"4n 	c #86A1C8",
"5n 	c #7994BE",
"6n 	c #859DC3",
"7n 	c #7A94BE",
"8n 	c #123D87",
"9n 	c #6482B3",
"0n 	c #4769A3",
"an 	c #0E408C",
"bn 	c #799682",
"cn 	c #BACA67",
"dn 	c #CED473",
"en 	c #DFDA76",
"fn 	c #D6D472",
"gn 	c #C1C46B",
"hn 	c #DDD877",
"in 	c #DADB75",
"jn 	c #BDCA6F",
"kn 	c #8AAA66",
"ln 	c #53749E",
"mn 	c #1D529D",
"nn 	c #1C509B",
"on 	c #1A4D99",
"pn 	c #2E5D93",
"qn 	c #5B807A",
"rn 	c #1E5399",
"sn 	c #90A483",
"tn 	c #ABBF68",
"un 	c #A5B670",
"vn 	c #6F8289",
"wn 	c #2A5589",
"xn 	c #114386",
"yn 	c #3D6081",
"zn 	c #8EA669",
"An 	c #9BB063",
"Bn 	c #B2BB63",
"Cn 	c #93AA62",
"Dn 	c #779654",
"En 	c #A2B45E",
"Fn 	c #C7CB6C",
"Gn 	c #B2B96B",
"Hn 	c #687C79",
"In 	c #647A6E",
"Jn 	c #63806D",
"Kn 	c #7E9753",
"Ln 	c #A3A85D",
"Mn 	c #B2B160",
"Nn 	c #BEBC75",
"On 	c #BDC191",
"Pn 	c #AEB072",
"Qn 	c #AAA868",
"Rn 	c #AFAB6E",
"Sn 	c #AEAB72",
"Tn 	c #B2AF72",
"Un 	c #A8A47B",
"Vn 	c #A69265",
"Wn 	c #A39662",
"Xn 	c #A69E61",
"Yn 	c #908E5E",
"Zn 	c #163968",
"`n 	c #093367",
" o 	c #2C4265",
".o 	c #8F8F59",
"+o 	c #967D59",
"@o 	c #9A7A59",
"#o 	c #9A7C5A",
"$o 	c #8D7355",
"%o 	c #957A56",
"&o 	c #988359",
"*o 	c #83735A",
"=o 	c #776B5D",
"-o 	c #665C50",
";o 	c #6E675B",
">o 	c #6B6557",
",o 	c #7A7A6D",
"'o 	c #72745D",
")o 	c #666942",
"!o 	c #666A50",
"~o 	c #595F45",
"{o 	c #4E5546",
"]o 	c #4E5556",
"^o 	c #464C4D",
"/o 	c #3F4340",
"(o 	c #363933",
"_o 	c #2D3030",
":o 	c #1C211D",
"<o 	c #181D23",
"[o 	c #051C38",
"}o 	c #041C39",
"|o 	c #031B38",
"1o 	c #021B37",
"2o 	c #011B37",
"3o 	c #082330",
"4o 	c #0E2733",
"5o 	c #0E2834",
"6o 	c #0F2B37",
"7o 	c #13416F",
"8o 	c #1957A3",
"9o 	c #19529D",
"0o 	c #174E99",
"ao 	c #144B95",
"bo 	c #144791",
"co 	c #1D4D92",
"do 	c #245094",
"eo 	c #3C629F",
"fo 	c #285495",
"go 	c #2B5697",
"ho 	c #5075AB",
"io 	c #5C7DAE",
"jo 	c #38609D",
"ko 	c #2B5293",
"lo 	c #426197",
"mo 	c #6382B1",
"no 	c #5878AB",
"oo 	c #5577AD",
"po 	c #5675A9",
"qo 	c #7F97BF",
"ro 	c #7E98C0",
"so 	c #7690BB",
"to 	c #778FB8",
"uo 	c #2D5293",
"vo 	c #6789BA",
"wo 	c #204B91",
"xo 	c #255295",
"yo 	c #9BB86A",
"zo 	c #C3D06B",
"Ao 	c #C7D272",
"Bo 	c #C9CD70",
"Co 	c #C0C66D",
"Do 	c #D6CF75",
"Eo 	c #CDCE7A",
"Fo 	c #869B99",
"Go 	c #466CA5",
"Ho 	c #2358A4",
"Io 	c #2255A1",
"Jo 	c #2357A1",
"Ko 	c #1F519D",
"Lo 	c #305E9E",
"Mo 	c #587D91",
"No 	c #1A4E95",
"Oo 	c #7F9486",
"Po 	c #A4B66E",
"Qo 	c #C8D069",
"Ro 	c #ABB27D",
"So 	c #566A86",
"To 	c #124487",
"Uo 	c #A3B072",
"Vo 	c #90A662",
"Wo 	c #ACB862",
"Xo 	c #BAC369",
"Yo 	c #8B9A70",
"Zo 	c #77857B",
"`o 	c #97A373",
" p 	c #809076",
".p 	c #708472",
"+p 	c #91A35E",
"@p 	c #A3AC5B",
"#p 	c #B9B666",
"$p 	c #C2B76A",
"%p 	c #C2B766",
"&p 	c #BFB767",
"*p 	c #B8B167",
"=p 	c #B8AF6A",
"-p 	c #A9A366",
";p 	c #ACA963",
">p 	c #B1AC64",
",p 	c #A6A56F",
"'p 	c #A9A89A",
")p 	c #A29770",
"!p 	c #90846C",
"~p 	c #A69566",
"{p 	c #A49362",
"]p 	c #7E8254",
"^p 	c #6A7659",
"/p 	c #465A5D",
"(p 	c #758250",
"_p 	c #897E57",
":p 	c #9E7E5E",
"<p 	c #A58769",
"[p 	c #A28462",
"}p 	c #997E5F",
"|p 	c #9B8263",
"1p 	c #816D57",
"2p 	c #756655",
"3p 	c #776750",
"4p 	c #736858",
"5p 	c #6F6558",
"6p 	c #6B6354",
"7p 	c #71725C",
"8p 	c #676A40",
"9p 	c #626542",
"0p 	c #5C6142",
"ap 	c #565A46",
"bp 	c #51564C",
"cp 	c #4C5153",
"dp 	c #434747",
"ep 	c #393D3C",
"fp 	c #303332",
"gp 	c #1D221E",
"hp 	c #1A1D1B",
"ip 	c #081C35",
"jp 	c #041D3B",
"kp 	c #011A38",
"lp 	c #021B39",
"mp 	c #011937",
"np 	c #0A2330",
"op 	c #0B2532",
"pp 	c #0C2733",
"qp 	c #164D8A",
"rp 	c #1A55A0",
"sp 	c #19509B",
"tp 	c #154D98",
"up 	c #154A94",
"vp 	c #174A92",
"wp 	c #2E5B9B",
"xp 	c #15458C",
"yp 	c #295698",
"zp 	c #255093",
"Ap 	c #335795",
"Bp 	c #365D99",
"Cp 	c #305796",
"Dp 	c #1D478C",
"Ep 	c #214C8F",
"Fp 	c #1F498D",
"Gp 	c #2A4F90",
"Hp 	c #234A8C",
"Ip 	c #395E9B",
"Jp 	c #3A5D99",
"Kp 	c #6E88B4",
"Lp 	c #819BC4",
"Mp 	c #92A9CC",
"Np 	c #5771A4",
"Op 	c #4B6DA5",
"Pp 	c #3F66A4",
"Qp 	c #205098",
"Rp 	c #9BAC89",
"Sp 	c #BECF6C",
"Tp 	c #D2DB77",
"Up 	c #CED975",
"Vp 	c #D3D476",
"Wp 	c #E3D679",
"Xp 	c #C9CA6F",
"Yp 	c #BFC46D",
"Zp 	c #7D92A4",
"`p 	c #2C65B0",
" q 	c #386AAC",
".q 	c #406FAC",
"+q 	c #285BA7",
"@q 	c #2557A3",
"#q 	c #A2B38D",
"$q 	c #92A880",
"%q 	c #1A4F99",
"&q 	c #174892",
"*q 	c #16468E",
"=q 	c #2E5790",
"-q 	c #7B9773",
";q 	c #B4C16A",
">q 	c #8B987F",
",q 	c #6F7F82",
"'q 	c #899778",
")q 	c #A4B566",
"!q 	c #B6BF6A",
"~q 	c #768579",
"{q 	c #36587D",
"]q 	c #294C80",
"^q 	c #758975",
"/q 	c #9DAF5A",
"(q 	c #A6B55B",
"_q 	c #ADB35F",
":q 	c #C1BB68",
"<q 	c #CBC173",
"[q 	c #C5B66F",
"}q 	c #B9B172",
"|q 	c #C5B56A",
"1q 	c #BBB16D",
"2q 	c #B9AC6B",
"3q 	c #ADA464",
"4q 	c #B0AB5C",
"5q 	c #BBB960",
"6q 	c #AEA963",
"7q 	c #B3AE7C",
"8q 	c #AAA776",
"9q 	c #938F6A",
"0q 	c #AF9E6A",
"aq 	c #A49167",
"bq 	c #A29064",
"cq 	c #A4915C",
"dq 	c #95835E",
"eq 	c #958261",
"fq 	c #A48665",
"gq 	c #A88666",
"hq 	c #AF9578",
"iq 	c #A98C6F",
"jq 	c #997B5F",
"kq 	c #94775C",
"lq 	c #997E63",
"mq 	c #8C7459",
"nq 	c #806C57",
"oq 	c #897B60",
"pq 	c #82755C",
"qq 	c #6B6052",
"rq 	c #695C4B",
"sq 	c #6E6E56",
"tq 	c #696944",
"uq 	c #645F48",
"vq 	c #5E604A",
"wq 	c #595D4A",
"xq 	c #535649",
"yq 	c #4E514F",
"zq 	c #434740",
"Aq 	c #3A3E3B",
"Bq 	c #323636",
"Cq 	c #1C211E",
"Dq 	c #191D18",
"Eq 	c #0B192B",
"Fq 	c #031C3A",
"Gq 	c #092330",
"Hq 	c #0B2633",
"Iq 	c #0E2D3F",
"Jq 	c #17559C",
"Kq 	c #1A549F",
"Lq 	c #184F9A",
"Mq 	c #164D97",
"Nq 	c #194C94",
"Oq 	c #1F5095",
"Pq 	c #19498F",
"Qq 	c #17468D",
"Rq 	c #18458B",
"Sq 	c #345895",
"Tq 	c #3E65A1",
"Uq 	c #3E649F",
"Vq 	c #264D8F",
"Wq 	c #144086",
"Xq 	c #144087",
"Yq 	c #1C468B",
"Zq 	c #607EAE",
"`q 	c #5975A8",
" r 	c #6C81AC",
".r 	c #6D85B1",
"+r 	c #7187B0",
"@r 	c #6079A8",
"#r 	c #335696",
"$r 	c #3F64A2",
"%r 	c #345B9C",
"&r 	c #6286B9",
"*r 	c #92A68A",
"=r 	c #CFDA75",
"-r 	c #DADB74",
";r 	c #DEE280",
">r 	c #D2D675",
",r 	c #DFD37B",
"'r 	c #E1D57C",
")r 	c #C0C483",
"!r 	c #3971B9",
"~r 	c #4979B6",
"{r 	c #869FA9",
"]r 	c #396FB6",
"^r 	c #3064AF",
"/r 	c #275BA7",
"(r 	c #9DAF90",
"_r 	c #829A8B",
":r 	c #1C4F9A",
"<r 	c #174A93",
"[r 	c #15458E",
"}r 	c #15448C",
"|r 	c #15478E",
"1r 	c #75926D",
"2r 	c #536B85",
"3r 	c #164586",
"4r 	c #234D83",
"5r 	c #829971",
"6r 	c #A2B361",
"7r 	c #97A670",
"8r 	c #2D507F",
"9r 	c #18427F",
"0r 	c #4D677B",
"ar 	c #A4AD69",
"br 	c #BABB63",
"cr 	c #C1BC66",
"dr 	c #BCB668",
"er 	c #B9B26C",
"fr 	c #CABA6E",
"gr 	c #CDBE75",
"hr 	c #BCB06C",
"ir 	c #AAAD64",
"jr 	c #AFAB62",
"kr 	c #B8AF61",
"lr 	c #BCB460",
"mr 	c #BFB85E",
"nr 	c #BEB85F",
"or 	c #BFB766",
"pr 	c #BDB66D",
"qr 	c #AFA561",
"rr 	c #A79E60",
"sr 	c #A79869",
"tr 	c #AA946A",
"ur 	c #A08D64",
"vr 	c #987A55",
"wr 	c #B59A75",
"xr 	c #AE8B66",
"yr 	c #AD8B6A",
"zr 	c #A98C6E",
"Ar 	c #A58A6E",
"Br 	c #A08169",
"Cr 	c #997E66",
"Dr 	c #89705A",
"Er 	c #937C63",
"Fr 	c #9A8A70",
"Gr 	c #948163",
"Hr 	c #8C755B",
"Ir 	c #746A59",
"Jr 	c #6F624C",
"Kr 	c #6B664D",
"Lr 	c #6C684C",
"Mr 	c #67614E",
"Nr 	c #606150",
"Or 	c #585B48",
"Pr 	c #54574D",
"Qr 	c #4F5351",
"Rr 	c #444844",
"Sr 	c #393D38",
"Tr 	c #333633",
"Ur 	c #151C20",
"Vr 	c #161B1A",
"Wr 	c #0F1920",
"Xr 	c #011938",
"Yr 	c #021A38",
"Zr 	c #08222F",
"`r 	c #0A2431",
" s 	c #10375C",
".s 	c #1957A1",
"+s 	c #164E99",
"@s 	c #1A4F98",
"#s 	c #26569A",
"$s 	c #235397",
"%s 	c #1B4B91",
"&s 	c #2B5496",
"*s 	c #375D9A",
"=s 	c #5373A7",
"-s 	c #134087",
";s 	c #19458B",
">s 	c #44659E",
",s 	c #194288",
"'s 	c #154187",
")s 	c #0C3981",
"!s 	c #113C83",
"~s 	c #093780",
"{s 	c #405E98",
"]s 	c #365996",
"^s 	c #738BB5",
"/s 	c #5570A3",
"(s 	c #315493",
"_s 	c #5F7BAC",
":s 	c #6888B8",
"<s 	c #7794C0",
"[s 	c #456BA8",
"}s 	c #6287BB",
"|s 	c #9EB48B",
"1s 	c #D4D972",
"2s 	c #C7D270",
"3s 	c #D6DC7F",
"4s 	c #D4D777",
"5s 	c #CCCF73",
"6s 	c #DDD27B",
"7s 	c #9FA9A4",
"8s 	c #3E76BC",
"9s 	c #3C75BB",
"0s 	c #3A6EB8",
"as 	c #3D71B7",
"bs 	c #3568B3",
"cs 	c #2E62AE",
"ds 	c #2A5FAA",
"es 	c #4371A8",
"fs 	c #265DA7",
"gs 	c #2257A1",
"hs 	c #1E529C",
"is 	c #1A4D96",
"js 	c #184990",
"ks 	c #1F4D8F",
"ls 	c #69887A",
"ms 	c #315288",
"ns 	c #0D3D81",
"os 	c #0C3B7F",
"ps 	c #486580",
"qs 	c #8CA36E",
"rs 	c #91A06F",
"ss 	c #939F77",
"ts 	c #2F4F7E",
"us 	c #34527C",
"vs 	c #829371",
"ws 	c #B9BF60",
"xs 	c #BBB964",
"ys 	c #B1AF67",
"zs 	c #A2A865",
"As 	c #BCB369",
"Bs 	c #C9BA74",
"Cs 	c #ADA86E",
"Ds 	c #B5B977",
"Es 	c #B6B572",
"Fs 	c #C0B864",
"Gs 	c #C7BA6A",
"Hs 	c #CBB975",
"Is 	c #CBB876",
"Js 	c #CAB478",
"Ks 	c #C7B678",
"Ls 	c #C1B269",
"Ms 	c #B3A661",
"Ns 	c #A3965E",
"Os 	c #A29663",
"Ps 	c #9D8B61",
"Qs 	c #977F5F",
"Rs 	c #987B5D",
"Ss 	c #957457",
"Ts 	c #9B775C",
"Us 	c #A08267",
"Vs 	c #A18369",
"Ws 	c #9F8268",
"Xs 	c #967863",
"Ys 	c #8C735D",
"Zs 	c #8A7B6B",
"`s 	c #9B8C72",
" t 	c #8D765B",
".t 	c #876E53",
"+t 	c #817868",
"@t 	c #7A725D",
"#t 	c #736D51",
"$t 	c #6D664A",
"%t 	c #676A65",
"&t 	c #5F625C",
"*t 	c #55584F",
"=t 	c #4D5149",
"-t 	c #454945",
";t 	c #3B3F3B",
">t 	c #2F342A",
",t 	c #0D161F",
"'t 	c #0B131C",
")t 	c #161A1A",
"!t 	c #031C39",
"~t 	c #021B38",
"{t 	c #07212E",
"]t 	c #124274",
"^t 	c #1A56A1",
"/t 	c #1A529D",
"(t 	c #1D529A",
"_t 	c #285A9D",
":t 	c #1F5096",
"<t 	c #184A91",
"[t 	c #1C4A90",
"}t 	c #214C90",
"|t 	c #285092",
"1t 	c #124087",
"2t 	c #0F3D84",
"3t 	c #0D3C83",
"4t 	c #153F85",
"5t 	c #133F86",
"6t 	c #0F3C84",
"7t 	c #0E3A81",
"8t 	c #214589",
"9t 	c #143F86",
"0t 	c #174087",
"at 	c #526FA3",
"bt 	c #2E5191",
"ct 	c #2C5090",
"dt 	c #8199C0",
"et 	c #2F5293",
"ft 	c #4968A1",
"gt 	c #5A7DB2",
"ht 	c #5E82B7",
"it 	c #3D6AAA",
"jt 	c #456FAA",
"kt 	c #4B73A7",
"lt 	c #DBDE8E",
"mt 	c #DEDE89",
"nt 	c #D0D07C",
"ot 	c #D4CB80",
"pt 	c #95A3AD",
"qt 	c #4F82C1",
"rt 	c #3E73BB",
"st 	c #3B71BB",
"tt 	c #628DC7",
"ut 	c #4778BD",
"vt 	c #396DB7",
"wt 	c #3568B2",
"xt 	c #2F62AE",
"yt 	c #2D64AE",
"zt 	c #2B65AE",
"At 	c #2860A9",
"Bt 	c #275DA4",
"Ct 	c #B6BF85",
"Dt 	c #BAC27A",
"Et 	c #8D9F7B",
"Ft 	c #3F5F86",
"Gt 	c #134386",
"Ht 	c #0E3D81",
"It 	c #09387B",
"Jt 	c #1E447E",
"Kt 	c #829672",
"Lt 	c #9CAB69",
"Mt 	c #375680",
"Nt 	c #2C5080",
"Ot 	c #31527E",
"Pt 	c #32537E",
"Qt 	c #82956F",
"Rt 	c #98A366",
"St 	c #B0AC65",
"Tt 	c #6E7A6E",
"Ut 	c #8E936A",
"Vt 	c #A5A366",
"Wt 	c #546173",
"Xt 	c #33517F",
"Yt 	c #BAB86B",
"Zt 	c #C8BB6C",
"`t 	c #CBBC88",
" u 	c #CEBA82",
".u 	c #CDB97E",
"+u 	c #CDBB86",
"@u 	c #C8BA82",
"#u 	c #C5B476",
"$u 	c #C0B16F",
"%u 	c #B0A260",
"&u 	c #A89B5E",
"*u 	c #A09461",
"=u 	c #958764",
"-u 	c #937D64",
";u 	c #9C8566",
">u 	c #957962",
",u 	c #9F846B",
"'u 	c #987B62",
")u 	c #9B7D66",
"!u 	c #8F705B",
"~u 	c #8C7663",
"{u 	c #9A8B78",
"]u 	c #8F785F",
"^u 	c #7D6C5C",
"/u 	c #817569",
"(u 	c #706853",
"_u 	c #707042",
":u 	c #716850",
"<u 	c #6B6754",
"[u 	c #686A62",
"}u 	c #636663",
"|u 	c #585C54",
"1u 	c #4D5046",
"2u 	c #42463A",
"3u 	c #383D32",
"4u 	c #2E3328",
"5u 	c #131A1F",
"6u 	c #060E1A",
"7u 	c #15191B",
"8u 	c #0E2139",
"9u 	c #021A39",
"0u 	c #021C38",
"au 	c #09202E",
"bu 	c #0B2230",
"cu 	c #092431",
"du 	c #0D2834",
"eu 	c #144B87",
"fu 	c #1A559F",
"gu 	c #23559A",
"hu 	c #1A4C93",
"iu 	c #225094",
"ju 	c #265093",
"ku 	c #264F91",
"lu 	c #1C468A",
"mu 	c #375A95",
"nu 	c #18448A",
"ou 	c #1C4488",
"pu 	c #0A3780",
"qu 	c #174086",
"ru 	c #103B84",
"su 	c #2B4D8D",
"tu 	c #05357F",
"uu 	c #123D84",
"vu 	c #6783B1",
"wu 	c #1E488E",
"xu 	c #6686B5",
"yu 	c #7592BD",
"zu 	c #355E9F",
"Au 	c #5174AC",
"Bu 	c #6285B9",
"Cu 	c #4170B0",
"Du 	c #3D71B3",
"Eu 	c #9FB5A8",
"Fu 	c #6C93C1",
"Gu 	c #749CCC",
"Hu 	c #628EC5",
"Iu 	c #94AFD5",
"Ju 	c #A7BDDC",
"Ku 	c #95AAB9",
"Lu 	c #90A5AE",
"Mu 	c #AEBEAA",
"Nu 	c #A1B397",
"Ou 	c #829CA3",
"Pu 	c #97AB91",
"Qu 	c #93A994",
"Ru 	c #9AAE90",
"Su 	c #C8CE85",
"Tu 	c #748CA2",
"Uu 	c #295FA5",
"Vu 	c #2A5BA0",
"Wu 	c #8C988F",
"Xu 	c #8E9B88",
"Yu 	c #113F83",
"Zu 	c #0B3C7F",
"`u 	c #09387C",
" v 	c #0C367B",
".v 	c #334F79",
"+v 	c #627778",
"@v 	c #20477E",
"#v 	c #18437E",
"$v 	c #16417D",
"%v 	c #113F7A",
"&v 	c #465E78",
"*v 	c #213D6F",
"=v 	c #41566F",
"-v 	c #093370",
";v 	c #586372",
">v 	c #667374",
",v 	c #1A4179",
"'v 	c #A4A86B",
")v 	c #CDBC79",
"!v 	c #D0C293",
"~v 	c #D2BE8F",
"{v 	c #CEB881",
"]v 	c #C6B77A",
"^v 	c #BCB281",
"/v 	c #B3AB77",
"(v 	c #BBAE6B",
"_v 	c #C1B077",
":v 	c #B09D61",
"<v 	c #A7945A",
"[v 	c #9D8E5A",
"}v 	c #8D7F62",
"|v 	c #947E63",
"1v 	c #A2886E",
"2v 	c #998169",
"3v 	c #9C826A",
"4v 	c #957B61",
"5v 	c #8C725C",
"6v 	c #977660",
"7v 	c #8D7360",
"8v 	c #887665",
"9v 	c #887463",
"0v 	c #836E59",
"av 	c #837360",
"bv 	c #6C5D4C",
"cv 	c #74704A",
"dv 	c #736A54",
"ev 	c #6C6A58",
"fv 	c #6A6B62",
"gv 	c #61645A",
"hv 	c #54584B",
"iv 	c #4F534A",
"jv 	c #414536",
"kv 	c #393E2D",
"lv 	c #2F3428",
"mv 	c #191F1F",
"nv 	c #050F1A",
"ov 	c #0C1219",
"pv 	c #05172C",
"qv 	c #011C39",
"rv 	c #001B38",
"sv 	c #0A212F",
"tv 	c #0F2B38",
"uv 	c #245D9C",
"vv 	c #1B549E",
"wv 	c #1E549D",
"xv 	c #1B4E95",
"yv 	c #315C9C",
"zv 	c #245194",
"Av 	c #17458B",
"Bv 	c #214B8E",
"Cv 	c #134086",
"Dv 	c #0E3B83",
"Ev 	c #103B83",
"Fv 	c #194287",
"Gv 	c #19458A",
"Hv 	c #103A82",
"Iv 	c #193F84",
"Jv 	c #073680",
"Kv 	c #093881",
"Lv 	c #0B3A83",
"Mv 	c #355694",
"Nv 	c #1D4489",
"Ov 	c #1A4489",
"Pv 	c #45659E",
"Qv 	c #3F629E",
"Rv 	c #3D619F",
"Sv 	c #2B559A",
"Tv 	c #5276AF",
"Uv 	c #3A6AAD",
"Vv 	c #7798BA",
"Wv 	c #CBD484",
"Xv 	c #AFBFC9",
"Yv 	c #ADC1D2",
"Zv 	c #A3BFDE",
"`v 	c #CEDADD",
" w 	c #EDECCD",
".w 	c #E6E196",
"+w 	c #E4D88E",
"@w 	c #E8D48B",
"#w 	c #E3D08A",
"$w 	c #E3D286",
"%w 	c #E3D380",
"&w 	c #DFD47D",
"*w 	c #E4DC7F",
"=w 	c #E3D77E",
"-w 	c #7185A7",
";w 	c #285FA7",
">w 	c #23589F",
",w 	c #305C9A",
"'w 	c #1E5197",
")w 	c #144288",
"!w 	c #0F3E82",
"~w 	c #0F3A7E",
"{w 	c #08387C",
"]w 	c #0C377B",
"^w 	c #0A3477",
"/w 	c #0A3476",
"(w 	c #39557A",
"_w 	c #617176",
":w 	c #657276",
"<w 	c #2B4977",
"[w 	c #153B75",
"}w 	c #06316F",
"|w 	c #06326F",
"1w 	c #7F886E",
"2w 	c #3F5072",
"3w 	c #0F3771",
"4w 	c #98966F",
"5w 	c #CBBA8E",
"6w 	c #D3C196",
"7w 	c #D2B98B",
"8w 	c #CEB57F",
"9w 	c #CBB175",
"0w 	c #CBB386",
"aw 	c #B8AF8D",
"bw 	c #B7AF6A",
"cw 	c #B8A86C",
"dw 	c #BDAC76",
"ew 	c #B7A667",
"fw 	c #B6A865",
"gw 	c #A79A60",
"hw 	c #948661",
"iw 	c #917D65",
"jw 	c #947E65",
"kw 	c #978068",
"lw 	c #88725D",
"mw 	c #7F6D5D",
"nw 	c #866E5D",
"ow 	c #927A65",
"pw 	c #86715F",
"qw 	c #827060",
"rw 	c #8A7B68",
"sw 	c #7C6A5A",
"tw 	c #675646",
"uw 	c #716951",
"vw 	c #6F6D4A",
"ww 	c #6E6D58",
"xw 	c #6A6A5D",
"yw 	c #62655C",
"zw 	c #56594A",
"Aw 	c #4F5348",
"Bw 	c #414638",
"Cw 	c #30352A",
"Dw 	c #161C21",
"Ew 	c #030D19",
"Fw 	c #0C111B",
"Gw 	c #0C1728",
"Hw 	c #092430",
"Iw 	c #203A4C",
"Jw 	c #376FAC",
"Kw 	c #3164A6",
"Lw 	c #164C95",
"Mw 	c #194C93",
"Nw 	c #113E85",
"Ow 	c #103C84",
"Pw 	c #0D3A82",
"Qw 	c #0D387F",
"Rw 	c #224C8E",
"Sw 	c #174186",
"Tw 	c #0D377F",
"Uw 	c #21488A",
"Vw 	c #133E85",
"Ww 	c #153E84",
"Xw 	c #2D4F8E",
"Yw 	c #20478A",
"Zw 	c #093882",
"`w 	c #455F94",
" x 	c #335997",
".x 	c #1B458B",
"+x 	c #5776AA",
"@x 	c #5875A8",
"#x 	c #2E5496",
"$x 	c #315C9E",
"%x 	c #5A82B9",
"&x 	c #84A6C9",
"*x 	c #D2D799",
"=x 	c #F6F5C0",
"-x 	c #EFECC6",
";x 	c #F8F2DD",
">x 	c #F3ECCB",
",x 	c #F3EBC7",
"'x 	c #F2E4BF",
")x 	c #F1DFB2",
"!x 	c #F3D8AF",
"~x 	c #EDD19A",
"{x 	c #EDD29C",
"]x 	c #EAD6A1",
"^x 	c #DDC889",
"/x 	c #EAD498",
"(x 	c #E7D18F",
"_x 	c #EBD297",
":x 	c #B5A79F",
"<x 	c #2962AB",
"[x 	c #265CA3",
"}x 	c #20559A",
"|x 	c #1F5398",
"1x 	c #1A4B90",
"2x 	c #114084",
"3x 	c #0D3B7F",
"4x 	c #0B377B",
"5x 	c #0B3679",
"6x 	c #0A3576",
"7x 	c #0A3475",
"8x 	c #294678",
"9x 	c #3E5175",
"0x 	c #083372",
"ax 	c #063270",
"bx 	c #05316E",
"cx 	c #08326F",
"dx 	c #05306D",
"ex 	c #0F3772",
"fx 	c #0A336F",
"gx 	c #08326E",
"hx 	c #ABA563",
"ix 	c #C4A87A",
"jx 	c #CEB288",
"kx 	c #D2B387",
"lx 	c #CEB07F",
"mx 	c #CCB07F",
"nx 	c #CBB186",
"ox 	c #CBB890",
"px 	c #C5BA8C",
"qx 	c #BBAC75",
"rx 	c #BBAA74",
"sx 	c #AB9C69",
"tx 	c #B9AB72",
"ux 	c #B6AA72",
"vx 	c #A8995F",
"wx 	c #9A8C5F",
"xx 	c #98885F",
"yx 	c #917B5F",
"zx 	c #947C61",
"Ax 	c #806A55",
"Bx 	c #7E684C",
"Cx 	c #826553",
"Dx 	c #816856",
"Ex 	c #7C6554",
"Fx 	c #786453",
"Gx 	c #786957",
"Hx 	c #726455",
"Ix 	c #777162",
"Jx 	c #727156",
"Kx 	c #686858",
"Lx 	c #626559",
"Mx 	c #5A5C50",
"Nx 	c #4D5142",
"Ox 	c #434734",
"Px 	c #373D2D",
"Qx 	c #33372C",
"Rx 	c #1A2023",
"Sx 	c #030D1A",
"Tx 	c #070E19",
"Ux 	c #0B1420",
"Vx 	c #021D39",
"Wx 	c #224663",
"Xx 	c #316AAB",
"Yx 	c #1C549E",
"Zx 	c #25599E",
"`x 	c #2B5D9E",
" y 	c #235296",
".y 	c #1E4B90",
"+y 	c #15438A",
"@y 	c #103E85",
"#y 	c #103C82",
"$y 	c #123C82",
"%y 	c #1F478A",
"&y 	c #0F3981",
"*y 	c #0D367E",
"=y 	c #173D83",
"-y 	c #1A4288",
";y 	c #163D84",
">y 	c #0C3880",
",y 	c #093680",
"'y 	c #1A4187",
")y 	c #375692",
"!y 	c #254B8E",
"~y 	c #234689",
"{y 	c #284D90",
"]y 	c #325899",
"^y 	c #476BA6",
"/y 	c #7B9BC4",
"(y 	c #CED2B4",
"_y 	c #E5DF8E",
":y 	c #E7E0A3",
"<y 	c #F3F0DB",
"[y 	c #E8DEC4",
"}y 	c #F5E0C4",
"|y 	c #F8E0C7",
"1y 	c #F7DEC5",
"2y 	c #F6DBBC",
"3y 	c #F7E6D3",
"4y 	c #EED2B0",
"5y 	c #F0D0A5",
"6y 	c #F2D9AB",
"7y 	c #F2E3B5",
"8y 	c #F4ECC6",
"9y 	c #F0E5BB",
"0y 	c #EDDDAE",
"ay 	c #D6CAAD",
"by 	c #5574AE",
"cy 	c #2961AB",
"dy 	c #22569C",
"ey 	c #1A4C90",
"fy 	c #134287",
"gy 	c #0D3879",
"hy 	c #0D3979",
"iy 	c #0B3777",
"jy 	c #0A3676",
"ky 	c #063271",
"ly 	c #05316F",
"my 	c #0E3671",
"ny 	c #153B76",
"oy 	c #0A3470",
"py 	c #133971",
"qy 	c #BBB761",
"ry 	c #C3A671",
"sy 	c #C09571",
"ty 	c #CFA67D",
"uy 	c #CCA378",
"vy 	c #CCB284",
"wy 	c #CCB98F",
"xy 	c #CBB78E",
"yy 	c #C9BA92",
"zy 	c #C7C2A0",
"Ay 	c #C3BA96",
"By 	c #B8AD91",
"Cy 	c #A6997E",
"Dy 	c #444E68",
"Ey 	c #777169",
"Fy 	c #AB9E61",
"Gy 	c #9A895B",
"Hy 	c #988258",
"Iy 	c #947D5B",
"Jy 	c #8A7151",
"Ky 	c #816949",
"Ly 	c #9B866C",
"My 	c #8E7965",
"Ny 	c #755E4D",
"Oy 	c #7B6B5A",
"Py 	c #736458",
"Qy 	c #57595E",
"Ry 	c #3A485A",
"Sy 	c #666658",
"Ty 	c #696553",
"Uy 	c #646250",
"Vy 	c #5E6051",
"Wy 	c #585C4E",
"Xy 	c #4D513F",
"Yy 	c #464935",
"Zy 	c #373E2F",
"`y 	c #363B37",
" z 	c #1A1F22",
".z 	c #060C18",
"+z 	c #0C131D",
"@z 	c #214C73",
"#z 	c #2761A6",
"$z 	c #2359A0",
"%z 	c #20559B",
"&z 	c #3362A1",
"*z 	c #36629F",
"=z 	c #19468B",
"-z 	c #0F3D83",
";z 	c #0E3A82",
">z 	c #103980",
",z 	c #274C8C",
"'z 	c #163F85",
")z 	c #123C83",
"!z 	c #25498B",
"~z 	c #2C5192",
"{z 	c #274B8C",
"]z 	c #0A3881",
"^z 	c #0F3B83",
"/z 	c #083781",
"(z 	c #294D8F",
"_z 	c #0E3E89",
":z 	c #18468F",
"<z 	c #446FAB",
"[z 	c #B5B4A6",
"}z 	c #E9CF8A",
"|z 	c #EBD88C",
"1z 	c #EAE5BE",
"2z 	c #E4D5BF",
"3z 	c #F8F1E9",
"4z 	c #F3D6B8",
"5z 	c #F4CFAE",
"6z 	c #F6E2D0",
"7z 	c #F7E3CD",
"8z 	c #F1D2AB",
"9z 	c #F3D3A6",
"0z 	c #F4DBB6",
"az 	c #F5DFBA",
"bz 	c #F6F2D5",
"cz 	c #F5F4DB",
"dz 	c #F3EBD0",
"ez 	c #F2EAC6",
"fz 	c #E4D7AD",
"gz 	c #A1A2AB",
"hz 	c #2C62AB",
"iz 	c #255BA2",
"jz 	c #22559C",
"kz 	c #1D5095",
"lz 	c #184A8E",
"mz 	c #144387",
"nz 	c #103F83",
"oz 	c #0C3B7E",
"pz 	c #0C3A7D",
"qz 	c #143C7B",
"rz 	c #505F7B",
"sz 	c #173E7C",
"tz 	c #093675",
"uz 	c #083472",
"vz 	c #06316E",
"wz 	c #123A76",
"xz 	c #133D78",
"yz 	c #0E3974",
"zz 	c #0D3772",
"Az 	c #394D71",
"Bz 	c #BDB46E",
"Cz 	c #CFBC8E",
"Dz 	c #CDB791",
"Ez 	c #CBA881",
"Fz 	c #CBA57D",
"Gz 	c #CCB588",
"Hz 	c #CBB98E",
"Iz 	c #CABA90",
"Jz 	c #C9BC94",
"Kz 	c #C6BB94",
"Lz 	c #C4BB94",
"Mz 	c #C2B894",
"Nz 	c #A39C86",
"Oz 	c #0F3364",
"Pz 	c #0A3161",
"Qz 	c #7F7967",
"Rz 	c #A59267",
"Sz 	c #9A855F",
"Tz 	c #8B7A60",
"Uz 	c #75695D",
"Vz 	c #7C644B",
"Wz 	c #846F5A",
"Xz 	c #887A68",
"Yz 	c #807C74",
"Zz 	c #3B4458",
"`z 	c #132C4D",
" A 	c #1B3351",
".A 	c #1D334F",
"+A 	c #454C4F",
"@A 	c #585C4F",
"#A 	c #585C51",
"$A 	c #535747",
"%A 	c #4F5243",
"&A 	c #484B3D",
"*A 	c #42453D",
"=A 	c #3C4042",
"-A 	c #171E23",
";A 	c #030E1A",
">A 	c #050C18",
",A 	c #0A121B",
"'A 	c #051B35",
")A 	c #0A202E",
"!A 	c #092230",
"~A 	c #275481",
"{A 	c #215BA2",
"]A 	c #2A5FA3",
"^A 	c #21559B",
"/A 	c #225499",
"(A 	c #205094",
"_A 	c #0F3C83",
":A 	c #0F3C82",
"<A 	c #194185",
"[A 	c #174084",
"}A 	c #10387F",
"|A 	c #143C82",
"1A 	c #163E84",
"2A 	c #2E508E",
"3A 	c #395A95",
"4A 	c #2A4C8D",
"5A 	c #133C82",
"6A 	c #083780",
"7A 	c #073983",
"8A 	c #093A84",
"9A 	c #0F428B",
"0A 	c #0F438D",
"aA 	c #4B659A",
"bA 	c #E3CA8A",
"cA 	c #D8C08B",
"dA 	c #DED0AC",
"eA 	c #E0D4C6",
"fA 	c #EFDECD",
"gA 	c #F8E6D4",
"hA 	c #EDC6A0",
"iA 	c #EDCBAB",
"jA 	c #F4D9B8",
"kA 	c #F4D4A9",
"lA 	c #F5DBB4",
"mA 	c #F6E0BF",
"nA 	c #F2D3A8",
"oA 	c #F2DBA8",
"pA 	c #F3EEC2",
"qA 	c #F3F1C7",
"rA 	c #F2EFC2",
"sA 	c #F1E9B3",
"tA 	c #EEDBA6",
"uA 	c #EFD9A4",
"vA 	c #DBD1A9",
"wA 	c #C6BA94",
"xA 	c #AEA394",
"yA 	c #6A7595",
"zA 	c #184B8F",
"AA 	c #144488",
"BA 	c #114184",
"CA 	c #0E3F82",
"DA 	c #656C82",
"EA 	c #CEC186",
"FA 	c #E2D7A2",
"GA 	c #C6C1A4",
"HA 	c #8E8F92",
"IA 	c #6A7185",
"JA 	c #113A76",
"KA 	c #073270",
"LA 	c #093471",
"MA 	c #425776",
"NA 	c #949C71",
"OA 	c #7F8874",
"PA 	c #858A8D",
"QA 	c #B8B596",
"RA 	c #CFC397",
"SA 	c #D0B88D",
"TA 	c #CCA981",
"UA 	c #CDB588",
"VA 	c #CFB88A",
"WA 	c #CBB687",
"XA 	c #CAB78A",
"YA 	c #C9B488",
"ZA 	c #C7B388",
"`A 	c #C5B687",
" B 	c #C3B787",
".B 	c #C0B384",
"+B 	c #BFB086",
"@B 	c #87857B",
"#B 	c #0C3162",
"$B 	c #0F3261",
"%B 	c #273B61",
"&B 	c #746F63",
"*B 	c #7F7465",
"=B 	c #4C5262",
"-B 	c #333C58",
";B 	c #706966",
">B 	c #5C5B60",
",B 	c #2D3B56",
"'B 	c #0C274E",
")B 	c #08244A",
"!B 	c #0A2447",
"~B 	c #0F2848",
"{B 	c #152D4B",
"]B 	c #1D324C",
"^B 	c #51564A",
"/B 	c #53594E",
"(B 	c #424A45",
"_B 	c #4D5041",
":B 	c #494C3C",
"<B 	c #444640",
"[B 	c #363A2F",
"}B 	c #171E21",
"|B 	c #040E1B",
"1B 	c #040C19",
"2B 	c #0C121B",
"3B 	c #0A1D35",
"4B 	c #011B39",
"5B 	c #001B39",
"6B 	c #031D3B",
"7B 	c #0A2230",
"8B 	c #2F608E",
"9B 	c #2059A0",
"0B 	c #275BA0",
"aB 	c #22569B",
"bB 	c #2C5C9D",
"cB 	c #255395",
"dB 	c #134187",
"eB 	c #0E3C83",
"fB 	c #113E84",
"gB 	c #154185",
"hB 	c #184386",
"iB 	c #0F3A80",
"jB 	c #1A4387",
"kB 	c #194386",
"lB 	c #0F3980",
"mB 	c #09377F",
"nB 	c #224680",
"oB 	c #24498B",
"pB 	c #2C5191",
"qB 	c #214A8E",
"rB 	c #1D4B90",
"sB 	c #0C428C",
"tB 	c #0E448F",
"uB 	c #656E93",
"vB 	c #DDBD7E",
"wB 	c #D6B799",
"xB 	c #DBB79F",
"yB 	c #E9D5C7",
"zB 	c #F5E1D0",
"AB 	c #F6D9BB",
"BB 	c #EDD2B4",
"CB 	c #F6E1C1",
"DB 	c #F6DAB3",
"EB 	c #F3D3A3",
"FB 	c #F6E9C3",
"GB 	c #F3DCA8",
"HB 	c #F2D4A0",
"IB 	c #F2DEAA",
"JB 	c #F2E8B0",
"KB 	c #F1EAB0",
"LB 	c #F0E7A9",
"MB 	c #EFDFA0",
"NB 	c #EEDAA3",
"OB 	c #EDD199",
"PB 	c #ECD098",
"QB 	c #E9CC93",
"RB 	c #EAD09C",
"SB 	c #DEC799",
"TB 	c #305493",
"UB 	c #16488B",
"VB 	c #A59D94",
"WB 	c #E7D9AA",
"XB 	c #E6E0B6",
"YB 	c #E5CEA2",
"ZB 	c #E5D3A8",
"`B 	c #DFD4AE",
" C 	c #DED4AB",
".C 	c #D8D2B2",
"+C 	c #BCBDAB",
"@C 	c #ACAE9F",
"#C 	c #CCCA8B",
"$C 	c #CDCB6E",
"%C 	c #D1C87C",
"&C 	c #D5D0A6",
"*C 	c #D8D1AE",
"=C 	c #D0BC95",
"-C 	c #C9AA80",
";C 	c #CCA175",
">C 	c #C59167",
",C 	c #CBA373",
"'C 	c #C8A571",
")C 	c #C7A771",
"!C 	c #C5A26F",
"~C 	c #C4A171",
"{C 	c #C3A879",
"]C 	c #C1B177",
"^C 	c #BFB176",
"/C 	c #BEB483",
"(C 	c #BCB995",
"_C 	c #929384",
":C 	c #304264",
"<C 	c #0C3060",
"[C 	c #0D2F5E",
"}C 	c #0C2E5D",
"|C 	c #273A5D",
"1C 	c #786657",
"2C 	c #072852",
"3C 	c #06254D",
"4C 	c #08234B",
"5C 	c #09254C",
"6C 	c #09254A",
"7C 	c #10294B",
"8C 	c #122A4A",
"9C 	c #192E4C",
"0C 	c #1C304B",
"aC 	c #1E324B",
"bC 	c #313F51",
"cC 	c #444D53",
"dC 	c #505449",
"eC 	c #494B3F",
"fC 	c #424438",
"gC 	c #363A29",
"hC 	c #0B1621",
"iC 	c #050F1B",
"jC 	c #060D1A",
"kC 	c #0B111B",
"lC 	c #07172D",
"mC 	c #011B38",
"nC 	c #021C39",
"oC 	c #0A222F",
"pC 	c #2A5E92",
"qC 	c #1F589F",
"rC 	c #1F549B",
"sC 	c #3668A6",
"tC 	c #1C4E93",
"uC 	c #16458C",
"vC 	c #154389",
"wC 	c #0D3C82",
"xC 	c #43639A",
"yC 	c #5272A6",
"zC 	c #3C5C96",
"AC 	c #294C8A",
"BC 	c #133F84",
"CC 	c #214B8C",
"DC 	c #164286",
"EC 	c #194286",
"FC 	c #163F84",
"GC 	c #133D83",
"HC 	c #1D4286",
"IC 	c #09367F",
"JC 	c #204585",
"KC 	c #546A8B",
"LC 	c #33548E",
"MC 	c #46588F",
"NC 	c #3B5993",
"OC 	c #184C94",
"PC 	c #3F5795",
"QC 	c #CBA587",
"RC 	c #D9AC83",
"SC 	c #DFB490",
"TC 	c #EBD2BE",
"UC 	c #F7E7D9",
"VC 	c #F3CBA4",
"WC 	c #F5D6B2",
"XC 	c #F7E3C3",
"YC 	c #F7EAC5",
"ZC 	c #F6E9C1",
"`C 	c #F6EAC4",
" D 	c #F6ECCA",
".D 	c #F2DEA6",
"+D 	c #F2DCA6",
"@D 	c #F3E9B6",
"#D 	c #F2EBB5",
"$D 	c #F0E3A6",
"%D 	c #EEDB9B",
"&D 	c #EED897",
"*D 	c #EFE1A9",
"=D 	c #EED49E",
"-D 	c #EDD49D",
";D 	c #EBD29B",
">D 	c #EAD29B",
",D 	c #EBD5A2",
"'D 	c #E3D0A0",
")D 	c #D2BF9A",
"!D 	c #A59E96",
"~D 	c #284B87",
"{D 	c #A4A8A4",
"]D 	c #E8E2BA",
"^D 	c #E6DFB9",
"/D 	c #E6D9B4",
"(D 	c #E5DEBA",
"_D 	c #E4D7B1",
":D 	c #E2D5AE",
"<D 	c #E2DDC2",
"[D 	c #DCCAA0",
"}D 	c #DCD29E",
"|D 	c #DCD4A0",
"1D 	c #D2C791",
"2D 	c #D2BF8E",
"3D 	c #AFA790",
"4D 	c #D4C39D",
"5D 	c #B19676",
"6D 	c #BF986F",
"7D 	c #CCA879",
"8D 	c #C4976E",
"9D 	c #C9A175",
"0D 	c #CABC86",
"aD 	c #C7B17C",
"bD 	c #C2A170",
"cD 	c #C3A876",
"dD 	c #C1A573",
"eD 	c #BF9E6D",
"fD 	c #BEA774",
"gD 	c #BEAF80",
"hD 	c #BCB68C",
"iD 	c #BBB898",
"jD 	c #8A8C83",
"kD 	c #7D827E",
"lD 	c #0C2F5E",
"mD 	c #0C2E5C",
"nD 	c #6B7072",
"oD 	c #998361",
"pD 	c #57474B",
"qD 	c #564D52",
"rD 	c #262F4C",
"sD 	c #08244B",
"tD 	c #10294D",
"uD 	c #203654",
"vD 	c #30425C",
"wD 	c #304159",
"xD 	c #25364E",
"yD 	c #25364D",
"zD 	c #313E51",
"AD 	c #424C59",
"BD 	c #4F544F",
"CD 	c #4A4C42",
"DD 	c #424539",
"ED 	c #34382A",
"FD 	c #041020",
"GD 	c #09101A",
"HD 	c #0B192D",
"ID 	c #0B212F",
"JD 	c #09212F",
"KD 	c #30659B",
"LD 	c #275EA2",
"MD 	c #1F549A",
"ND 	c #23569A",
"OD 	c #255698",
"PD 	c #13438A",
"QD 	c #124187",
"RD 	c #0E3C82",
"SD 	c #6E8BB6",
"TD 	c #5A76A6",
"UD 	c #1E4789",
"VD 	c #1A4689",
"WD 	c #1B468A",
"XD 	c #1F498B",
"YD 	c #3B609B",
"ZD 	c #2D5493",
"`D 	c #103B82",
" E 	c #425586",
".E 	c #284789",
"+E 	c #7C819B",
"@E 	c #ACA5A4",
"#E 	c #E0B68F",
"$E 	c #E1B085",
"%E 	c #E8B98D",
"&E 	c #F1D6B8",
"*E 	c #F4DABD",
"=E 	c #F6D8B3",
"-E 	c #F4D2A8",
";E 	c #F1CEA3",
">E 	c #EFCB9F",
",E 	c #F2DEA4",
"'E 	c #F5E9B9",
")E 	c #F4E6B4",
"!E 	c #F1D4A6",
"~E 	c #F1D4A2",
"{E 	c #F1DEA7",
"]E 	c #F1E1A8",
"^E 	c #F0E1A7",
"/E 	c #EEDE9E",
"(E 	c #EBCC8A",
"_E 	c #EDDCA4",
":E 	c #EFE6B6",
"<E 	c #EED4A2",
"[E 	c #ECC191",
"}E 	c #EBC999",
"|E 	c #EAD2A0",
"1E 	c #EAD5A1",
"2E 	c #E9D29F",
"3E 	c #EADDAF",
"4E 	c #EBE8C2",
"5E 	c #E0DEC4",
"6E 	c #E9E5C2",
"7E 	c #E9E7C9",
"8E 	c #E9E8D0",
"9E 	c #E6E1C0",
"0E 	c #E6E4C6",
"aE 	c #E5E3CA",
"bE 	c #E1DEBF",
"cE 	c #E0DAB8",
"dE 	c #DFD7AD",
"eE 	c #DDD3A1",
"fE 	c #DBCA97",
"gE 	c #D6D2A1",
"hE 	c #D8CEA6",
"iE 	c #BEAC8C",
"jE 	c #A49080",
"kE 	c #8B6D61",
"lE 	c #AB866A",
"mE 	c #BA9169",
"nE 	c #BB926E",
"oE 	c #C9B187",
"pE 	c #CBC294",
"qE 	c #C7B186",
"rE 	c #B7906F",
"sE 	c #BC9D79",
"tE 	c #C1AE79",
"uE 	c #BEA272",
"vE 	c #BEA171",
"wE 	c #BA976B",
"xE 	c #B99F73",
"yE 	c #BAB696",
"zE 	c #B5B395",
"AE 	c #A3A493",
"BE 	c #153460",
"CE 	c #586070",
"DE 	c #9A9783",
"EE 	c #A58E6A",
"FE 	c #8E7459",
"GE 	c #785C44",
"HE 	c #7C6550",
"IE 	c #2D354F",
"JE 	c #0B274B",
"KE 	c #283B58",
"LE 	c #424F65",
"ME 	c #36465C",
"NE 	c #304055",
"OE 	c #203149",
"PE 	c #28374B",
"QE 	c #47515C",
"RE 	c #414A4E",
"SE 	c #4B4D44",
"TE 	c #383B2E",
"UE 	c #11191F",
"VE 	c #080F1A",
"WE 	c #0A182A",
"XE 	c #011A37",
"YE 	c #031B39",
"ZE 	c #091F2D",
"`E 	c #376B9E",
" F 	c #275CA1",
".F 	c #1B5198",
"+F 	c #1C5196",
"@F 	c #1E4F92",
"#F 	c #16458B",
"$F 	c #103E84",
"%F 	c #1F488A",
"&F 	c #6C8AB5",
"*F 	c #254E8F",
"=F 	c #1A4588",
"-F 	c #1E488A",
";F 	c #174488",
">F 	c #194589",
",F 	c #2C5392",
"'F 	c #2A5291",
")F 	c #214B8D",
"!F 	c #254F91",
"~F 	c #3B5F9B",
"{F 	c #4E6092",
"]F 	c #F0DBB0",
"^F 	c #F1D8AC",
"/F 	c #E6B88B",
"(F 	c #F2C998",
"_F 	c #F7DDB4",
":F 	c #FAF1D8",
"<F 	c #F9EDD0",
"[F 	c #F5DDAD",
"}F 	c #F5DBAF",
"|F 	c #F1D29C",
"1F 	c #F2D9A5",
"2F 	c #F3DFA6",
"3F 	c #F3DFB2",
"4F 	c #F1CB9F",
"5F 	c #ECC195",
"6F 	c #EFC79A",
"7F 	c #F0CB97",
"8F 	c #F0D296",
"9F 	c #EFD99F",
"0F 	c #EDDB9E",
"aF 	c #EFDFAC",
"bF 	c #F0DCAC",
"cF 	c #EFD0A1",
"dF 	c #EED1A1",
"eF 	c #ECC697",
"fF 	c #ECC799",
"gF 	c #EACB9C",
"hF 	c #E7CB9A",
"iF 	c #E6CB9B",
"jF 	c #E8D9AB",
"kF 	c #EAE6C0",
"lF 	c #E9E6C7",
"mF 	c #E6E1B8",
"nF 	c #E7E2C1",
"oF 	c #E6E5CB",
"pF 	c #E5E4C4",
"qF 	c #E4E2C0",
"rF 	c #E2E1BD",
"sF 	c #E0DFBD",
"tF 	c #DDD7B0",
"uF 	c #DCD2A6",
"vF 	c #D6C993",
"wF 	c #DAD6B6",
"xF 	c #D1BC93",
"yF 	c #A58873",
"zF 	c #474F73",
"AF 	c #42456C",
"BF 	c #A98367",
"CF 	c #A1775B",
"DF 	c #C2AA86",
"EF 	c #C7AD85",
"FF 	c #B28968",
"GF 	c #BC9575",
"HF 	c #BFA382",
"IF 	c #C0A881",
"JF 	c #BFA977",
"KF 	c #BC9F72",
"LF 	c #BCA67E",
"MF 	c #BAA47E",
"NF 	c #B7A684",
"OF 	c #B7B69A",
"PF 	c #B4B292",
"QF 	c #A2A08A",
"RF 	c #AFA884",
"SF 	c #A9956E",
"TF 	c #A68F6B",
"UF 	c #A38F70",
"VF 	c #9B876C",
"WF 	c #978668",
"XF 	c #25334F",
"YF 	c #092549",
"ZF 	c #2A3D59",
"`F 	c #2F4059",
" G 	c #2F3E56",
".G 	c #1C2E49",
"+G 	c #1C2E47",
"@G 	c #28374A",
"#G 	c #434C59",
"$G 	c #3C4550",
"%G 	c #4A4E4A",
"&G 	c #44463F",
"*G 	c #3A3C30",
"=G 	c #1E231F",
"-G 	c #070F1A",
";G 	c #0D131C",
">G 	c #081629",
",G 	c #091E2C",
"'G 	c #0A2331",
")G 	c #255C99",
"!G 	c #3266A5",
"~G 	c #205499",
"{G 	c #225598",
"]G 	c #17478D",
"^G 	c #15448A",
"/G 	c #114085",
"(G 	c #597BAD",
"_G 	c #2C5291",
":G 	c #1A4589",
"<G 	c #194588",
"[G 	c #154286",
"}G 	c #1E498C",
"|G 	c #184489",
"1G 	c #144388",
"2G 	c #16448A",
"3G 	c #1C4C90",
"4G 	c #6D7B9C",
"5G 	c #EFE4C0",
"6G 	c #F8EDC7",
"7G 	c #E8C599",
"8G 	c #E4B88C",
"9G 	c #EFC293",
"0G 	c #F7E0BA",
"aG 	c #F6E4BF",
"bG 	c #F5E0B4",
"cG 	c #F3D8AD",
"dG 	c #F1CE9D",
"eG 	c #EFD194",
"fG 	c #F3E3AA",
"gG 	c #F5ECBE",
"hG 	c #F3D5AA",
"iG 	c #E9BC93",
"jG 	c #E5B58A",
"kG 	c #E8BB8E",
"lG 	c #F0D1A4",
"mG 	c #F1E1B2",
"nG 	c #F0E0AE",
"oG 	c #EFDAA3",
"pG 	c #EDD29A",
"qG 	c #EDCA94",
"rG 	c #EBC491",
"sG 	c #EACD94",
"tG 	c #E9CA92",
"uG 	c #EAC999",
"vG 	c #E6C799",
"wG 	c #E5C99A",
"xG 	c #E4CB9F",
"yG 	c #E5CB9E",
"zG 	c #E3D4AC",
"AG 	c #E9E6C3",
"BG 	c #E9E6C6",
"CG 	c #E7DFB8",
"DG 	c #E5D7AA",
"EG 	c #E6E4C4",
"FG 	c #E4E1BB",
"GG 	c #E2DAAD",
"HG 	c #E1DFBB",
"IG 	c #E0DDB4",
"JG 	c #DEDBAE",
"KG 	c #DDDAB1",
"LG 	c #DCD6AB",
"MG 	c #DAD6AD",
"NG 	c #D1CB9C",
"OG 	c #D4BE94",
"PG 	c #BF9A72",
"QG 	c #695D6C",
"RG 	c #08346C",
"SG 	c #514F6C",
"TG 	c #AB8B6F",
"UG 	c #9E775C",
"VG 	c #997058",
"WG 	c #906851",
"XG 	c #A98065",
"YG 	c #BA9A7B",
"ZG 	c #BDA17F",
"`G 	c #C0AB87",
" H 	c #BCA57C",
".H 	c #BAA47A",
"+H 	c #B8AB81",
"@H 	c #B6A27A",
"#H 	c #B7B598",
"$H 	c #B4B291",
"%H 	c #B2B090",
"&H 	c #AEA47F",
"*H 	c #A4855F",
"=H 	c #A07E59",
"-H 	c #A39476",
";H 	c #A09177",
">H 	c #8B806C",
",H 	c #0B264B",
"'H 	c #062247",
")H 	c #0D2648",
"!H 	c #0C2445",
"~H 	c #0F2544",
"{H 	c #132845",
"]H 	c #182B44",
"^H 	c #27354A",
"/H 	c #434B57",
"(H 	c #38414E",
"_H 	c #343E43",
":H 	c #444740",
"<H 	c #3B3D35",
"[H 	c #22271E",
"}H 	c #0D141E",
"|H 	c #0E141D",
"1H 	c #061224",
"2H 	c #0C223D",
"3H 	c #0A1E2C",
"4H 	c #0A2333",
"5H 	c #1B5394",
"6H 	c #24599D",
"7H 	c #1F5498",
"8H 	c #1B4F93",
"9H 	c #1B4A8F",
"0H 	c #154489",
"aH 	c #335B98",
"bH 	c #5377AB",
"cH 	c #6686B3",
"dH 	c #3D629B",
"eH 	c #1C478A",
"fH 	c #184488",
"gH 	c #184387",
"hH 	c #1C4789",
"iH 	c #184487",
"jH 	c #164288",
"kH 	c #134288",
"lH 	c #18488D",
"mH 	c #1C5095",
"nH 	c #C5C6BF",
"oH 	c #F7EFCA",
"pH 	c #F4DBAB",
"qH 	c #F1CDA5",
"rH 	c #F5D7B0",
"sH 	c #F6D9B6",
"tH 	c #F7F1CF",
"uH 	c #F5E5BA",
"vH 	c #F0C99B",
"wH 	c #E5B48D",
"xH 	c #F0C99F",
"yH 	c #F1D49D",
"zH 	c #F3EAB2",
"AH 	c #F4EBBD",
"BH 	c #F2D4A1",
"CH 	c #F0CF9C",
"DH 	c #F2D9A7",
"EH 	c #F1D7A6",
"FH 	c #F2E2B6",
"GH 	c #F0DBAC",
"HH 	c #EED6A1",
"IH 	c #EACF8C",
"JH 	c #ECD093",
"KH 	c #EBBA85",
"LH 	c #E8B57E",
"MH 	c #E8BD84",
"NH 	c #E5BC7B",
"OH 	c #E9C990",
"PH 	c #E8D3A0",
"QH 	c #E9D7A3",
"RH 	c #EADDB4",
"SH 	c #C79A77",
"TH 	c #BC8C6A",
"UH 	c #E4D8B1",
"VH 	c #E8E7C9",
"WH 	c #E7E2C0",
"XH 	c #E5D7AC",
"YH 	c #E5E2BF",
"ZH 	c #E1D5A5",
"`H 	c #E1DEBA",
" I 	c #DFDEB8",
".I 	c #DCD9A8",
"+I 	c #DCD8AA",
"@I 	c #DDDAB6",
"#I 	c #DBD8B5",
"$I 	c #DAD8BC",
"%I 	c #CDC292",
"&I 	c #C8B286",
"*I 	c #A27858",
"=I 	c #3D436A",
"-I 	c #09326A",
";I 	c #6A6776",
">I 	c #9E7A5D",
",I 	c #977058",
"'I 	c #9A7258",
")I 	c #B2886C",
"!I 	c #B69375",
"~I 	c #BEA583",
"{I 	c #B89E7E",
"]I 	c #B59D7E",
"^I 	c #BBA88B",
"/I 	c #B6AA83",
"(I 	c #B6A67E",
"_I 	c #B8B69F",
":I 	c #B3B18E",
"<I 	c #B1AD86",
"[I 	c #ADA783",
"}I 	c #A6855E",
"|I 	c #A08561",
"1I 	c #A39574",
"2I 	c #A29C85",
"3I 	c #676360",
"4I 	c #07234A",
"5I 	c #072247",
"6I 	c #072144",
"7I 	c #0B2444",
"8I 	c #142847",
"9I 	c #1D2F49",
"0I 	c #2B3A4F",
"aI 	c #2C3A4D",
"bI 	c #3C4553",
"cI 	c #37404D",
"dI 	c #26313F",
"eI 	c #3D4240",
"fI 	c #3A3C34",
"gI 	c #24281E",
"hI 	c #060F1C",
"iI 	c #0C121C",
"jI 	c #061223",
"kI 	c #021A36",
"lI 	c #0F233F",
"mI 	c #091D2B",
"nI 	c #092232",
"oI 	c #1B5293",
"pI 	c #1C5298",
"qI 	c #1D5297",
"rI 	c #1C4F93",
"sI 	c #17468B",
"tI 	c #1E4B8E",
"uI 	c #476CA1",
"vI 	c #2A5392",
"wI 	c #234D8D",
"xI 	c #335894",
"yI 	c #5F81B1",
"zI 	c #44659C",
"AI 	c #20488A",
"BI 	c #184286",
"CI 	c #1A4487",
"DI 	c #164386",
"EI 	c #134388",
"FI 	c #13468E",
"GI 	c #A6AAAD",
"HI 	c #F6EECC",
"II 	c #F5E3B4",
"JI 	c #F7E6C2",
"KI 	c #F7E5C4",
"LI 	c #F7EFD0",
"MI 	c #F7E3BD",
"NI 	c #F7F0CF",
"OI 	c #F5E6B6",
"PI 	c #F2D3AA",
"QI 	c #EEC39A",
"RI 	c #EFC699",
"SI 	c #F2D7A1",
"TI 	c #F3E9AE",
"UI 	c #F3EEBC",
"VI 	c #F2DBA5",
"WI 	c #F1D29F",
"XI 	c #ECC393",
"YI 	c #E9BD8F",
"ZI 	c #E5BA8D",
"`I 	c #DEB68B",
" J 	c #DCAF80",
".J 	c #DEAB78",
"+J 	c #E5B57F",
"@J 	c #E5B483",
"#J 	c #E9C291",
"$J 	c #E8B67E",
"%J 	c #E6C084",
"&J 	c #E7C98E",
"*J 	c #E9D89E",
"=J 	c #E9D7A2",
"-J 	c #EAE0B2",
";J 	c #DEC399",
">J 	c #C79C77",
",J 	c #E6DAB0",
"'J 	c #E7E5C2",
")J 	c #E7E4C0",
"!J 	c #E5E1BA",
"~J 	c #E4E1BC",
"{J 	c #E3DBB1",
"]J 	c #DCBD8D",
"^J 	c #DFD6AB",
"/J 	c #DFDDB5",
"(J 	c #DCD8A1",
"_J 	c #DBD3A4",
":J 	c #DAD2A7",
"<J 	c #D6CCA5",
"[J 	c #D9D4B1",
"}J 	c #D6CDA4",
"|J 	c #C9B98F",
"1J 	c #BB9471",
"2J 	c #967B6A",
"3J 	c #11356B",
"4J 	c #0A3369",
"5J 	c #887873",
"6J 	c #A7886C",
"7J 	c #967155",
"8J 	c #9D775C",
"9J 	c #B09072",
"0J 	c #BFA887",
"aJ 	c #B9A17E",
"bJ 	c #B7A182",
"cJ 	c #B8A286",
"dJ 	c #B6AB84",
"eJ 	c #B5A880",
"fJ 	c #B6B091",
"gJ 	c #B3B08A",
"hJ 	c #B0AD85",
"iJ 	c #ADA982",
"jJ 	c #A68E65",
"kJ 	c #A39370",
"lJ 	c #A5A38C",
"mJ 	c #A29F8C",
"nJ 	c #73716B",
"oJ 	c #062249",
"pJ 	c #052146",
"qJ 	c #082144",
"rJ 	c #0E2545",
"sJ 	c #182C49",
"tJ 	c #21324B",
"uJ 	c #25344A",
"vJ 	c #2E3B4E",
"wJ 	c #353F4D",
"xJ 	c #323B49",
"yJ 	c #172436",
"zJ 	c #33393D",
"AJ 	c #363A30",
"BJ 	c #282C1D",
"CJ 	c #050F1C",
"DJ 	c #091525",
"EJ 	c #011A35",
"FJ 	c #0E213D",
"GJ 	c #08202F",
"HJ 	c #1E5491",
"IJ 	c #1D5498",
"JJ 	c #1E5497",
"KJ 	c #225496",
"LJ 	c #16458A",
"MJ 	c #2A5492",
"NJ 	c #4C70A4",
"OJ 	c #244E8F",
"PJ 	c #28508F",
"QJ 	c #1B4688",
"RJ 	c #305693",
"SJ 	c #4B6DA2",
"TJ 	c #2B518F",
"UJ 	c #2F5593",
"VJ 	c #194385",
"WJ 	c #20498A",
"XJ 	c #1D488A",
"YJ 	c #1D478A",
"ZJ 	c #204C8E",
"`J 	c #245192",
" K 	c #61739A",
".K 	c #F3EDC7",
"+K 	c #F6E2B1",
"@K 	c #F6E5B9",
"#K 	c #F7EFCD",
"$K 	c #F6ECC6",
"%K 	c #F6EFCA",
"&K 	c #F6E3BB",
"*K 	c #F5DFB4",
"=K 	c #F0D7AC",
"-K 	c #E7BA90",
";K 	c #EBC293",
">K 	c #ECC491",
",K 	c #F2DFAA",
"'K 	c #F3EDBC",
")K 	c #F4EFC4",
"!K 	c #EBC191",
"~K 	c #E9BB8C",
"{K 	c #E4BB8E",
"]K 	c #D8AD86",
"^K 	c #EAD7AE",
"/K 	c #E0C097",
"(K 	c #D3A77F",
"_K 	c #CD9B76",
":K 	c #D5A57C",
"<K 	c #E6C38D",
"[K 	c #E7BC86",
"}K 	c #DFB386",
"|K 	c #E6CE96",
"1K 	c #EAE0AE",
"2K 	c #E9D8A5",
"3K 	c #E8D6A5",
"4K 	c #E3C799",
"5K 	c #E3CCA0",
"6K 	c #E7E5C0",
"7K 	c #E6E4BF",
"8K 	c #E8E6CD",
"9K 	c #E5E3C1",
"0K 	c #E5E1C0",
"aK 	c #DDC896",
"bK 	c #DBB17E",
"cK 	c #DBB684",
"dK 	c #DDD6A3",
"eK 	c #DBD098",
"fK 	c #D9CC95",
"gK 	c #D7C08B",
"hK 	c #D6C392",
"iK 	c #D8D1A7",
"jK 	c #D7D4B1",
"kK 	c #CABA91",
"lK 	c #BF956F",
"mK 	c #B99874",
"nK 	c #6F626A",
"oK 	c #093168",
"pK 	c #093268",
"qK 	c #645F70",
"rK 	c #A07F5F",
"sK 	c #AE9174",
"tK 	c #BDA785",
"uK 	c #BEA983",
"vK 	c #B8A689",
"wK 	c #B69B7A",
"xK 	c #B6A67F",
"yK 	c #B5A780",
"zK 	c #B3A881",
"AK 	c #B2AF8B",
"BK 	c #B1B095",
"CK 	c #ADA782",
"DK 	c #A58F68",
"EK 	c #A59978",
"FK 	c #A8A899",
"GK 	c #9B9987",
"HK 	c #273754",
"IK 	c #072349",
"JK 	c #092346",
"KK 	c #0A2344",
"LK 	c #0F2545",
"MK 	c #0F2443",
"NK 	c #0F2341",
"OK 	c #13253F",
"PK 	c #283649",
"QK 	c #37414E",
"RK 	c #253041",
"SK 	c #2C343D",
"TK 	c #323731",
"UK 	c #10181B",
"VK 	c #0A111C",
"WK 	c #0A1627",
"XK 	c #021A37",
"YK 	c #021935",
"ZK 	c #0E203C",
"`K 	c #1F538D",
" L 	c #1E5498",
".L 	c #235798",
"+L 	c #1B498C",
"@L 	c #295492",
"#L 	c #3F649C",
"$L 	c #365994",
"%L 	c #144082",
"&L 	c #244C8C",
"*L 	c #214989",
"=L 	c #3B6099",
"-L 	c #375993",
";L 	c #174285",
">L 	c #325590",
",L 	c #5F7CAA",
"'L 	c #214A8B",
")L 	c #174386",
"!L 	c #3A619C",
"~L 	c #3C67A1",
"{L 	c #DDD8BD",
"]L 	c #F3DEB0",
"^L 	c #F5DEB3",
"/L 	c #F3D5AB",
"(L 	c #F6E8BE",
"_L 	c #F5E7C0",
":L 	c #F5DEB7",
"<L 	c #EECCA0",
"[L 	c #E8BA8B",
"}L 	c #F0CA92",
"|L 	c #F2D196",
"1L 	c #F2D49C",
"2L 	c #F3E7B6",
"3L 	c #F4EEC2",
"4L 	c #F3E7B4",
"5L 	c #F1DBA6",
"6L 	c #E8C296",
"7L 	c #E5BB90",
"8L 	c #E7C89B",
"9L 	c #E9D2A7",
"0L 	c #E7D8B4",
"aL 	c #E9D0A3",
"bL 	c #E9D6A8",
"cL 	c #D9B58C",
"dL 	c #DBB286",
"eL 	c #DDB58B",
"fL 	c #E4C089",
"gL 	c #E2C085",
"hL 	c #E5D294",
"iL 	c #E9E4A9",
"jL 	c #E9DDA9",
"kL 	c #E2BB8C",
"lL 	c #E5D8AB",
"mL 	c #E5DEB5",
"nL 	c #E6E2BA",
"oL 	c #E6E4C3",
"pL 	c #E4E1B7",
"qL 	c #E3DFB8",
"rL 	c #E3DFB7",
"sL 	c #DCBA86",
"tL 	c #DCB983",
"uL 	c #D8A87A",
"vL 	c #DBCB94",
"wL 	c #D8C48D",
"xL 	c #D9D2A0",
"yL 	c #D8D09E",
"zL 	c #D6C896",
"AL 	c #D5CDA1",
"BL 	c #D5D0AB",
"CL 	c #B8A98A",
"DL 	c #C8AA82",
"EL 	c #BE9A75",
"FL 	c #A58F79",
"GL 	c #414D70",
"HL 	c #083166",
"IL 	c #083266",
"JL 	c #8F796A",
"KL 	c #A3865C",
"LL 	c #BCA785",
"ML 	c #AB8C6F",
"NL 	c #BAA17F",
"OL 	c #B59F85",
"PL 	c #B9A481",
"QL 	c #B6A882",
"RL 	c #B5A982",
"SL 	c #B3AD85",
"TL 	c #B2B08F",
"UL 	c #B3B09C",
"VL 	c #AB9D7D",
"WL 	c #A38B6B",
"XL 	c #A39A7A",
"YL 	c #A4A18A",
"ZL 	c #797368",
"`L 	c #09274E",
" M 	c #082449",
".M 	c #0A2243",
"+M 	c #0B2040",
"@M 	c #0D2240",
"#M 	c #11243E",
"$M 	c #1D2C42",
"%M 	c #3D4552",
"&M 	c #283342",
"*M 	c #192637",
"=M 	c #2D353E",
"-M 	c #2A3131",
";M 	c #21251F",
">M 	c #1B201A",
",M 	c #08101B",
"'M 	c #011733",
")M 	c #11233F",
"!M 	c #1B518C",
"~M 	c #225799",
"{M 	c #1C5093",
"]M 	c #1E5193",
"^M 	c #1C4A8D",
"/M 	c #305894",
"(M 	c #2B5492",
"_M 	c #385C96",
":M 	c #204888",
"<M 	c #305692",
"[M 	c #214888",
"}M 	c #22498A",
"|M 	c #234B8B",
"1M 	c #1A4485",
"2M 	c #194485",
"3M 	c #274E8E",
"4M 	c #0F3C81",
"5M 	c #3F639B",
"6M 	c #F1E7C2",
"7M 	c #F5EBC5",
"8M 	c #F4E4B4",
"9M 	c #F3DDAA",
"0M 	c #F6EBC1",
"aM 	c #F4E7B0",
"bM 	c #F4E2AC",
"cM 	c #F1D198",
"dM 	c #F1CC93",
"eM 	c #F0BC86",
"fM 	c #F1CC96",
"gM 	c #F2E0AA",
"hM 	c #F4E8B9",
"iM 	c #F3EBB8",
"jM 	c #F2E5B0",
"kM 	c #F1DFA9",
"lM 	c #F2DCA9",
"mM 	c #EFD3A2",
"nM 	c #EDD6A5",
"oM 	c #EDD8AA",
"pM 	c #E8D0A8",
"qM 	c #E7CCA1",
"rM 	c #E1BE93",
"sM 	c #ECD8AB",
"tM 	c #EBE1B1",
"uM 	c #E0C096",
"vM 	c #DFB682",
"wM 	c #E4D395",
"xM 	c #E9E6B1",
"yM 	c #E8E0A6",
"zM 	c #E4C08B",
"AM 	c #E6D5A5",
"BM 	c #E6E4BD",
"CM 	c #E5DDB2",
"DM 	c #D9C293",
"EM 	c #DDBC85",
"FM 	c #E1D5A2",
"GM 	c #E0D5A5",
"HM 	c #DED099",
"IM 	c #DDC792",
"JM 	c #D9BE90",
"KM 	c #D6B081",
"LM 	c #D6BB86",
"MM 	c #D9D2A1",
"NM 	c #D9D5A8",
"OM 	c #D6CB9B",
"PM 	c #D3C28F",
"QM 	c #CCBF8F",
"RM 	c #B59D7D",
"SM 	c #C3A079",
"TM 	c #C4AD8C",
"UM 	c #B29879",
"VM 	c #AA8E70",
"WM 	c #4F506A",
"XM 	c #093065",
"YM 	c #7C7172",
"ZM 	c #AE966F",
"`M 	c #AC9573",
" N 	c #9A755A",
".N 	c #B69E7D",
"+N 	c #BAA480",
"@N 	c #B6A274",
"#N 	c #B5A074",
"$N 	c #B3A57A",
"%N 	c #B2AE87",
"&N 	c #AFA780",
"*N 	c #AC9D78",
"=N 	c #AA9E7F",
"-N 	c #A8A182",
";N 	c #A49A7E",
">N 	c #9E9478",
",N 	c #243352",
"'N 	c #072245",
")N 	c #0B2243",
"!N 	c #0E2341",
"~N 	c #0C223E",
"{N 	c #0D213B",
"]N 	c #0F213A",
"^N 	c #2D3848",
"/N 	c #2C3643",
"(N 	c #25303D",
"_N 	c #28303B",
":N 	c #1E272E",
"<N 	c #1A2022",
"[N 	c #1C221F",
"}N 	c #0E151E",
"|N 	c #081529",
"1N 	c #031A37",
"2N 	c #031734",
"3N 	c #11223F",
"4N 	c #091F2F",
"5N 	c #205283",
"6N 	c #225999",
"7N 	c #225495",
"8N 	c #1E5092",
"9N 	c #1D4B8D",
"0N 	c #245090",
"aN 	c #2B5391",
"bN 	c #1F498A",
"cN 	c #375B94",
"dN 	c #46689D",
"eN 	c #365A94",
"fN 	c #4D6C9F",
"gN 	c #244B8A",
"hN 	c #214988",
"iN 	c #214A8A",
"jN 	c #244D8E",
"kN 	c #103D81",
"lN 	c #06387E",
"mN 	c #0D4289",
"nN 	c #C9C7B0",
"oN 	c #F4EAB7",
"pN 	c #F3E6B2",
"qN 	c #ECCFA4",
"rN 	c #F2E0A8",
"sN 	c #F2E6AA",
"tN 	c #F2DC9E",
"uN 	c #F1D398",
"vN 	c #F1C38A",
"wN 	c #EDA472",
"xN 	c #ECA475",
"yN 	c #EEC293",
"zN 	c #F1D9A2",
"AN 	c #F2E7B0",
"BN 	c #F2EAB6",
"CN 	c #F2E8B3",
"DN 	c #F1E1AD",
"EN 	c #EED6A5",
"FN 	c #F0E3B3",
"GN 	c #EBD6AA",
"HN 	c #E0BD94",
"IN 	c #D9AE83",
"JN 	c #E4C598",
"KN 	c #E8D1A6",
"LN 	c #ECE6B9",
"MN 	c #EBE3B9",
"NN 	c #E3C187",
"ON 	c #E7D79D",
"PN 	c #E8DEA8",
"QN 	c #E5C992",
"RN 	c #E5C38F",
"SN 	c #E8E5BF",
"TN 	c #E5DEB1",
"UN 	c #D8BB90",
"VN 	c #D8BC91",
"WN 	c #DCBE88",
"XN 	c #DDC791",
"YN 	c #DDC48E",
"ZN 	c #DDCA91",
"`N 	c #DCC992",
" O 	c #DBCF9C",
".O 	c #D8C393",
"+O 	c #D9CA95",
"@O 	c #D9D3A3",
"#O 	c #D9D7AF",
"$O 	c #D5C797",
"%O 	c #D3C590",
"&O 	c #C4B58B",
"*O 	c #CDB180",
"=O 	c #C9AA7D",
"-O 	c #B69374",
";O 	c #B39574",
">O 	c #B08F6F",
",O 	c #887268",
"'O 	c #1D3967",
")O 	c #8F8271",
"!O 	c #A28A5F",
"~O 	c #977C5A",
"{O 	c #AE9575",
"]O 	c #AD9171",
"^O 	c #B49C72",
"/O 	c #B1996B",
"(O 	c #B1A679",
"_O 	c #B2AA82",
":O 	c #AC956C",
"<O 	c #AC9E7C",
"[O 	c #A9A07F",
"}O 	c #A69C7E",
"|O 	c #96876D",
"1O 	c #4D586B",
"2O 	c #0A254D",
"3O 	c #08234A",
"4O 	c #052045",
"5O 	c #072043",
"6O 	c #0A2142",
"7O 	c #0E2342",
"8O 	c #102542",
"9O 	c #0B203D",
"0O 	c #182941",
"aO 	c #0E1F38",
"bO 	c #243042",
"cO 	c #283240",
"dO 	c #2A313D",
"eO 	c #27303A",
"fO 	c #131D2A",
"gO 	c #0E1823",
"hO 	c #141A20",
"iO 	c #151A21",
"jO 	c #0A172B",
"kO 	c #011736",
"lO 	c #031737",
"mO 	c #122340",
"nO 	c #091E2F",
"oO 	c #255775",
"pO 	c #215798",
"qO 	c #164C8F",
"rO 	c #285796",
"sO 	c #285391",
"tO 	c #325793",
"uO 	c #204988",
"vO 	c #274C89",
"wO 	c #254B8A",
"xO 	c #234887",
"yO 	c #1D4484",
"zO 	c #174183",
"AO 	c #2E5188",
"BO 	c #1A4587",
"CO 	c #134184",
"DO 	c #264F8E",
"EO 	c #113E82",
"FO 	c #05377D",
"GO 	c #0A3D84",
"HO 	c #DCD3AD",
"IO 	c #EFCE95",
"JO 	c #EECF9C",
"KO 	c #ECCB98",
"LO 	c #F5F3CE",
"MO 	c #F4EFC0",
"NO 	c #F3E8B0",
"OO 	c #F1DA9E",
"PO 	c #F1D296",
"QO 	c #F0C991",
"RO 	c #EFBE88",
"SO 	c #EFC089",
"TO 	c #EECB92",
"UO 	c #F0DFA8",
"VO 	c #F2E8BC",
"WO 	c #F2ECBF",
"XO 	c #F1E8B5",
"YO 	c #F0E0AA",
"ZO 	c #F0DEAB",
"`O 	c #EFE4B3",
" P 	c #EBDCAF",
".P 	c #E7CFA3",
"+P 	c #E4C496",
"@P 	c #EBD8A8",
"#P 	c #EAD7A6",
"$P 	c #EAE3AC",
"%P 	c #EAE3AF",
"&P 	c #E7D7A0",
"*P 	c #E4C48C",
"=P 	c #E4BE8A",
"-P 	c #E2BE87",
";P 	c #E4C996",
">P 	c #E5DEB7",
",P 	c #E6DFB5",
"'P 	c #E1D1A1",
")P 	c #D5B287",
"!P 	c #CEAA81",
"~P 	c #DECA8F",
"{P 	c #DBB781",
"]P 	c #DDC187",
"^P 	c #DCC189",
"/P 	c #DBC78F",
"(P 	c #D6BB8D",
"_P 	c #D8C490",
":P 	c #D7CA94",
"<P 	c #D8D4A3",
"[P 	c #D8D4A6",
"}P 	c #D5CE9C",
"|P 	c #D0C595",
"1P 	c #CAB590",
"2P 	c #D0C194",
"3P 	c #C8AB82",
"4P 	c #C4AB87",
"5P 	c #BFA885",
"6P 	c #BB9F7C",
"7P 	c #9E7F65",
"8P 	c #103466",
"9P 	c #092F63",
"0P 	c #093265",
"aP 	c #51556B",
"bP 	c #A99462",
"cP 	c #A18A6D",
"dP 	c #A78F77",
"eP 	c #AD946E",
"fP 	c #B29D70",
"gP 	c #B0A174",
"hP 	c #AD9367",
"iP 	c #A88A67",
"jP 	c #AA9A7A",
"kP 	c #A49474",
"lP 	c #97866B",
"mP 	c #2E3B58",
"nP 	c #0B274E",
"oP 	c #08254B",
"pP 	c #032044",
"qP 	c #0C2141",
"rP 	c #0C2240",
"sP 	c #0F223E",
"tP 	c #10233C",
"uP 	c #1C293D",
"vP 	c #232E3E",
"wP 	c #363C45",
"xP 	c #293039",
"yP 	c #161E2A",
"zP 	c #0E1622",
"AP 	c #161C24",
"BP 	c #10161F",
"CP 	c #121820",
"DP 	c #0B182D",
"EP 	c #021736",
"FP 	c #051939",
"GP 	c #0F203D",
"HP 	c #225268",
"IP 	c #265D98",
"JP 	c #154B8E",
"KP 	c #1E4C8D",
"LP 	c #2E5693",
"MP 	c #224A89",
"NP 	c #294E8B",
"OP 	c #1C4384",
"PP 	c #214787",
"QP 	c #173E81",
"RP 	c #194081",
"SP 	c #1C4484",
"TP 	c #204885",
"UP 	c #1E4786",
"VP 	c #174385",
"WP 	c #133F82",
"XP 	c #113E81",
"YP 	c #07387D",
"ZP 	c #0B3C83",
"`P 	c #D1CBB8",
" Q 	c #F1D799",
".Q 	c #F2DDA4",
"+Q 	c #F0DBA8",
"@Q 	c #F3EBBF",
"#Q 	c #F5F2CF",
"$Q 	c #F3EAB0",
"%Q 	c #F2E4A9",
"&Q 	c #F2E5AD",
"*Q 	c #F2ECBA",
"=Q 	c #F3EEC4",
"-Q 	c #F2EABB",
";Q 	c #F1E8B3",
">Q 	c #F1E9B5",
",Q 	c #F2EEC7",
"'Q 	c #F1EABE",
")Q 	c #F0E4B1",
"!Q 	c #F0DCA8",
"~Q 	c #EFDBA8",
"{Q 	c #EEE7B9",
"]Q 	c #EEE6B6",
"^Q 	c #EEE8B8",
"/Q 	c #ECDEA9",
"(Q 	c #EAD9A2",
"_Q 	c #EAE2AB",
":Q 	c #EADFA8",
"<Q 	c #E9DBA5",
"[Q 	c #E2C696",
"}Q 	c #E2BD89",
"|Q 	c #E4C68E",
"1Q 	c #E4CB95",
"2Q 	c #DFCDA4",
"3Q 	c #D3AD83",
"4Q 	c #C69972",
"5Q 	c #BE926E",
"6Q 	c #C99C71",
"7Q 	c #DEC98E",
"8Q 	c #DBB47D",
"9Q 	c #DCB880",
"0Q 	c #DCC890",
"aQ 	c #DCD09A",
"bQ 	c #D9BD88",
"cQ 	c #D7BC86",
"dQ 	c #D7CB97",
"eQ 	c #D7D3A1",
"fQ 	c #D6D2A2",
"gQ 	c #D4C897",
"hQ 	c #D1C8A4",
"iQ 	c #D0C8A0",
"jQ 	c #CCB486",
"kQ 	c #CAAF85",
"lQ 	c #C4AB86",
"mQ 	c #B89774",
"nQ 	c #9E795A",
"oQ 	c #53536A",
"pQ 	c #0B3367",
"qQ 	c #0B3163",
"rQ 	c #143868",
"sQ 	c #796F64",
"tQ 	c #A99B7B",
"uQ 	c #AC9F94",
"vQ 	c #A48A6E",
"wQ 	c #B19D74",
"xQ 	c #AD996E",
"yQ 	c #AF9B75",
"zQ 	c #9D8663",
"AQ 	c #9D8967",
"BQ 	c #806C58",
"CQ 	c #0C2850",
"DQ 	c #062449",
"EQ 	c #042044",
"FQ 	c #0A2040",
"GQ 	c #0C2140",
"HQ 	c #081E3D",
"IQ 	c #0B1F3B",
"JQ 	c #0D1F3A",
"KQ 	c #0F1F38",
"LQ 	c #1E2B3D",
"MQ 	c #2E3743",
"NQ 	c #192333",
"OQ 	c #262D37",
"PQ 	c #1F262F",
"QQ 	c #181E27",
"RQ 	c #23252A",
"SQ 	c #131820",
"TQ 	c #11171F",
"UQ 	c #05152E",
"VQ 	c #011737",
"WQ 	c #0A1E3E",
"XQ 	c #1C475B",
"YQ 	c #255E92",
"ZQ 	c #164C8E",
"`Q 	c #184A8C",
" R 	c #3A639C",
".R 	c #244F8E",
"+R 	c #305792",
"@R 	c #164183",
"#R 	c #244A88",
"$R 	c #1B4282",
"%R 	c #264A88",
"&R 	c #2D4E8A",
"*R 	c #2E508A",
"=R 	c #1A4181",
"-R 	c #3E5D91",
";R 	c #0E3A7E",
">R 	c #375991",
",R 	c #395890",
"'R 	c #204787",
")R 	c #0C3E84",
"!R 	c #D7BE96",
"~R 	c #F0D599",
"{R 	c #F1DBA1",
"]R 	c #F0D5A0",
"^R 	c #EECD94",
"/R 	c #F1E4B3",
"(R 	c #F2EDB7",
"_R 	c #F2EEB9",
":R 	c #F2EFBF",
"<R 	c #F3F0C6",
"[R 	c #F2F1CD",
"}R 	c #F3F1CF",
"|R 	c #F2F0C9",
"1R 	c #F0E7B1",
"2R 	c #EFD8A6",
"3R 	c #F0DDAB",
"4R 	c #ECD09F",
"5R 	c #ECD3A3",
"6R 	c #EAD2A1",
"7R 	c #EDE0AE",
"8R 	c #EEE5B1",
"9R 	c #ECE0AB",
"0R 	c #EAD299",
"aR 	c #EBD6A1",
"bR 	c #EAD8A2",
"cR 	c #E9E1AC",
"dR 	c #EAE5B2",
"eR 	c #E9E0AC",
"fR 	c #E8D9A8",
"gR 	c #E3C796",
"hR 	c #E5D8A3",
"iR 	c #E4D09B",
"jR 	c #E2C899",
"kR 	c #C9A27E",
"lR 	c #B88F6E",
"mR 	c #B78A67",
"nR 	c #C8966B",
"oR 	c #DECF98",
"pR 	c #DCC187",
"qR 	c #DBB67E",
"rR 	c #DBC890",
"sR 	c #D9BD86",
"tR 	c #D9C48F",
"uR 	c #D8CB97",
"vR 	c #D8CF9D",
"wR 	c #D5CB95",
"xR 	c #D3C793",
"yR 	c #D2C18F",
"zR 	c #CDBE93",
"AR 	c #CFC295",
"BR 	c #C7B58D",
"CR 	c #C8B990",
"DR 	c #C7AD83",
"ER 	c #B89672",
"FR 	c #B49470",
"GR 	c #A48A68",
"HR 	c #73696A",
"IR 	c #0E3567",
"JR 	c #25446F",
"KR 	c #1C3E6C",
"LR 	c #939495",
"MR 	c #AA9E7C",
"NR 	c #9C846E",
"OR 	c #A58D6D",
"PR 	c #AF9E7D",
"QR 	c #AC9B79",
"RR 	c #9F8561",
"SR 	c #9D825C",
"TR 	c #766253",
"UR 	c #233254",
"VR 	c #0F2B52",
"WR 	c #0D284E",
"XR 	c #09244B",
"YR 	c #082348",
"ZR 	c #041F44",
"`R 	c #082042",
" S 	c #0C223F",
".S 	c #081D3A",
"+S 	c #0D1F39",
"@S 	c #071933",
"#S 	c #2A3343",
"$S 	c #27303E",
"%S 	c #141F2F",
"&S 	c #1B2430",
"*S 	c #1E242C",
"=S 	c #21252B",
"-S 	c #28292D",
";S 	c #161B22",
">S 	c #11161F",
",S 	c #031531",
"'S 	c #011838",
")S 	c #021636",
"!S 	c #0F1F3C",
"~S 	c #081E2C",
"{S 	c #081E2E",
"]S 	c #163A4C",
"^S 	c #2A648F",
"/S 	c #194D8F",
"(S 	c #1A4B8D",
"_S 	c #3F69A0",
":S 	c #4B71A4",
"<S 	c #375E97",
"[S 	c #1B4585",
"}S 	c #234987",
"|S 	c #2A4E8B",
"1S 	c #32528B",
"2S 	c #48699E",
"3S 	c #284C89",
"4S 	c #173E80",
"5S 	c #4F6C99",
"6S 	c #2E4F86",
"7S 	c #123B7D",
"8S 	c #3C578D",
"9S 	c #324F89",
"0S 	c #4F6287",
"aS 	c #E3D085",
"bS 	c #EBCB88",
"cS 	c #EAC588",
"dS 	c #EAC28D",
"eS 	c #EDD39C",
"fS 	c #F2E9BB",
"gS 	c #F2EBBF",
"hS 	c #F1EBC2",
"iS 	c #F5F3DD",
"jS 	c #F2F0CA",
"kS 	c #F2F0C7",
"lS 	c #F2F0CE",
"mS 	c #F2F0CB",
"nS 	c #EFE5AE",
"oS 	c #EED9A0",
"pS 	c #EDD8A1",
"qS 	c #E9CA98",
"rS 	c #EACD9C",
"sS 	c #EAD4A0",
"tS 	c #ECD8A3",
"uS 	c #ECDAA4",
"vS 	c #EBDBA5",
"wS 	c #EAD19A",
"xS 	c #E6C697",
"yS 	c #E2C79B",
"zS 	c #E9E6B0",
"AS 	c #EAE8BD",
"BS 	c #E9E6B7",
"CS 	c #E6D29D",
"DS 	c #E8E2BB",
"ES 	c #E6E0B0",
"FS 	c #E4D29C",
"GS 	c #E3D9A4",
"HS 	c #DED1A4",
"IS 	c #C8A784",
"JS 	c #C59E78",
"KS 	c #CA966B",
"LS 	c #DDC990",
"MS 	c #DDCB93",
"NS 	c #DBC992",
"OS 	c #D8AF7A",
"PS 	c #D8B078",
"QS 	c #D8C991",
"RS 	c #D9D2A4",
"SS 	c #D3C28A",
"TS 	c #D2C590",
"US 	c #D1C18F",
"VS 	c #CEB683",
"WS 	c #C9AB7A",
"XS 	c #C6AE80",
"YS 	c #C4AA83",
"ZS 	c #C4AD87",
"`S 	c #C8AF84",
" T 	c #C0A27B",
".T 	c #AD8A67",
"+T 	c #A48568",
"@T 	c #A28966",
"#T 	c #616170",
"$T 	c #1B3C6A",
"%T 	c #2E4971",
"&T 	c #596984",
"*T 	c #978A62",
"=T 	c #98835C",
"-T 	c #A08867",
";T 	c #AE9773",
">T 	c #A99673",
",T 	c #9D835E",
"'T 	c #685750",
")T 	c #112D54",
"!T 	c #0D2951",
"~T 	c #142E54",
"{T 	c #132B51",
"]T 	c #233350",
"^T 	c #0A2347",
"/T 	c #061F43",
"(T 	c #061E41",
"_T 	c #0A1F3F",
":T 	c #091E3E",
"<T 	c #061C3B",
"[T 	c #041A37",
"}T 	c #041833",
"|T 	c #061831",
"1T 	c #293341",
"2T 	c #242E3C",
"3T 	c #192231",
"4T 	c #16202C",
"5T 	c #272A30",
"6T 	c #2A2C31",
"7T 	c #171B22",
"8T 	c #10151F",
"9T 	c #011734",
"0T 	c #011839",
"aT 	c #0A1D2D",
"bT 	c #0A1E2E",
"cT 	c #091C2D",
"dT 	c #0E293A",
"eT 	c #2C658C",
"fT 	c #295A97",
"gT 	c #315D98",
"hT 	c #769AC0",
"iT 	c #6C8FB8",
"jT 	c #5E81AE",
"kT 	c #204887",
"lT 	c #1F4483",
"mT 	c #224684",
"nT 	c #234986",
"oT 	c #214785",
"pT 	c #4C6696",
"qT 	c #173E7F",
"rT 	c #315089",
"sT 	c #143D7E",
"tT 	c #0B367B",
"uT 	c #0A3A7E",
"vT 	c #9C9D8A",
"wT 	c #DFD680",
"xT 	c #E4D487",
"yT 	c #E7CD8A",
"zT 	c #E4C683",
"AT 	c #E7CF87",
"BT 	c #E9C98B",
"CT 	c #EFDEA8",
"DT 	c #F0E0AB",
"ET 	c #EFDBA6",
"FT 	c #F3EFCE",
"GT 	c #F2F0D2",
"HT 	c #F1ECBA",
"IT 	c #EFEAB2",
"JT 	c #EEE2A5",
"KT 	c #EEE2A6",
"LT 	c #EDDBA2",
"MT 	c #EACC96",
"NT 	c #E8C995",
"OT 	c #ECDBA7",
"PT 	c #EDE1AF",
"QT 	c #ECE1AF",
"RT 	c #EBDCA7",
"ST 	c #EAD19B",
"TT 	c #E2C291",
"UT 	c #D5AE84",
"VT 	c #DCC99E",
"WT 	c #E9E6B5",
"XT 	c #E8E6BA",
"YT 	c #E7E2B5",
"ZT 	c #E7E5BF",
"`T 	c #E6E5BE",
" U 	c #E4E1B9",
".U 	c #E2DCAF",
"+U 	c #E2D9AC",
"@U 	c #DCBF90",
"#U 	c #D9B688",
"$U 	c #DCBE87",
"%U 	c #DAB981",
"&U 	c #D8AC76",
"*U 	c #D6A775",
"=U 	c #D5B27B",
"-U 	c #D7CD9B",
";U 	c #D9D7B2",
">U 	c #D5C58E",
",U 	c #D2BD88",
"'U 	c #D2C491",
")U 	c #D1C290",
"!U 	c #CEBC87",
"~U 	c #C9AA76",
"{U 	c #C8A877",
"]U 	c #C3A06F",
"^U 	c #C1A074",
"/U 	c #BA9873",
"(U 	c #BC9A71",
"_U 	c #B99C77",
":U 	c #B19677",
"<U 	c #B0A184",
"[U 	c #8E8072",
"}U 	c #2C466B",
"|U 	c #576B88",
"1U 	c #596E8A",
"2U 	c #8D886B",
"3U 	c #958B57",
"4U 	c #876E51",
"5U 	c #896C4F",
"6U 	c #8E7253",
"7U 	c #6F635A",
"8U 	c #1F2E53",
"9U 	c #0B2850",
"0U 	c #0D2950",
"aU 	c #132E54",
"bU 	c #424A5B",
"cU 	c #303E57",
"dU 	c #092347",
"eU 	c #061F41",
"fU 	c #091E3F",
"gU 	c #091F3E",
"hU 	c #051B3A",
"iU 	c #031935",
"jU 	c #091B35",
"kU 	c #101E35",
"lU 	c #202A3B",
"mU 	c #242E3B",
"nU 	c #222A35",
"oU 	c #17202B",
"pU 	c #22262D",
"qU 	c #292A2F",
"rU 	c #1C1F25",
"sU 	c #0C1521",
"tU 	c #001736",
"uU 	c #021635",
"vU 	c #0E1E3B",
"wU 	c #0A1C2D",
"xU 	c #0A1D2E",
"yU 	c #091F30",
"zU 	c #2E6585",
"AU 	c #195091",
"BU 	c #577EAD",
"CU 	c #6589B4",
"DU 	c #7294BB",
"EU 	c #84A2C3",
"FU 	c #5576A5",
"GU 	c #30558F",
"HU 	c #1D4483",
"IU 	c #34568E",
"JU 	c #1A4080",
"KU 	c #294C88",
"LU 	c #254985",
"MU 	c #4A6395",
"NU 	c #234785",
"OU 	c #244883",
"PU 	c #D9D683",
"QU 	c #E4DF7C",
"RU 	c #E2DA7C",
"SU 	c #E2D888",
"TU 	c #E5D68E",
"UU 	c #E2D67F",
"VU 	c #DFD079",
"WU 	c #E5D284",
"XU 	c #E4CE86",
"YU 	c #E8C78E",
"ZU 	c #EFDCA6",
"`U 	c #EFE0AC",
" V 	c #E8DCA9",
".V 	c #EEDDA5",
"+V 	c #EDDBA0",
"@V 	c #ECDDA1",
"#V 	c #EACA90",
"$V 	c #E9CB95",
"%V 	c #EBD8A4",
"&V 	c #ECDBAB",
"*V 	c #EBDAAB",
"=V 	c #EAD19F",
"-V 	c #E7C191",
";V 	c #DFB082",
">V 	c #D7AC82",
",V 	c #D4B084",
"'V 	c #E9E7C7",
")V 	c #E8E6C6",
"!V 	c #E6E5C8",
"~V 	c #E2DDAE",
"{V 	c #E1D7AA",
"]V 	c #DFD09E",
"^V 	c #DED2A2",
"/V 	c #DCC58E",
"(V 	c #DAC18C",
"_V 	c #D5B480",
":V 	c #D3B784",
"<V 	c #D5BE8A",
"[V 	c #D7D09D",
"}V 	c #D6D199",
"|V 	c #D3BF86",
"1V 	c #D1BF8A",
"2V 	c #D2C591",
"3V 	c #D1C491",
"4V 	c #CCB480",
"5V 	c #C79C6E",
"6V 	c #C7A170",
"7V 	c #C49C6D",
"8V 	c #BF956A",
"9V 	c #B6936B",
"0V 	c #AD8A65",
"aV 	c #B8A37A",
"bV 	c #BCAD91",
"cV 	c #BBB496",
"dV 	c #ABA478",
"eV 	c #858279",
"fV 	c #8F97A1",
"gV 	c #516481",
"hV 	c #61666D",
"iV 	c #A39C6A",
"jV 	c #948A6E",
"kV 	c #968C81",
"lV 	c #666066",
"mV 	c #112D57",
"nV 	c #102D55",
"oV 	c #09264F",
"pV 	c #373A51",
"qV 	c #0E2A50",
"rV 	c #0B284E",
"sV 	c #062246",
"tV 	c #041F43",
"uV 	c #041E42",
"vV 	c #082041",
"wV 	c #0A1E3F",
"xV 	c #0B213F",
"yV 	c #041A38",
"zV 	c #051A35",
"AV 	c #0D1E36",
"BV 	c #303844",
"CV 	c #242D3A",
"DV 	c #252C36",
"EV 	c #26292F",
"FV 	c #24262B",
"GV 	c #151A22",
"HV 	c #151921",
"IV 	c #0C1626",
"JV 	c #011837",
"KV 	c #021634",
"LV 	c #0E1F3B",
"MV 	c #0A1B2D",
"NV 	c #0B1E2F",
"OV 	c #081D2E",
"PV 	c #2F6075",
"QV 	c #1E5391",
"RV 	c #1C4C8C",
"SV 	c #486DA0",
"TV 	c #7496BC",
"UV 	c #91ADCA",
"VV 	c #8EA8C7",
"WV 	c #607DA8",
"XV 	c #194280",
"YV 	c #1B4180",
"ZV 	c #1F4583",
"`V 	c #163D7E",
" W 	c #1E4482",
".W 	c #2A4D88",
"+W 	c #1B407F",
"@W 	c #2B4D88",
"#W 	c #314F88",
"$W 	c #214A89",
"%W 	c #ADB388",
"&W 	c #E1DE7B",
"*W 	c #DEDD77",
"=W 	c #E1DE86",
"-W 	c #E5DF9A",
";W 	c #E1DB89",
">W 	c #DDD47B",
",W 	c #E2D681",
"'W 	c #E2D283",
")W 	c #E1CB83",
"!W 	c #E7CE8B",
"~W 	c #E4CD8B",
"{W 	c #D7CC97",
"]W 	c #DAD19A",
"^W 	c #E4C891",
"/W 	c #E5C48F",
"(W 	c #E3C792",
"_W 	c #E2BE86",
":W 	c #EACFA0",
"<W 	c #E9D1A5",
"[W 	c #EBD9AB",
"}W 	c #E9D19E",
"|W 	c #E6C38F",
"1W 	c #DDAE81",
"2W 	c #D39C76",
"3W 	c #D9AF84",
"4W 	c #E3D1A2",
"5W 	c #E8E5BC",
"6W 	c #EAE9D3",
"7W 	c #EAE9D7",
"8W 	c #E9E9D8",
"9W 	c #E7E5CB",
"0W 	c #E4E2B9",
"aW 	c #E2DEAE",
"bW 	c #E3E0BB",
"cW 	c #E1DAB1",
"dW 	c #DFD9AD",
"eW 	c #DED7A5",
"fW 	c #DCD49B",
"gW 	c #DCCF9C",
"hW 	c #D3B283",
"iW 	c #D1AD7D",
"jW 	c #D3B781",
"kW 	c #D6D096",
"lW 	c #D4C487",
"mW 	c #D2B981",
"nW 	c #D1BF88",
"oW 	c #D1C892",
"pW 	c #CFC491",
"qW 	c #CCB17F",
"rW 	c #CAAA79",
"sW 	c #C49B6C",
"tW 	c #BC9368",
"uW 	c #B89463",
"vW 	c #AC9262",
"wW 	c #A89759",
"xW 	c #B3A87C",
"yW 	c #BEBA9C",
"zW 	c #BEBCA1",
"AW 	c #BBB9A1",
"BW 	c #AFAA96",
"CW 	c #AA9D8E",
"DW 	c #766357",
"EW 	c #344567",
"FW 	c #968B6E",
"GW 	c #A19B8F",
"HW 	c #89929E",
"IW 	c #2F4567",
"JW 	c #263D60",
"KW 	c #1B345A",
"LW 	c #504850",
"MW 	c #7D6A52",
"NW 	c #08244C",
"OW 	c #052047",
"PW 	c #031E44",
"QW 	c #021C42",
"RW 	c #031C41",
"SW 	c #081E3F",
"TW 	c #09203F",
"UW 	c #091C36",
"VW 	c #1E2A3F",
"WW 	c #202B3D",
"XW 	c #1B2637",
"YW 	c #1D2734",
"ZW 	c #2D323A",
"`W 	c #1E252E",
" X 	c #20242B",
".X 	c #161A23",
"+X 	c #161A22",
"@X 	c #0F151E",
"#X 	c #06152B",
"$X 	c #011534",
"%X 	c #091D2E",
"&X 	c #224E66",
"*X 	c #225892",
"=X 	c #164789",
"-X 	c #1B4A8A",
";X 	c #698AB2",
">X 	c #93AFCB",
",X 	c #92ACC8",
"'X 	c #6E8AB0",
")X 	c #2D528C",
"!X 	c #284D88",
"~X 	c #3D5C90",
"{X 	c #163D7D",
"]X 	c #1F4482",
"^X 	c #244783",
"/X 	c #2A4B87",
"(X 	c #163B7C",
"_X 	c #415F92",
":X 	c #11387A",
"<X 	c #144182",
"[X 	c #94AB88",
"}X 	c #BBCB79",
"|X 	c #CFD678",
"1X 	c #D7DC8D",
"2X 	c #E5E7B1",
"3X 	c #E0E1A1",
"4X 	c #DDD97F",
"5X 	c #DFD979",
"6X 	c #DFD778",
"7X 	c #DFD57E",
"8X 	c #E0D485",
"9X 	c #DDD78B",
"0X 	c #D4CE96",
"aX 	c #D7C990",
"bX 	c #E3CC86",
"cX 	c #E4C989",
"dX 	c #DCC386",
"eX 	c #D9BC84",
"fX 	c #E4CDA8",
"gX 	c #E9D5B7",
"hX 	c #E8D4AE",
"iX 	c #E4CB91",
"jX 	c #E1C586",
"kX 	c #E3BF86",
"lX 	c #E0BB8D",
"mX 	c #E7D7A5",
"nX 	c #E7E2B1",
"oX 	c #E7E5BD",
"pX 	c #E7E4BF",
"qX 	c #E7E6CA",
"rX 	c #E6E5C6",
"sX 	c #E4E2BC",
"tX 	c #E5E4C7",
"uX 	c #E5E4CD",
"vX 	c #E4E2CB",
"wX 	c #E2E0C2",
"xX 	c #DEDBB0",
"yX 	c #DBCC92",
"zX 	c #D8C38E",
"AX 	c #D3BB83",
"BX 	c #D3B583",
"CX 	c #D4C18A",
"DX 	c #D4BF87",
"EX 	c #D2AF7D",
"FX 	c #CDA675",
"GX 	c #CCAA79",
"HX 	c #CDB381",
"IX 	c #CEBA88",
"JX 	c #C9A377",
"KX 	c #C69B6D",
"LX 	c #C19265",
"MX 	c #B28F66",
"NX 	c #B0A466",
"OX 	c #AD9F6F",
"PX 	c #B7B089",
"QX 	c #B5B28A",
"RX 	c #C2C3B2",
"SX 	c #BCBEA9",
"TX 	c #A5A079",
"UX 	c #907A5F",
"VX 	c #998570",
"WX 	c #9A8D82",
"XX 	c #909399",
"YX 	c #979EA7",
"ZX 	c #89939F",
"`X 	c #435571",
" Y 	c #848890",
".Y 	c #837868",
"+Y 	c #978161",
"@Y 	c #84715A",
"#Y 	c #0D264C",
"$Y 	c #062146",
"%Y 	c #041D43",
"&Y 	c #031B41",
"*Y 	c #041C3F",
"=Y 	c #061B3D",
"-Y 	c #091F3F",
";Y 	c #091F3D",
">Y 	c #081C38",
",Y 	c #0A1D36",
"'Y 	c #1B283C",
")Y 	c #132135",
"!Y 	c #152133",
"~Y 	c #1D2634",
"{Y 	c #1D2530",
"]Y 	c #171E28",
"^Y 	c #131A24",
"/Y 	c #111720",
"(Y 	c #0E141E",
"_Y 	c #0A111B",
":Y 	c #02152F",
"<Y 	c #001635",
"[Y 	c #0F1F3B",
"}Y 	c #15384C",
"|Y 	c #2D638B",
"1Y 	c #16488A",
"2Y 	c #164687",
"3Y 	c #1F4A88",
"4Y 	c #5779A5",
"5Y 	c #5B7CA9",
"6Y 	c #7592B7",
"7Y 	c #3D5E92",
"8Y 	c #1A407E",
"9Y 	c #163C7B",
"0Y 	c #183E7D",
"aY 	c #193E7D",
"bY 	c #2C4F89",
"cY 	c #153A7B",
"dY 	c #39558A",
"eY 	c #1D417F",
"fY 	c #2D528D",
"gY 	c #6E8B89",
"hY 	c #9DB873",
"iY 	c #AFC577",
"jY 	c #BACC86",
"kY 	c #C9D695",
"lY 	c #CED893",
"mY 	c #D3D986",
"nY 	c #D6DA78",
"oY 	c #DED979",
"pY 	c #DDD577",
"qY 	c #DDD488",
"rY 	c #E5E3AB",
"sY 	c #E6DEAE",
"tY 	c #E3D89B",
"uY 	c #E0D288",
"vY 	c #DFCE84",
"wY 	c #E3D4A1",
"xY 	c #E7DEBE",
"yY 	c #EDE3C8",
"zY 	c #EBE1C2",
"AY 	c #E2CFA2",
"BY 	c #DAC484",
"CY 	c #DFCA87",
"DY 	c #E1CC8E",
"EY 	c #E4D29A",
"FY 	c #E5DAA4",
"GY 	c #E5DFAC",
"HY 	c #E4DCA9",
"IY 	c #E4E1B4",
"JY 	c #E4E3C4",
"KY 	c #E4E3C7",
"LY 	c #E3E2C5",
"MY 	c #E3E0C3",
"NY 	c #E2E1C6",
"OY 	c #E0DEC3",
"PY 	c #DDD4A3",
"QY 	c #D8C992",
"RY 	c #D1C287",
"SY 	c #CFBF7F",
"TY 	c #CFBC7F",
"UY 	c #D1B680",
"VY 	c #D0B080",
"WY 	c #CFAD7C",
"XY 	c #C7A276",
"YY 	c #C9AE89",
"ZY 	c #CAAA7F",
"`Y 	c #C6A572",
" Z 	c #C3A471",
".Z 	c #C2A26B",
"+Z 	c #BCA264",
"@Z 	c #B0A065",
"#Z 	c #B0A669",
"$Z 	c #ADA677",
"%Z 	c #BDBB97",
"&Z 	c #C1C0A7",
"*Z 	c #C3C5BB",
"=Z 	c #BDBFB1",
"-Z 	c #BAB9A8",
";Z 	c #ACAC8E",
">Z 	c #938051",
",Z 	c #99856D",
"'Z 	c #A2978C",
")Z 	c #909297",
"!Z 	c #86919E",
"~Z 	c #757E8D",
"{Z 	c #807D7E",
"]Z 	c #9F9075",
"^Z 	c #A08A6F",
"/Z 	c #977B5A",
"(Z 	c #7C6756",
"_Z 	c #031E43",
":Z 	c #021B42",
"<Z 	c #021B3F",
"[Z 	c #061D3F",
"}Z 	c #081D3D",
"|Z 	c #0A203F",
"1Z 	c #0B1D36",
"2Z 	c #1A273B",
"3Z 	c #162235",
"4Z 	c #1B2636",
"5Z 	c #16202E",
"6Z 	c #131C28",
"7Z 	c #0F1621",
"8Z 	c #011633",
"9Z 	c #081C2D",
"0Z 	c #0B2434",
"aZ 	c #2C637F",
"bZ 	c #1C4F8B",
"cZ 	c #164686",
"dZ 	c #194786",
"eZ 	c #2A548E",
"fZ 	c #7B98BA",
"gZ 	c #91A9C6",
"hZ 	c #5475A3",
"iZ 	c #436496",
"jZ 	c #1E4481",
"kZ 	c #274C87",
"lZ 	c #1C3F7D",
"mZ 	c #173B7A",
"nZ 	c #224682",
"oZ 	c #0D3474",
"pZ 	c #123877",
"qZ 	c #113778",
"rZ 	c #69907B",
"sZ 	c #96B66A",
"tZ 	c #A7C07C",
"uZ 	c #B6C97C",
"vZ 	c #BACB7E",
"wZ 	c #BDCC73",
"xZ 	c #C5D073",
"yZ 	c #D3D677",
"zZ 	c #D8D77C",
"AZ 	c #E0DEA6",
"BZ 	c #F1F1E4",
"CZ 	c #EDE9CD",
"DZ 	c #E4DBA5",
"EZ 	c #E5DAA5",
"FZ 	c #EFEBDA",
"GZ 	c #EEECDE",
"HZ 	c #EDE3CD",
"IZ 	c #EEE7D5",
"JZ 	c #EAE2C2",
"KZ 	c #EADEB8",
"LZ 	c #D9C690",
"MZ 	c #E0D49B",
"NZ 	c #E3D79C",
"OZ 	c #E3D498",
"PZ 	c #DFD08A",
"QZ 	c #DAC77D",
"RZ 	c #DEC98A",
"SZ 	c #E2D29B",
"TZ 	c #E2DBAB",
"UZ 	c #E0DAAE",
"VZ 	c #E0D7A8",
"WZ 	c #E2DBBA",
"XZ 	c #E2DCBC",
"YZ 	c #DFDAB2",
"ZZ 	c #DED9B4",
"`Z 	c #DBD4A9",
" ` 	c #D5CD95",
".` 	c #D8D1AC",
"+` 	c #D0C993",
"@` 	c #CCC37F",
"#` 	c #CBBB7C",
"$` 	c #CBBD8B",
"%` 	c #D0BDA0",
"&` 	c #CDAF88",
"*` 	c #D0BC9F",
"=` 	c #C3AA76",
"-` 	c #C1B06F",
";` 	c #BFAC69",
">` 	c #BFA665",
",` 	c #BEA968",
"'` 	c #B9A96B",
")` 	c #B4B082",
"!` 	c #BBB993",
"~` 	c #C5C6AF",
"{` 	c #C4C5B8",
"]` 	c #C1C3BA",
"^` 	c #BEC0BB",
"/` 	c #BCBDB0",
"(` 	c #B0B19A",
"_` 	c #9D9464",
":` 	c #908059",
"<` 	c #A99B89",
"[` 	c #9E9C98",
"}` 	c #A29A8E",
"|` 	c #A28E77",
"1` 	c #A18D70",
"2` 	c #9C8764",
"3` 	c #967855",
"4` 	c #5F4F4D",
"5` 	c #031D44",
"6` 	c #021B41",
"7` 	c #041B3F",
"8` 	c #071C3D",
"9` 	c #081D3C",
"0` 	c #091E3C",
"a` 	c #071B38",
"b` 	c #081C36",
"c` 	c #17253B",
"d` 	c #162338",
"e` 	c #142134",
"f` 	c #202A37",
"g` 	c #0F1B29",
"h` 	c #1A202A",
"i` 	c #0F1823",
"j` 	c #09111D",
"k` 	c #060D19",
"l` 	c #071122",
"m` 	c #011634",
"n` 	c #0B1C2E",
"o` 	c #081C2C",
"p` 	c #255869",
"q` 	c #326587",
"r` 	c #174582",
"s` 	c #5475A1",
"t` 	c #718EB3",
"u` 	c #6886AE",
"v` 	c #6381AB",
"w` 	c #224782",
"x` 	c #36598E",
"y` 	c #1B3F7C",
"z` 	c #163B79",
"A` 	c #20427E",
"B` 	c #113877",
"C` 	c #193D7B",
"D` 	c #153B7A",
"E` 	c #184382",
"F` 	c #1E4A89",
"G` 	c #2E5789",
"H` 	c #90B06B",
"I` 	c #99B76F",
"J` 	c #A2BC64",
"K` 	c #A7BE65",
"L` 	c #B1C468",
"M` 	c #BFCC73",
"N` 	c #CCD275",
"O` 	c #DBDD9A",
"P` 	c #E4E5AF",
"Q` 	c #ECECCE",
"R` 	c #EAEAC7",
"S` 	c #ECEACD",
"T` 	c #E9E6C4",
"U` 	c #EDEBD7",
"V` 	c #F0EFE5",
"W` 	c #EFEDDF",
"X` 	c #EDEADB",
"Y` 	c #EFEDE0",
"Z` 	c #EBE4CB",
"`` 	c #E5DEAA",
"  .	c #E4DDB5",
". .	c #E5E0B3",
"+ .	c #E5DDA6",
"@ .	c #E3D999",
"# .	c #DDCE86",
"$ .	c #D6C676",
"% .	c #D9C77C",
"& .	c #DBC883",
"* .	c #D6CC8A",
"= .	c #6D8498",
"- .	c #D9D6BD",
"; .	c #E1DCC0",
"> .	c #DFDBBA",
", .	c #DDD8B0",
"' .	c #DDD9BB",
") .	c #D2CA89",
"! .	c #CDC474",
"~ .	c #CFC889",
"{ .	c #D4CFA4",
"] .	c #D4CFAA",
"^ .	c #D2CCA5",
"/ .	c #D2CFB0",
"( .	c #CFC6AD",
"_ .	c #CEC09E",
": .	c #D0C7AD",
"< .	c #C5B783",
"[ .	c #C0B270",
"} .	c #BCAC69",
"| .	c #B8AE64",
"1 .	c #BAB472",
"2 .	c #BBB68A",
"3 .	c #BEBB9B",
"4 .	c #C4C3AD",
"5 .	c #C2C3B0",
"6 .	c #BABDAD",
"7 .	c #BCBEB3",
"8 .	c #BDBEB1",
"9 .	c #B9BAAA",
"0 .	c #B9B9AE",
"a .	c #A8A784",
"b .	c #968655",
"c .	c #A18E6A",
"d .	c #ACA691",
"e .	c #AB9F92",
"f .	c #AB9F96",
"g .	c #AAA096",
"h .	c #A2957B",
"i .	c #988358",
"j .	c #8E774E",
"k .	c #212E4C",
"l .	c #082147",
"m .	c #021B40",
"n .	c #081E40",
"o .	c #061B3B",
"p .	c #071C3B",
"q .	c #091D3B",
"r .	c #17263D",
"s .	c #212D3F",
"t .	c #132034",
"u .	c #0F1C2F",
"v .	c #131F2E",
"w .	c #1E2530",
"x .	c #151C27",
"y .	c #0C1420",
"z .	c #060F1B",
"A .	c #04132A",
"B .	c #011836",
"C .	c #011533",
"D .	c #1C4355",
"E .	c #3B7080",
"F .	c #1A4B88",
"G .	c #154583",
"H .	c #12417F",
"I .	c #134280",
"J .	c #214A86",
"K .	c #6E86AB",
"L .	c #839DBD",
"M .	c #446698",
"N .	c #2D5189",
"O .	c #143C7A",
"P .	c #1E437F",
"Q .	c #20447F",
"R .	c #1B407D",
"S .	c #153B79",
"T .	c #1D407C",
"U .	c #1B427F",
"V .	c #134080",
"W .	c #26518D",
"X .	c #688790",
"Y .	c #B1C687",
"Z .	c #A9C17F",
"` .	c #A6BE6B",
" ..	c #ADC26A",
"...	c #BFCB71",
"+..	c #C6D07C",
"@..	c #D1D78F",
"#..	c #D4D993",
"$..	c #E6E8C6",
"%..	c #EEEFE0",
"&..	c #F0F0E6",
"*..	c #EFEFE4",
"=..	c #F0F1E9",
"-..	c #F0F0E7",
";..	c #EEEEE3",
">..	c #EBEBDA",
",..	c #EAE6CD",
"'..	c #E0DBA1",
")..	c #DFDC9E",
"!..	c #DAD584",
"~..	c #DAD27C",
"{..	c #D9CF7C",
"]..	c #DACF7F",
"^..	c #D7CC78",
"/..	c #D8CE7D",
"(..	c #D8CD85",
"_..	c #D8CF87",
":..	c #AEB298",
"<..	c #B3BFC8",
"[..	c #DCDED1",
"}..	c #E4E3D9",
"|..	c #DEDDC8",
"1..	c #D4CF9C",
"2..	c #CAC376",
"3..	c #C9C06D",
"4..	c #C9C270",
"5..	c #CCC786",
"6..	c #CBC68C",
"7..	c #D3D1AE",
"8..	c #CECBA4",
"9..	c #CEC5A8",
"0..	c #C8BE92",
"a..	c #C4B985",
"b..	c #CBC5A3",
"c..	c #C8C09B",
"d..	c #BFBB82",
"e..	c #BCBC7C",
"f..	c #C2C194",
"g..	c #C5C4A9",
"h..	c #C7C7B8",
"i..	c #C6C6B7",
"j..	c #B8BCA3",
"k..	c #A8B19C",
"l..	c #B6BAAE",
"m..	c #BDBEB6",
"n..	c #B5B6A3",
"o..	c #B6B7A7",
"p..	c #A5A47D",
"q..	c #A19F71",
"r..	c #A9A891",
"s..	c #ACA998",
"t..	c #AA9F92",
"u..	c #ABA29A",
"v..	c #9F917A",
"w..	c #97845D",
"x..	c #8D7447",
"y..	c #7A674F",
"z..	c #041C40",
"A..	c #0B1F40",
"B..	c #071C3C",
"C..	c #0C1F3A",
"D..	c #12233B",
"E..	c #16253B",
"F..	c #152338",
"G..	c #0A192F",
"H..	c #0F1C2E",
"I..	c #111C2B",
"J..	c #0E1826",
"K..	c #0A1320",
"L..	c #09121D",
"M..	c #050E19",
"N..	c #09101B",
"O..	c #021630",
"P..	c #011835",
"Q..	c #091A2C",
"R..	c #071C2D",
"S..	c #061C2D",
"T..	c #102C3E",
"U..	c #3D707E",
"V..	c #2F5D88",
"W..	c #11417F",
"X..	c #11407E",
"Y..	c #15417F",
"Z..	c #426192",
"`..	c #6683AB",
" +.	c #31538A",
".+.	c #1C417D",
"++.	c #284A82",
"@+.	c #2D5088",
"#+.	c #305187",
"$+.	c #1D407B",
"%+.	c #22447F",
"&+.	c #1E407B",
"*+.	c #163C7A",
"=+.	c #385A8F",
"-+.	c #406397",
";+.	c #A9BE9D",
">+.	c #BED0A5",
",+.	c #A3BE7F",
"'+.	c #A0BB70",
")+.	c #A5BD6C",
"!+.	c #ABC16E",
"~+.	c #C6CE73",
"{+.	c #D7DCA6",
"]+.	c #ECEEE0",
"^+.	c #EEEFE5",
"/+.	c #F0F0E9",
"(+.	c #F0F0EA",
"_+.	c #EFF0E9",
":+.	c #EEEFE8",
"<+.	c #EDEEE4",
"[+.	c #EBECDF",
"}+.	c #E8E8D1",
"|+.	c #E4E3C1",
"1+.	c #E3E3BA",
"2+.	c #DFDDA2",
"3+.	c #D8D27C",
"4+.	c #D2CC6F",
"5+.	c #D4CC73",
"6+.	c #D4CD78",
"7+.	c #D9D387",
"8+.	c #D9D48B",
"9+.	c #D5D077",
"0+.	c #D2CF7D",
"a+.	c #D3D297",
"b+.	c #DBDAB2",
"c+.	c #DDDCBD",
"d+.	c #DBDAB8",
"e+.	c #CFCB8B",
"f+.	c #C7C573",
"g+.	c #C0C16E",
"h+.	c #BFC06B",
"i+.	c #C1C375",
"j+.	c #C6C582",
"k+.	c #CFCC9E",
"l+.	c #D2CFB3",
"m+.	c #D0CBAB",
"n+.	c #C4BB7A",
"o+.	c #BFB569",
"p+.	c #C1B87B",
"q+.	c #C4BF8F",
"r+.	c #C4C49B",
"s+.	c #C8C9B3",
"t+.	c #C1C29B",
"u+.	c #C0C09B",
"v+.	c #C5C5B2",
"w+.	c #B9BDAC",
"x+.	c #B5B9AC",
"y+.	c #BABCB4",
"z+.	c #BCBDB7",
"A+.	c #B7B8AC",
"B+.	c #B2B3A1",
"C+.	c #ADAD90",
"D+.	c #ACAC98",
"E+.	c #A7A58B",
"F+.	c #A29979",
"G+.	c #A8A08E",
"H+.	c #9E9379",
"I+.	c #97825C",
"J+.	c #937750",
"K+.	c #92704B",
"L+.	c #5F594F",
"M+.	c #0B2449",
"N+.	c #051C3F",
"O+.	c #081C3B",
"P+.	c #0C1E39",
"Q+.	c #253042",
"R+.	c #112037",
"S+.	c #08172F",
"T+.	c #08172C",
"U+.	c #101C2D",
"V+.	c #0B1727",
"W+.	c #05101F",
"X+.	c #09131F",
"Y+.	c #0D131D",
"Z+.	c #08121F",
"`+.	c #001735",
" @.	c #021632",
".@.	c #0F1F3A",
"+@.	c #091B2D",
"@@.	c #061B2C",
"#@.	c #081E30",
"$@.	c #3A6670",
"%@.	c #4B7A83",
"&@.	c #214F85",
"*@.	c #10407D",
"=@.	c #143F7C",
"-@.	c #153F7C",
";@.	c #163F7D",
">@.	c #4A6B9A",
",@.	c #38598E",
"'@.	c #3C5B8E",
")@.	c #426091",
"!@.	c #2C4E86",
"~@.	c #476393",
"{@.	c #335389",
"]@.	c #345185",
"^@.	c #24447C",
"/@.	c #355388",
"(@.	c #36588D",
"_@.	c #4E6E9D",
":@.	c #8BA49F",
"<@.	c #C3D3AB",
"[@.	c #B9CCA6",
"}@.	c #C2D1A4",
"|@.	c #AFC47D",
"1@.	c #A8BF74",
"2@.	c #B4C677",
"3@.	c #BDCA70",
"4@.	c #C0CB70",
"5@.	c #D3D99E",
"6@.	c #E7E9D2",
"7@.	c #EAECDE",
"8@.	c #EEEFE7",
"9@.	c #EDEEE3",
"0@.	c #E8EADA",
"a@.	c #E2E6CD",
"b@.	c #D9DEB5",
"c@.	c #DDE0C3",
"d@.	c #E3E4C3",
"e@.	c #E0E2C1",
"f@.	c #DADA99",
"g@.	c #D1D184",
"h@.	c #D2D17A",
"i@.	c #D5D388",
"j@.	c #D6D495",
"k@.	c #D6D58D",
"l@.	c #CDCF76",
"m@.	c #D3D48D",
"n@.	c #DCDCB0",
"o@.	c #D9DAAE",
"p@.	c #CED094",
"q@.	c #CBCD8A",
"r@.	c #C4C87D",
"s@.	c #C3C77D",
"t@.	c #BFC473",
"u@.	c #C0C46D",
"v@.	c #BEC272",
"w@.	c #BCC175",
"x@.	c #C1C27F",
"y@.	c #C6C792",
"z@.	c #C2C17D",
"A@.	c #BDBC6B",
"B@.	c #B9BA65",
"C@.	c #B9BA66",
"D@.	c #BABB76",
"E@.	c #B5B973",
"F@.	c #BEC093",
"G@.	c #C0C2A7",
"H@.	c #C1C2A8",
"I@.	c #C2C2A6",
"J@.	c #BABD9D",
"K@.	c #A1AC8A",
"L@.	c #AAB19E",
"M@.	c #B1B5A8",
"N@.	c #A9AE9B",
"O@.	c #B2B4A3",
"P@.	c #AFB09F",
"Q@.	c #9DA07B",
"R@.	c #A1A182",
"S@.	c #A39C7D",
"T@.	c #9C8F62",
"U@.	c #A0997B",
"V@.	c #9C9275",
"W@.	c #917A50",
"X@.	c #92744F",
"Y@.	c #8E7C50",
"Z@.	c #2B364D",
"`@.	c #031F44",
" #.	c #0C203D",
".#.	c #343E4E",
"+#.	c #2A3445",
"@#.	c #0A1A32",
"##.	c #09182E",
"$#.	c #0B192C",
"%#.	c #0A1728",
"&#.	c #051222",
"*#.	c #081220",
"=#.	c #0A121D",
"-#.	c #0C121D",
";#.	c #061428",
">#.	c #001733",
",#.	c #021631",
"'#.	c #071B2D",
")#.	c #051B2C",
"!#.	c #061C2E",
"~#.	c #274A55",
"{#.	c #48787F",
"]#.	c #467581",
"^#.	c #1B4882",
"/#.	c #14417E",
"(#.	c #143E7B",
"_#.	c #143D7B",
":#.	c #1C4480",
"<#.	c #1B427E",
"[#.	c #284D85",
"}#.	c #1F447E",
"|#.	c #234680",
"1#.	c #274A83",
"2#.	c #22447D",
"3#.	c #183D79",
"4#.	c #597099",
"5#.	c #647CA4",
"6#.	c #6E84A9",
"7#.	c #637BA3",
"8#.	c #486797",
"9#.	c #8198B4",
"0#.	c #CAD6C9",
"a#.	c #D1DDCF",
"b#.	c #D3DED1",
"c#.	c #D0DABB",
"d#.	c #C0CF9D",
"e#.	c #C7D4A7",
"f#.	c #C4D091",
"g#.	c #BAC870",
"h#.	c #BDC971",
"i#.	c #CAD289",
"j#.	c #D4DBAF",
"k#.	c #E1E3C3",
"l#.	c #EAECE1",
"m#.	c #DEE2C6",
"n#.	c #D6DCB1",
"o#.	c #D2D9AC",
"p#.	c #CED5B2",
"q#.	c #E1E3C9",
"r#.	c #DADDB5",
"s#.	c #D3D8A6",
"t#.	c #D2D697",
"u#.	c #D1D598",
"v#.	c #CFD288",
"w#.	c #CFCF8C",
"x#.	c #D6D599",
"y#.	c #D1D494",
"z#.	c #D3D496",
"A#.	c #D4D293",
"B#.	c #CDCE88",
"C#.	c #C3C97E",
"D#.	c #C2C989",
"E#.	c #BBC47D",
"F#.	c #C0C786",
"G#.	c #C2C782",
"H#.	c #BBC279",
"I#.	c #B8BF6D",
"J#.	c #B5BC69",
"K#.	c #B5BB6B",
"L#.	c #B4BB6D",
"M#.	c #B7BD74",
"N#.	c #B3B96D",
"O#.	c #B1B66A",
"P#.	c #B2B769",
"Q#.	c #B3B86D",
"R#.	c #B5B97C",
"S#.	c #B3B886",
"T#.	c #AFB68D",
"U#.	c #B7BA8E",
"V#.	c #A9AF6E",
"W#.	c #A1A95F",
"X#.	c #9CA77C",
"Y#.	c #879A7F",
"Z#.	c #8B9A7F",
"`#.	c #A5AB92",
" $.	c #AAAD95",
".$.	c #A8AC9C",
"+$.	c #A3A793",
"@$.	c #A2A48B",
"#$.	c #9F9770",
"$$.	c #A49A7D",
"%$.	c #A1957A",
"&$.	c #9A8B6B",
"*$.	c #968A6C",
"=$.	c #907C4B",
"-$.	c #6E654E",
";$.	c #132C4E",
">$.	c #041E43",
",$.	c #031B40",
"'$.	c #051A3D",
")$.	c #051B3B",
"!$.	c #1E2E46",
"~$.	c #364050",
"{$.	c #2C394A",
"]$.	c #08182F",
"^$.	c #0B192E",
"/$.	c #172231",
"($.	c #091626",
"_$.	c #0D1624",
":$.	c #0B1521",
"<$.	c #0B131F",
"[$.	c #070E1A",
"}$.	c #011530",
"|$.	c #011833",
"1$.	c #021731",
"2$.	c #08192B",
"3$.	c #071A2D",
"4$.	c #081B2E",
"5$.	c #081B2F",
"6$.	c #213143",
"7$.	c #15273A",
"8$.	c #10293A",
"9$.	c #447279",
"0$.	c #4F7D7E",
"a$.	c #456C82",
"b$.	c #1C4883",
"c$.	c #17407D",
"d$.	c #17407C",
"e$.	c #1A417D",
"f$.	c #143C79",
"g$.	c #143B78",
"h$.	c #1B407B",
"i$.	c #183D7A",
"j$.	c #183E7A",
"k$.	c #123975",
"l$.	c #083270",
"m$.	c #113773",
"n$.	c #183B77",
"o$.	c #516995",
"p$.	c #7A8EAF",
"q$.	c #193E7B",
"r$.	c #647AA0",
"s$.	c #B4C2D2",
"t$.	c #CBD7CD",
"u$.	c #D4DECF",
"v$.	c #D3DDCD",
"w$.	c #CBD8BF",
"x$.	c #DBE1CB",
"y$.	c #E1E5D5",
"z$.	c #D5DCB7",
"A$.	c #B7C77F",
"B$.	c #BECB86",
"C$.	c #C6D196",
"D$.	c #C3CF9F",
"E$.	c #D5DBB3",
"F$.	c #D9DFC2",
"G$.	c #D6DDBD",
"H$.	c #D8DEBD",
"I$.	c #D6DBB5",
"J$.	c #CFD6A8",
"K$.	c #D5DBBB",
"L$.	c #D7DAAE",
"M$.	c #D6DAB2",
"N$.	c #DADEC1",
"O$.	c #DFDFC6",
"P$.	c #D2D393",
"Q$.	c #D2D6A7",
"R$.	c #D7D8AE",
"S$.	c #CACF8B",
"T$.	c #C8CC86",
"U$.	c #CACD8C",
"V$.	c #C1C782",
"W$.	c #C7CA81",
"X$.	c #C8CC96",
"Y$.	c #B1BE82",
"Z$.	c #B8C17D",
"`$.	c #BDC485",
" %.	c #B4BE7C",
".%.	c #AEB972",
"+%.	c #AEB96B",
"@%.	c #A4B36A",
"#%.	c #AAB671",
"$%.	c #ABB680",
"%%.	c #A8B477",
"&%.	c #ACB573",
"*%.	c #AEB56D",
"=%.	c #AAB15F",
"-%.	c #ABB265",
";%.	c #A8AF67",
">%.	c #95A465",
",%.	c #A3AC66",
"'%.	c #A7AD60",
")%.	c #AFB380",
"!%.	c #9DA776",
"~%.	c #6C865F",
"{%.	c #9BA58B",
"]%.	c #AEB2A3",
"^%.	c #A3A997",
"/%.	c #ABAEA5",
"(%.	c #A8AB99",
"_%.	c #A2A17F",
":%.	c #9B956B",
"<%.	c #A0937A",
"[%.	c #9C906E",
"}%.	c #978C66",
"|%.	c #908456",
"1%.	c #867C47",
"2%.	c #2A364D",
"3%.	c #072246",
"4%.	c #041D42",
"5%.	c #031A3E",
"6%.	c #061A3D",
"7%.	c #4A515E",
"8%.	c #3F4856",
"9%.	c #3E4552",
"0%.	c #101D34",
"a%.	c #0E1B31",
"b%.	c #2A313C",
"c%.	c #222935",
"d%.	c #141D29",
"e%.	c #1B222B",
"f%.	c #0D1621",
"g%.	c #0A131E",
"h%.	c #060F1F",
"i%.	c #001833",
"j%.	c #011531",
"k%.	c #031732",
"l%.	c #091B2F",
"m%.	c #061A2E",
"n%.	c #0B1F33",
"o%.	c #071C31",
"p%.	c #061C31",
"q%.	c #345B64",
"r%.	c #4B797C",
"s%.	c #59827E",
"t%.	c #234D81",
"u%.	c #1C4580",
"v%.	c #153E7A",
"w%.	c #1D437D",
"x%.	c #1B427C",
"y%.	c #103976",
"z%.	c #153C78",
"A%.	c #1E437D",
"B%.	c #1F437C",
"C%.	c #23457C",
"D%.	c #07306E",
"E%.	c #0A3370",
"F%.	c #21447D",
"G%.	c #325287",
"H%.	c #335388",
"I%.	c #6881A8",
"J%.	c #A1B1C7",
"K%.	c #CED9D1",
"L%.	c #BCCEB9",
"M%.	c #B7CAAA",
"N%.	c #D5DDC7",
"O%.	c #DAE0CF",
"P%.	c #E2E5D2",
"Q%.	c #D8DFC7",
"R%.	c #CFD9B6",
"S%.	c #CFD8AE",
"T%.	c #D2D9B3",
"U%.	c #C8D2C3",
"V%.	c #D6DCBB",
"W%.	c #DDE1C9",
"X%.	c #E5E7DC",
"Y%.	c #E5E7DB",
"Z%.	c #E1E4D3",
"`%.	c #C8D2AB",
" &.	c #C2CE9D",
".&.	c #CDD4AC",
"+&.	c #D1D6A8",
"@&.	c #D4D8AD",
"#&.	c #D5D8B3",
"$&.	c #D0D5B0",
"%&.	c #BFC88A",
"&&.	c #C1C87B",
"*&.	c #B8C27A",
"=&.	c #B5C076",
"-&.	c #B5C078",
";&.	c #C4CA9A",
">&.	c #C8CEAA",
",&.	c #BDC79D",
"'&.	c #B0BD84",
")&.	c #ADBD8F",
"!&.	c #A8B987",
"~&.	c #90AA79",
"{&.	c #8BA577",
"]&.	c #7C9B61",
"^&.	c #9BAF7A",
"/&.	c #A9B68C",
"(&.	c #A4B386",
"_&.	c #97AA74",
":&.	c #9CAB6E",
"<&.	c #96A65C",
"[&.	c #9FAB5C",
"}&.	c #9DA860",
"|&.	c #98A569",
"1&.	c #A4AD73",
"2&.	c #B4B57F",
"3&.	c #AFB174",
"4&.	c #A7AC71",
"5&.	c #979F63",
"6&.	c #949D5F",
"7&.	c #A3A785",
"8&.	c #ABAE9D",
"9&.	c #A9AC9A",
"0&.	c #A0A180",
"a&.	c #9F9D79",
"b&.	c #9A8764",
"c&.	c #947D60",
"d&.	c #8C814C",
"e&.	c #8C8755",
"f&.	c #8C844B",
"g&.	c #54584C",
"h&.	c #0E284A",
"i&.	c #0B2346",
"j&.	c #3A4454",
"k&.	c #3B4452",
"l&.	c #3F4651",
"m&.	c #1A2538",
"n&.	c #2C3440",
"o&.	c #3C4046",
"p&.	c #2E3137",
"q&.	c #141B25",
"r&.	c #0A131F",
"s&.	c #0F1620",
"t&.	c #060D18",
"u&.	c #031329",
"v&.	c #001531",
"w&.	c #081A2E",
"x&.	c #091C30",
"y&.	c #051B30",
"z&.	c #071D32",
"A&.	c #1C3846",
"B&.	c #457278",
"C&.	c #557F7B",
"D&.	c #4F707B",
"E&.	c #1D4681",
"F&.	c #143D79",
"G&.	c #153D79",
"H&.	c #173E79",
"I&.	c #123976",
"J&.	c #153B77",
"K&.	c #193E79",
"L&.	c #173D77",
"M&.	c #1B3E77",
"N&.	c #193C75",
"O&.	c #173872",
"P&.	c #0B316F",
"Q&.	c #0E3471",
"R&.	c #0D3572",
"S&.	c #0B316E",
"T&.	c #0A3270",
"U&.	c #314F83",
"V&.	c #5F7CA5",
"W&.	c #A9BACC",
"X&.	c #B8CABD",
"Y&.	c #BACCB5",
"Z&.	c #D0DAC9",
"`&.	c #D1DABF",
" *.	c #C5D3B7",
".*.	c #C6D3B7",
"+*.	c #DBE1D2",
"@*.	c #DDE2D3",
"#*.	c #D6DCD3",
"$*.	c #E2E5D3",
"%*.	c #DDE0C5",
"&*.	c #E0E3D0",
"**.	c #E4E6DC",
"=*.	c #DBE0D2",
"-*.	c #CFD7BB",
";*.	c #C2CC93",
">*.	c #CCD4AE",
",*.	c #CFD5AC",
"'*.	c #D4D8B5",
")*.	c #CBD19F",
"!*.	c #A5BA80",
"~*.	c #97B171",
"{*.	c #B5C38B",
"]*.	c #BBC798",
"^*.	c #AFBF88",
"/*.	c #A8B979",
"(*.	c #AABA76",
"_*.	c #A6B87F",
":*.	c #8FAA6B",
"<*.	c #9BB182",
"[*.	c #AABB96",
"}*.	c #99B085",
"|*.	c #7F9E68",
"1*.	c #769861",
"2*.	c #7D9C69",
"3*.	c #9BAF88",
"4*.	c #A6B693",
"5*.	c #98AB7F",
"6*.	c #89A067",
"7*.	c #8AA061",
"8*.	c #8DA162",
"9*.	c #95A569",
"0*.	c #A2AD79",
"a*.	c #ABB38A",
"b*.	c #AAB18C",
"c*.	c #B2B584",
"d*.	c #B4B580",
"e*.	c #AAAB6C",
"f*.	c #9C9858",
"g*.	c #9A935A",
"h*.	c #97935C",
"i*.	c #9F9E71",
"j*.	c #AAA994",
"k*.	c #A6A58E",
"l*.	c #9D8E71",
"m*.	c #9F987F",
"n*.	c #898752",
"o*.	c #938F68",
"p*.	c #7B7C67",
"q*.	c #1F3452",
"r*.	c #0A2144",
"s*.	c #051B3E",
"t*.	c #061B3C",
"u*.	c #18283F",
"v*.	c #222E41",
"w*.	c #40464F",
"x*.	c #293240",
"y*.	c #3B4048",
"z*.	c #353941",
"A*.	c #1F2630",
"B*.	c #111925",
"C*.	c #0A121E",
"D*.	c #09111B",
"E*.	c #050D18",
"F*.	c #07101D",
"G*.	c #011732",
"H*.	c #001834",
"I*.	c #001632",
"J*.	c #081A2D",
"K*.	c #051A2F",
"L*.	c #061B30",
"M*.	c #061E31",
"N*.	c #375F67",
"O*.	c #4D7878",
"P*.	c #5F8277",
"Q*.	c #4A6B83",
"R*.	c #1E4780",
"S*.	c #133B77",
"T*.	c #1C427A",
"U*.	c #123A75",
"V*.	c #183F79",
"W*.	c #193F7A",
"X*.	c #0D3672",
"Y*.	c #0A316E",
"Z*.	c #224178",
"`*.	c #1D3E77",
" =.	c #1B3D76",
".=.	c #133873",
"+=.	c #082F6D",
"@=.	c #062F6D",
"#=.	c #1D4079",
"$=.	c #335489",
"%=.	c #788EAE",
"&=.	c #A2B4C8",
"*=.	c #B5C5C5",
"==.	c #BFCCC5",
"-=.	c #BCC9CB",
";=.	c #BCC9CE",
">=.	c #CED6D6",
",=.	c #CFD8CE",
"'=.	c #CFD9C8",
")=.	c #DCE1D2",
"!=.	c #D4D9CB",
"~=.	c #C0C8C3",
"{=.	c #9DADB7",
"]=.	c #A7B5C1",
"^=.	c #B2BFC9",
"/=.	c #C5CECC",
"(=.	c #CBD5BE",
"_=.	c #CBD4B2",
":=.	c #D5D9BA",
"<=.	c #D5D9B5",
"[=.	c #CBD3B2",
"}=.	c #C7D0B8",
"|=.	c #B0C196",
"1=.	c #B2C08D",
"2=.	c #AFBF90",
"3=.	c #B4C291",
"4=.	c #A8BA85",
"5=.	c #ADBE8B",
"6=.	c #9AB174",
"7=.	c #91AC74",
"8=.	c #9BB27F",
"9=.	c #96AF83",
"0=.	c #A4B795",
"a=.	c #99B088",
"b=.	c #90A974",
"c=.	c #86A272",
"d=.	c #87A377",
"e=.	c #9DB08C",
"f=.	c #A4B495",
"g=.	c #9DAF8B",
"h=.	c #819C6F",
"i=.	c #859D71",
"j=.	c #849C68",
"k=.	c #7F9864",
"l=.	c #93A479",
"m=.	c #9EAB87",
"n=.	c #9FA978",
"o=.	c #A1A972",
"p=.	c #A3A767",
"q=.	c #9B9756",
"r=.	c #957D52",
"s=.	c #6E6157",
"t=.	c #8C7148",
"u=.	c #998C64",
"v=.	c #A5A289",
"w=.	c #A49E83",
"x=.	c #9D9472",
"y=.	c #99936E",
"z=.	c #9A9777",
"A=.	c #878850",
"B=.	c #767A6E",
"C=.	c #223958",
"D=.	c #0A2245",
"E=.	c #071D3C",
"F=.	c #10233F",
"G=.	c #071B35",
"H=.	c #122037",
"I=.	c #111E33",
"J=.	c #29323F",
"K=.	c #131E2C",
"L=.	c #0B1523",
"M=.	c #0B1421",
"N=.	c #0E1621",
"O=.	c #07101B",
"P=.	c #080F19",
"Q=.	c #041226",
"R=.	c #021733",
"S=.	c #021835",
"T=.	c #021734",
"U=.	c #001532",
"V=.	c #051D31",
"W=.	c #1B3B48",
"X=.	c #406C75",
"Y=.	c #547B77",
"Z=.	c #63837E",
"`=.	c #295083",
" -.	c #173E78",
".-.	c #103873",
"+-.	c #123974",
"@-.	c #143A75",
"#-.	c #1E4179",
"$-.	c #0D3370",
"%-.	c #09316D",
"&-.	c #0F346E",
"*-.	c #1A3D75",
"=-.	c #183B75",
"--.	c #143873",
";-.	c #0A306D",
">-.	c #072D6C",
",-.	c #052C6A",
"'-.	c #143671",
")-.	c #304F84",
"!-.	c #516C97",
"~-.	c #AAB7CA",
"{-.	c #B5C1D1",
"]-.	c #97A9C1",
"^-.	c #A5B4C8",
"/-.	c #A1B1C6",
"(-.	c #A3B5C2",
"_-.	c #95A9C0",
":-.	c #849AB7",
"<-.	c #62799F",
"[-.	c #3B5686",
"}-.	c #92A3BC",
"|-.	c #A9B6C9",
"1-.	c #91A3BC",
"2-.	c #BBC8C6",
"3-.	c #CBD4BB",
"4-.	c #D6DAC5",
"5-.	c #B6C7B3",
"6-.	c #B2C3AB",
"7-.	c #C0CAAD",
"8-.	c #A2B88F",
"9-.	c #90AD7C",
"0-.	c #7CA06A",
"a-.	c #9CB37A",
"b-.	c #9AB179",
"c-.	c #92AD73",
"d-.	c #91AB72",
"e-.	c #8EA971",
"f-.	c #B0BFA4",
"g-.	c #B5C1A9",
"h-.	c #B2BFA6",
"i-.	c #B7C1A6",
"j-.	c #9DB189",
"k-.	c #88A383",
"l-.	c #ACB9AA",
"m-.	c #ABB8A4",
"n-.	c #A8B5A0",
"o-.	c #ADB8A4",
"p-.	c #889F7E",
"q-.	c #7F9974",
"r-.	c #7F986D",
"s-.	c #849964",
"t-.	c #809664",
"u-.	c #97A37A",
"v-.	c #9FA983",
"w-.	c #97A069",
"x-.	c #989954",
"y-.	c #958052",
"z-.	c #876E58",
"A-.	c #7D6848",
"B-.	c #8F7853",
"C-.	c #9B926C",
"D-.	c #9C8A6C",
"E-.	c #978E61",
"F-.	c #989571",
"G-.	c #93936D",
"H-.	c #717553",
"I-.	c #1D3454",
"J-.	c #162D4F",
"K-.	c #0C2447",
"L-.	c #0A2143",
"M-.	c #061B3E",
"N-.	c #061A3B",
"O-.	c #0D203E",
"P-.	c #192943",
"Q-.	c #081D39",
"R-.	c #061A35",
"S-.	c #061A34",
"T-.	c #071931",
"U-.	c #07162D",
"V-.	c #152031",
"W-.	c #0E1B2B",
"X-.	c #071423",
"Y-.	c #141C26",
"Z-.	c #08111D",
"`-.	c #070D19",
" ;.	c #041733",
".;.	c #061935",
"+;.	c #011532",
"@;.	c #011632",
"#;.	c #07192C",
"$;.	c #091A2E",
"%;.	c #071A2E",
"&;.	c #061D32",
"*;.	c #305A66",
"=;.	c #507676",
"-;.	c #5C7F77",
";;.	c #4A6C8A",
">;.	c #22497F",
",;.	c #1B4077",
"';.	c #113873",
");.	c #103671",
"!;.	c #143A73",
"~;.	c #123871",
"{;.	c #0D346E",
"];.	c #09316C",
"^;.	c #0A316C",
"/;.	c #0C336E",
"(;.	c #0F3570",
"_;.	c #092F6D",
":;.	c #09306C",
"<;.	c #092F6C",
"[;.	c #072E6B",
"};.	c #103571",
"|;.	c #123771",
"1;.	c #24437A",
"2;.	c #5E7398",
"3;.	c #8195B3",
"4;.	c #7F95B3",
"5;.	c #8699B6",
"6;.	c #98A9C1",
"7;.	c #798FAF",
"8;.	c #8B9DB8",
"9;.	c #A3B0C4",
"0;.	c #8A9CB6",
"a;.	c #62789E",
"b;.	c #8B9CB6",
"c;.	c #6E84A5",
"d;.	c #56729B",
"e;.	c #8095AD",
"f;.	c #B1BEBD",
"g;.	c #AEBBB5",
"h;.	c #B5C0BD",
"i;.	c #AEBEB6",
"j;.	c #AFC1AC",
"k;.	c #A2B89B",
"l;.	c #8BA975",
"m;.	c #709762",
"n;.	c #628F5E",
"o;.	c #8FA96C",
"p;.	c #ADBC92",
"q;.	c #9BB28A",
"r;.	c #95AD7E",
"s;.	c #A8B993",
"t;.	c #BEC7B5",
"u;.	c #C9CDC1",
"v;.	c #C1C8BB",
"w;.	c #BDC4B4",
"x;.	c #9EB198",
"y;.	c #9DB09B",
"z;.	c #AAB7AB",
"A;.	c #B7C0B7",
"B;.	c #B4BDB3",
"C;.	c #ACB7A9",
"D;.	c #9CAC96",
"E;.	c #8BA084",
"F;.	c #7C956E",
"G;.	c #7E9567",
"H;.	c #9EA984",
"I;.	c #AAB08F",
"J;.	c #9FA885",
"K;.	c #8F9B60",
"L;.	c #989C5C",
"M;.	c #979158",
"N;.	c #8C774C",
"O;.	c #8E7F4E",
"P;.	c #93824D",
"Q;.	c #958352",
"R;.	c #968356",
"S;.	c #958C5E",
"T;.	c #989572",
"U;.	c #848763",
"V;.	c #22324C",
"W;.	c #082448",
"X;.	c #082043",
"Y;.	c #061C3E",
"Z;.	c #051A3A",
"`;.	c #253349",
" >.	c #172840",
".>.	c #071A36",
"+>.	c #091D37",
"@>.	c #081D35",
"#>.	c #061930",
"$>.	c #05142A",
"%>.	c #0A172A",
"&>.	c #051223",
"*>.	c #091422",
"=>.	c #111924",
"->.	c #0D1520",
";>.	c #031024",
">>.	c #081A37",
",>.	c #253650",
"'>.	c #011431",
")>.	c #021533",
"!>.	c #021532",
"~>.	c #08192D",
"{>.	c #071B2F",
"]>.	c #1B3947",
"^>.	c #446F75",
"/>.	c #5A7E7C",
"(>.	c #517385",
"_>.	c #244A7F",
":>.	c #2B4E81",
"<>.	c #1D437A",
"[>.	c #153B74",
"}>.	c #123770",
"|>.	c #224478",
"1>.	c #11376F",
"2>.	c #09316B",
"3>.	c #0C336C",
"4>.	c #0E356E",
"5>.	c #082F6B",
"6>.	c #072F6B",
"7>.	c #123670",
"8>.	c #163972",
"9>.	c #0B316D",
"0>.	c #0B306D",
"a>.	c #0C326E",
"b>.	c #1B3C75",
"c>.	c #4E6690",
"d>.	c #617BA2",
"e>.	c #8397B3",
"f>.	c #899DB8",
"g>.	c #7187A9",
"h>.	c #5B749C",
"i>.	c #8D9EB7",
"j>.	c #63779B",
"k>.	c #4C6791",
"l>.	c #778DAC",
"m>.	c #657EA2",
"n>.	c #647DA1",
"o>.	c #2E5286",
"p>.	c #426390",
"q>.	c #5A759C",
"r>.	c #728699",
"s>.	c #95AAA5",
"t>.	c #769D6F",
"u>.	c #659058",
"v>.	c #4E804A",
"w>.	c #497E4B",
"x>.	c #528455",
"y>.	c #668E60",
"z>.	c #5B8553",
"A>.	c #5D875D",
"B>.	c #90A98F",
"C>.	c #B7C2B7",
"D>.	c #CFD1CB",
"E>.	c #CFD0CB",
"F>.	c #BAC2B8",
"G>.	c #96AB98",
"H>.	c #9AAF9C",
"I>.	c #AFBBB1",
"J>.	c #C0C5C0",
"K>.	c #C2C6C2",
"L>.	c #B8BEB7",
"M>.	c #A6B1A6",
"N>.	c #AEB6AD",
"O>.	c #95A494",
"P>.	c #6B886A",
"Q>.	c #9EA990",
"R>.	c #8E9A84",
"S>.	c #8E9B73",
"T>.	c #A6AB9B",
"U>.	c #939C6B",
"V>.	c #8D945E",
"W>.	c #85854E",
"X>.	c #8F894F",
"Y>.	c #908952",
"Z>.	c #91874F",
"`>.	c #96895C",
" ,.	c #8E8A53",
".,.	c #838851",
"+,.	c #47545A",
"@,.	c #162E50",
"#,.	c #0C2548",
"$,.	c #092245",
"%,.	c #081F41",
"&,.	c #091D3E",
"*,.	c #172742",
"=,.	c #1B2A43",
"-,.	c #0E213B",
";,.	c #051932",
">,.	c #051931",
",,.	c #05172D",
"',.	c #051529",
"),.	c #051225",
"!,.	c #041221",
"~,.	c #0F1723",
"{,.	c #07121E",
"],.	c #0B131D",
"^,.	c #021530",
"/,.	c #031633",
"(,.	c #031634",
"_,.	c #021432",
":,.	c #011432",
"<,.	c #07182C",
"[,.	c #335963",
"},.	c #507778",
"|,.	c #496E86",
"1,.	c #254C80",
"2,.	c #153D74",
"3,.	c #2D5182",
"4,.	c #1D4177",
"5,.	c #0F356D",
"6,.	c #2F4E7E",
"7,.	c #0A326B",
"8,.	c #083069",
"9,.	c #0C326B",
"0,.	c #09316A",
"a,.	c #0A316B",
"b,.	c #062E6A",
"c,.	c #08306B",
"d,.	c #042D69",
"e,.	c #153971",
"f,.	c #163971",
"g,.	c #0C316D",
"h,.	c #042C69",
"i,.	c #3E5785",
"j,.	c #788EAD",
"k,.	c #627BA1",
"l,.	c #4D6995",
"m,.	c #4B6792",
"n,.	c #516992",
"o,.	c #2F4A7B",
"p,.	c #214277",
"q,.	c #566F97",
"r,.	c #556E96",
"s,.	c #516C95",
"t,.	c #234579",
"u,.	c #4C668E",
"v,.	c #7D91AD",
"w,.	c #234679",
"x,.	c #2F5670",
"y,.	c #54864F",
"z,.	c #4E814B",
"A,.	c #4A7E48",
"B,.	c #467B48",
"C,.	c #487C4B",
"D,.	c #487C4C",
"E,.	c #3C7141",
"F,.	c #407344",
"G,.	c #608964",
"H,.	c #9FB2A2",
"I,.	c #B8C2B8",
"J,.	c #C5C9C5",
"K,.	c #BCC3BD",
"L,.	c #A0B1A2",
"M,.	c #9BAE9E",
"N,.	c #9DAFA0",
"O,.	c #B4BCB5",
"P,.	c #C2C4C1",
"Q,.	c #C0C2BF",
"R,.	c #BEC1BE",
"S,.	c #8FA191",
"T,.	c #6A876D",
"U,.	c #577A54",
"V,.	c #7F8E6B",
"W,.	c #6B8557",
"X,.	c #89986B",
"Y,.	c #839166",
"Z,.	c #848F51",
"`,.	c #899355",
" '.	c #858E5C",
".'.	c #90946F",
"+'.	c #9C9F8B",
"@'.	c #9D9D82",
"#'.	c #9C9678",
"$'.	c #8D8F64",
"%'.	c #687565",
"&'.	c #263A58",
"*'.	c #182F4F",
"='.	c #1B2F4D",
"-'.	c #0D2344",
";'.	c #091F40",
">'.	c #041939",
",'.	c #091D35",
"''.	c #04172F",
")'.	c #05172E",
"!'.	c #061628",
"~'.	c #0B1726",
"{'.	c #061221",
"]'.	c #080E19",
"^'.	c #051226",
"/'.	c #031533",
"('.	c #07192D",
"_'.	c #071B30",
":'.	c #173240",
"<'.	c #416A70",
"['.	c #345C7F",
"}'.	c #22487C",
"|'.	c #1B4277",
"1'.	c #23487B",
"2'.	c #1F4478",
"3'.	c #16386D",
"4'.	c #163A70",
"5'.	c #224275",
"6'.	c #16386E",
"7'.	c #0A3069",
"8'.	c #093069",
"9'.	c #072E68",
"0'.	c #09306A",
"a'.	c #072F6A",
"b'.	c #062E69",
"c'.	c #0F346D",
"d'.	c #193D73",
"e'.	c #0A316A",
"f'.	c #082E69",
"g'.	c #072D69",
"h'.	c #092F6B",
"i'.	c #062C69",
"j'.	c #2A487B",
"k'.	c #3C5988",
"l'.	c #677A9B",
"m'.	c #536B93",
"n'.	c #395483",
"o'.	c #4A6088",
"p'.	c #7D8FAB",
"q'.	c #62789B",
"r'.	c #667FA2",
"s'.	c #385482",
"t'.	c #33507F",
"u'.	c #7087A6",
"v'.	c #405E89",
"w'.	c #486A72",
"x'.	c #6A9368",
"y'.	c #51824D",
"z'.	c #4C7E4A",
"A'.	c #568556",
"B'.	c #5C885F",
"C'.	c #5F8862",
"D'.	c #608863",
"E'.	c #527F56",
"F'.	c #678C69",
"G'.	c #9AAE9E",
"H'.	c #7D9B85",
"I'.	c #709178",
"J'.	c #97AB9B",
"K'.	c #AFBBB0",
"L'.	c #AAB6AC",
"M'.	c #829B87",
"N'.	c #7B9581",
"O'.	c #9DAC9F",
"P'.	c #B5BBB5",
"Q'.	c #B3B9B3",
"R'.	c #97A699",
"S'.	c #809582",
"T'.	c #87977D",
"U'.	c #8C9A75",
"V'.	c #82925D",
"W'.	c #758679",
"X'.	c #324B6A",
"Y'.	c #4C5D61",
"Z'.	c #858F5C",
"`'.	c #92987A",
" ).	c #A3A494",
".).	c #A1A291",
"+).	c #959778",
"@).	c #95916E",
"#).	c #79816C",
"$).	c #445369",
"%).	c #162C4C",
"&).	c #162B4A",
"*).	c #0F2343",
"=).	c #0C1F3B",
"-).	c #16263D",
";).	c #0B1C33",
">).	c #05142B",
",).	c #0B1828",
"').	c #0A1725",
")).	c #071220",
"!).	c #07101C",
"~).	c #08101A",
"{).	c #021431",
"]).	c #001432",
"^).	c #2B4E5A",
"/).	c #2E5675",
"().	c #20477A",
"_).	c #1A4175",
":).	c #1F4579",
"<).	c #183E74",
"[).	c #1D3F73",
"}).	c #30507F",
"|).	c #14396F",
"1).	c #10356C",
"2).	c #12376D",
"3).	c #15386E",
"4).	c #0F336A",
"5).	c #082F68",
"6).	c #082E67",
"7).	c #062E67",
"8).	c #072F69",
"9).	c #062F69",
"0).	c #062E68",
"a).	c #0C316A",
"b).	c #052C67",
"c).	c #072D68",
"d).	c #204277",
"e).	c #47628F",
"f).	c #3F5B88",
"g).	c #355282",
"h).	c #254478",
"i).	c #1E3F74",
"j).	c #1C3E73",
"k).	c #3B5683",
"l).	c #4F668D",
"m).	c #62789C",
"n).	c #7E90AC",
"o).	c #60779B",
"p).	c #58739A",
"q).	c #5B7398",
"r).	c #4A6184",
"s).	c #385582",
"t).	c #758F8E",
"u).	c #A4B8A1",
"v).	c #8FA98B",
"w).	c #8FAA8A",
"x).	c #749873",
"y).	c #719573",
"z).	c #90A991",
"A).	c #6A8E6C",
"B).	c #658A69",
"C).	c #7F9C7F",
"D).	c #769580",
"E).	c #668B6B",
"F).	c #7C997F",
"G).	c #839E86",
"H).	c #8CA38E",
"I).	c #88A08A",
"J).	c #648767",
"K).	c #68896B",
"L).	c #819984",
"M).	c #8C9F8E",
"N).	c #A0ABA0",
"O).	c #AFB4AF",
"P).	c #98A598",
"Q).	c #8E9A86",
"R).	c #96A076",
"S).	c #939C6E",
"T).	c #7E8895",
"U).	c #163761",
"V).	c #7A8255",
"W).	c #8E944E",
"X).	c #989B7F",
"Y).	c #A4A695",
"Z).	c #9A9C84",
"`).	c #92916F",
" !.	c #8B8C70",
".!.	c #4B5A6E",
"+!.	c #1F3554",
"@!.	c #092244",
"#!.	c #071E40",
"$!.	c #051B39",
"%!.	c #041935",
"&!.	c #19263C",
"*!.	c #0D1B32",
"=!.	c #06142C",
"-!.	c #071629",
";!.	c #0E192A",
">!.	c #061323",
",!.	c #0E1824",
"'!.	c #0A1420",
")!.	c #04122A",
"!!.	c #011331",
"~!.	c #001331",
"{!.	c #06182C",
"]!.	c #06192E",
"^!.	c #061A2F",
"/!.	c #061C32",
"(!.	c #0E263A",
"_!.	c #3B6175",
":!.	c #184172",
"<!.	c #1B4376",
"[!.	c #204578",
"}!.	c #183D72",
"|!.	c #294A7B",
"1!.	c #13386E",
"2!.	c #1C3F72",
"3!.	c #1C3E72",
"4!.	c #12366C",
"5!.	c #083167",
"6!.	c #203D70",
"7!.	c #15376D",
"8!.	c #083068",
"9!.	c #093068",
"0!.	c #0A3269",
"a!.	c #082F67",
"b!.	c #072D67",
"c!.	c #072C66",
"d!.	c #062C66",
"e!.	c #1E3D71",
"f!.	c #6880A3",
"g!.	c #58749B",
"h!.	c #647CA0",
"i!.	c #587198",
"j!.	c #324E7D",
"k!.	c #4E6791",
"l!.	c #314F80",
"m!.	c #2E4D7E",
"n!.	c #46628D",
"o!.	c #506991",
"p!.	c #415D88",
"q!.	c #234274",
"r!.	c #213F72",
"s!.	c #3D527B",
"t!.	c #8293AB",
"u!.	c #8396AF",
"v!.	c #88A095",
"w!.	c #9BB298",
"x!.	c #9EB39B",
"y!.	c #8CA787",
"z!.	c #7A9C7A",
"A!.	c #588359",
"B!.	c #628756",
"C!.	c #85A07B",
"D!.	c #6D916F",
"E!.	c #5C8363",
"F!.	c #4B755B",
"G!.	c #5A7F5D",
"H!.	c #68886C",
"I!.	c #759378",
"J!.	c #749277",
"K!.	c #567D59",
"L!.	c #6A886C",
"M!.	c #79917A",
"N!.	c #748F77",
"O!.	c #648369",
"P!.	c #6B866D",
"Q!.	c #8E9F90",
"R!.	c #93A190",
"S!.	c #939D85",
"T!.	c #869153",
"U!.	c #8B9562",
"V!.	c #627172",
"W!.	c #626B59",
"X!.	c #8C8F4C",
"Y!.	c #90934C",
"Z!.	c #9B9C7D",
"`!.	c #A1A18F",
" ~.	c #969783",
".~.	c #92937C",
"+~.	c #717972",
"@~.	c #384961",
"#~.	c #1A304F",
"$~.	c #1A2E4D",
"%~.	c #081D3F",
"&~.	c #081C3D",
"*~.	c #071C3A",
"=~.	c #051B37",
"-~.	c #071A33",
";~.	c #061730",
">~.	c #07162E",
",~.	c #051329",
"'~.	c #101B2B",
")~.	c #0C1726",
"!~.	c #0F1825",
"~~.	c #07111D",
"{~.	c #071223",
"]~.	c #001330",
"^~.	c #001430",
"/~.	c #011430",
"(~.	c #021430",
"_~.	c #09182D",
":~.	c #08192F",
"<~.	c #081A30",
"[~.	c #071A2F",
"}~.	c #253F52",
"|~.	c #315578",
"1~.	c #1E4576",
"2~.	c #224879",
"3~.	c #1C4174",
"4~.	c #294B7B",
"5~.	c #13386D",
"6~.	c #163A6E",
"7~.	c #14376C",
"8~.	c #17396D",
"9~.	c #0B3268",
"0~.	c #0A3067",
"a~.	c #0E3269",
"b~.	c #0D3269",
"c~.	c #0D336A",
"d~.	c #0F346B",
"e~.	c #092C66",
"f~.	c #0B2F67",
"g~.	c #072D65",
"h~.	c #13346B",
"i~.	c #49648D",
"j~.	c #6980A1",
"k~.	c #61799D",
"l~.	c #667EA2",
"m~.	c #597399",
"n~.	c #5D769B",
"o~.	c #5E759A",
"p~.	c #536E95",
"q~.	c #4F6A93",
"r~.	c #2F4C7A",
"s~.	c #254374",
"t~.	c #1B3C6F",
"u~.	c #264576",
"v~.	c #5E7091",
"w~.	c #909FB5",
"x~.	c #889BB1",
"y~.	c #9FB1A6",
"z~.	c #85A286",
"A~.	c #6B9068",
"B~.	c #507D50",
"C~.	c #4A7848",
"D~.	c #718D4F",
"E~.	c #A5AC58",
"F~.	c #728F4E",
"G~.	c #587E4D",
"H~.	c #406E4B",
"I~.	c #3C6945",
"J~.	c #38683B",
"K~.	c #447047",
"L~.	c #5A7E5C",
"M~.	c #48724B",
"N~.	c #3C683E",
"O~.	c #3A663C",
"P~.	c #5B7D5C",
"Q~.	c #628165",
"R~.	c #597B5E",
"S~.	c #567859",
"T~.	c #718A73",
"U~.	c #6B8360",
"V~.	c #7C8B59",
"W~.	c #808D4F",
"X~.	c #7A894A",
"Y~.	c #838C49",
"Z~.	c #909149",
"`~.	c #95934A",
" {.	c #898C4E",
".{.	c #96997D",
"+{.	c #959880",
"@{.	c #92947E",
"#{.	c #7D846A",
"${.	c #2F4258",
"%{.	c #142C4D",
"&{.	c #102748",
"*{.	c #1B2E4B",
"={.	c #142644",
"-{.	c #0E2241",
";{.	c #071D3B",
">{.	c #102138",
",{.	c #081A32",
"'{.	c #07152B",
"){.	c #051326",
"!{.	c #091625",
"~{.	c #0C1624",
"{{.	c #0B1622",
"]{.	c #080F1C",
"^{.	c #02132C",
"/{.	c #01152F",
"({.	c #00142F",
"_{.	c #00142E",
":{.	c #01142D",
"<{.	c #02142E",
"[{.	c #2D4C66",
"}{.	c #1D4674",
"|{.	c #1F4576",
"1{.	c #193F71",
"2{.	c #2A4C7A",
"3{.	c #274878",
"4{.	c #274877",
"5{.	c #16386C",
"6{.	c #16366B",
"7{.	c #0E3167",
"8{.	c #17376B",
"9{.	c #0F3167",
"0{.	c #0C2F66",
"a{.	c #0B2F66",
"b{.	c #0C3168",
"c{.	c #11356A",
"d{.	c #10346A",
"e{.	c #092D66",
"f{.	c #0A2E66",
"g{.	c #0E3168",
"h{.	c #092D65",
"i{.	c #1B3A6E",
"j{.	c #344E7C",
"k{.	c #5A7397",
"l{.	c #7086A5",
"m{.	c #577095",
"n{.	c #405A85",
"o{.	c #3F5780",
"p{.	c #4D678E",
"q{.	c #4F688E",
"r{.	c #4F6489",
"s{.	c #1F3C6E",
"t{.	c #3E547D",
"u{.	c #6C7E9C",
"v{.	c #6B809E",
"w{.	c #4E6489",
"x{.	c #5C7597",
"y{.	c #688197",
"z{.	c #739578",
"A{.	c #829E6D",
"B{.	c #678C5C",
"C{.	c #6D8F6C",
"D{.	c #65864C",
"E{.	c #A8AE57",
"F{.	c #98A553",
"G{.	c #738C55",
"H{.	c #5E8148",
"I{.	c #53784F",
"J{.	c #3D6A3F",
"K{.	c #376539",
"L{.	c #366539",
"M{.	c #38663A",
"N{.	c #396539",
"O{.	c #39653A",
"P{.	c #426B41",
"Q{.	c #557548",
"R{.	c #53754C",
"S{.	c #446B47",
"T{.	c #3A633C",
"U{.	c #5A774E",
"V{.	c #78856E",
"W{.	c #7E8B4E",
"X{.	c #6E8244",
"Y{.	c #778645",
"Z{.	c #888D47",
"`{.	c #7E854B",
" ].	c #838A5D",
".].	c #818965",
"+].	c #788368",
"@].	c #616E57",
"#].	c #283C50",
"$].	c #142C4C",
"%].	c #122747",
"&].	c #0C2142",
"*].	c #0E213F",
"=].	c #071D3A",
"-].	c #0D1F38",
";].	c #081B34",
">].	c #0E1C32",
",].	c #0C1A2E",
"'].	c #061327",
")].	c #051224",
"!].	c #0F1826",
"~].	c #07111F",
"{].	c #07121F",
"]].	c #08121D",
"^].	c #07162A",
"/].	c #02152E",
"(].	c #03162F",
"_].	c #071937",
":].	c #081B30",
"<].	c #0C2339",
"[].	c #2A4E74",
"}].	c #183F6F",
"|].	c #224675",
"1].	c #183D6F",
"2].	c #183C6E",
"3].	c #204273",
"4].	c #2A4977",
"5].	c #294876",
"6].	c #34507B",
"7].	c #2A4674",
"8].	c #1C3B6D",
"9].	c #163569",
"0].	c #133368",
"a].	c #113369",
"b].	c #17366B",
"c].	c #1C3B6E",
"d].	c #16376B",
"e].	c #0D2F65",
"f].	c #0A2D63",
"g].	c #092C63",
"h].	c #0B2D63",
"i].	c #3F567F",
"j].	c #3C547E",
"k].	c #364E79",
"l].	c #37517D",
"m].	c #233F70",
"n].	c #42587E",
"o].	c #233D6C",
"p].	c #2D4775",
"q].	c #0C2D63",
"r].	c #253E6D",
"s].	c #3C5782",
"t].	c #2D4A78",
"u].	c #1D3C6D",
"v].	c #1D3C6E",
"w].	c #1C3E70",
"x].	c #2B4F73",
"y].	c #698868",
"z].	c #8CA26E",
"A].	c #819B66",
"B].	c #62885A",
"C].	c #8FA053",
"D].	c #9EA955",
"E].	c #738E51",
"F].	c #728D53",
"G].	c #7D9451",
"H].	c #5E7D47",
"I].	c #356339",
"J].	c #366438",
"K].	c #446C40",
"L].	c #476E41",
"M].	c #42693B",
"N].	c #627C43",
"O].	c #768B4F",
"P].	c #597844",
"Q].	c #5B7742",
"R].	c #577643",
"S].	c #718860",
"T].	c #536668",
"U].	c #758749",
"V].	c #728445",
"W].	c #778445",
"X].	c #778344",
"Y].	c #6D7D43",
"Z].	c #768044",
"`].	c #818448",
" ^.	c #727C4F",
".^.	c #6F7A50",
"+^.	c #65724B",
"@^.	c #2F404E",
"#^.	c #162A48",
"$^.	c #21324C",
"%^.	c #192A44",
"&^.	c #0A1E3B",
"*^.	c #071D38",
"=^.	c #132339",
"-^.	c #132237",
";^.	c #091930",
">^.	c #09172D",
",^.	c #041225",
"'^.	c #0C1625",
")^.	c #040F1E",
"!^.	c #091421",
"~^.	c #0C141F",
"{^.	c #091425",
"]^.	c #03132D",
"^^.	c #03142D",
"/^.	c #04152F",
"(^.	c #03132F",
"_^.	c #142340",
":^.	c #021232",
"<^.	c #01142E",
"[^.	c #03142E",
"}^.	c #07162B",
"|^.	c #07172C",
"1^.	c #07192F",
"2^.	c #081B31",
"3^.	c #081D32",
"4^.	c #081D34",
"5^.	c #142C46",
"6^.	c #254973",
"7^.	c #143B6C",
"8^.	c #1F4472",
"9^.	c #1E4271",
"0^.	c #173B6D",
"a^.	c #163A6B",
"b^.	c #15376A",
"c^.	c #254472",
"d^.	c #284775",
"e^.	c #143569",
"f^.	c #2A4673",
"g^.	c #264271",
"h^.	c #203E6F",
"i^.	c #133569",
"j^.	c #0B2E64",
"k^.	c #294472",
"l^.	c #344D77",
"m^.	c #0F3065",
"n^.	c #0C2D62",
"o^.	c #0B2C61",
"p^.	c #163468",
"q^.	c #445980",
"r^.	c #113165",
"s^.	c #1A3769",
"t^.	c #143366",
"u^.	c #0D2E64",
"v^.	c #0F2E63",
"w^.	c #05295F",
"x^.	c #092A60",
"y^.	c #1A386B",
"z^.	c #153568",
"A^.	c #133467",
"B^.	c #0B2D62",
"C^.	c #072A60",
"D^.	c #0B2F64",
"E^.	c #21426C",
"F^.	c #6F896E",
"G^.	c #879E6A",
"H^.	c #92A357",
"I^.	c #92A154",
"J^.	c #8A9B55",
"K^.	c #92A053",
"L^.	c #78904D",
"M^.	c #768F4C",
"N^.	c #728C4A",
"O^.	c #658147",
"P^.	c #4C7241",
"Q^.	c #416A3D",
"R^.	c #40693A",
"S^.	c #3D6538",
"T^.	c #59763F",
"U^.	c #7E8E4A",
"V^.	c #738749",
"W^.	c #728750",
"X^.	c #678047",
"Y^.	c #5F7B44",
"Z^.	c #495F52",
"`^.	c #5D7548",
" /.	c #6E7F43",
"./.	c #718043",
"+/.	c #758143",
"@/.	c #737E42",
"#/.	c #747E41",
"$/.	c #747C4A",
"%/.	c #697654",
"&/.	c #657148",
"*/.	c #59683F",
"=/.	c #24384C",
"-/.	c #273851",
";/.	c #364459",
">/.	c #25354D",
",/.	c #0E213E",
"'/.	c #233046",
")/.	c #071B37",
"!/.	c #232F42",
"~/.	c #23303D",
"{/.	c #232D37",
"]/.	c #06152C",
"^/.	c #051327",
"//.	c #0B1728",
"(/.	c #121D2A",
"_/.	c #08111E",
":/.	c #0B131E",
"</.	c #0B121D",
"[/.	c #02122D",
"}/.	c #03142F",
"|/.	c #051531",
"1/.	c #051633",
"2/.	c #041532",
"3/.	c #00132E",
"4/.	c #01142F",
"5/.	c #00142D",
"6/.	c #00132C",
"7/.	c #02132D",
"8/.	c #08182E",
"9/.	c #071C32",
"0/.	c #061B33",
"a/.	c #071B34",
"b/.	c #1A3452",
"c/.	c #274A74",
"d/.	c #143A6A",
"e/.	c #193E6D",
"f/.	c #244674",
"g/.	c #1A3D6D",
"h/.	c #244472",
"i/.	c #284674",
"j/.	c #264471",
"k/.	c #264472",
"l/.	c #2F4C78",
"m/.	c #213E6E",
"n/.	c #2B4875",
"o/.	c #173769",
"p/.	c #0F3165",
"q/.	c #0E3064",
"r/.	c #0D2F64",
"s/.	c #133265",
"t/.	c #264270",
"u/.	c #0E2E63",
"v/.	c #103063",
"w/.	c #243E6D",
"x/.	c #123165",
"y/.	c #1C3A6A",
"z/.	c #133164",
"A/.	c #0A2B60",
"B/.	c #193465",
"C/.	c #1A3465",
"D/.	c #173466",
"E/.	c #0B2B5F",
"F/.	c #0B2B60",
"G/.	c #092A5F",
"H/.	c #072A5F",
"I/.	c #072A5E",
"J/.	c #082B60",
"K/.	c #082C60",
"L/.	c #0F3366",
"M/.	c #1A3F6C",
"N/.	c #738E5C",
"O/.	c #839856",
"P/.	c #91A153",
"Q/.	c #8C9D51",
"R/.	c #82954E",
"S/.	c #6E894C",
"T/.	c #82944D",
"U/.	c #8A994D",
"V/.	c #8B984F",
"W/.	c #71894A",
"X/.	c #4A6F3E",
"Y/.	c #658045",
"Z/.	c #87944B",
"`/.	c #81904A",
" (.	c #7F8F4A",
".(.	c #728747",
"+(.	c #627C44",
"@(.	c #647D44",
"#(.	c #587541",
"$(.	c #637747",
"%(.	c #455754",
"&(.	c #748146",
"*(.	c #687548",
"=(.	c #667642",
"-(.	c #6D7840",
";(.	c #727C49",
">(.	c #67724A",
",(.	c #66724D",
"'(.	c #59683C",
")(.	c #58663D",
"!(.	c #43534C",
"~(.	c #334257",
"{(.	c #23344C",
"](.	c #213247",
"^(.	c #0D203B",
"/(.	c #19273C",
"((.	c #283444",
"_(.	c #323D37",
":(.	c #303839",
"<(.	c #0F1B2A",
"[(.	c #101A29",
"}(.	c #071221",
"|(.	c #06101E",
"1(.	c #07111E",
"2(.	c #09111C",
"3(.	c #07162F",
"4(.	c #051431",
"5(.	c #041430",
"6(.	c #081834",
"7(.	c #03122E",
"8(.	c #0A192E",
"9(.	c #09192E",
"0(.	c #08192E",
"a(.	c #0B1D33",
"b(.	c #091B31",
"c(.	c #0A1B30",
"d(.	c #405067",
"e(.	c #425269",
"f(.	c #0B1E33",
"g(.	c #233F5D",
"h(.	c #284A72",
"i(.	c #1D416C",
"j(.	c #173968",
"k(.	c #274773",
"l(.	c #1C3D6C",
"m(.	c #1B3C6B",
"n(.	c #213F6D",
"o(.	c #244370",
"p(.	c #20406E",
"q(.	c #23416F",
"r(.	c #22416F",
"s(.	c #203E6D",
"t(.	c #244270",
"u(.	c #163668",
"v(.	c #163667",
"w(.	c #0C2D61",
"x(.	c #173566",
"y(.	c #324973",
"z(.	c #133264",
"A(.	c #24406D",
"B(.	c #485C7F",
"C(.	c #1D3564",
"D(.	c #193565",
"E(.	c #09295E",
"F(.	c #153263",
"G(.	c #375078",
"H(.	c #496085",
"I(.	c #334D76",
"J(.	c #123162",
"K(.	c #092A5D",
"L(.	c #05275B",
"M(.	c #05285B",
"N(.	c #06285B",
"O(.	c #092B5E",
"P(.	c #0F3264",
"Q(.	c #14396A",
"R(.	c #5E7161",
"S(.	c #83974F",
"T(.	c #899A50",
"U(.	c #7D924C",
"V(.	c #547943",
"W(.	c #5A7B45",
"X(.	c #728A4A",
"Y(.	c #7C904B",
"Z(.	c #738A4A",
"`(.	c #6B8649",
" _.	c #6B8447",
"._.	c #6F8647",
"+_.	c #6C8346",
"@_.	c #808E49",
"#_.	c #7C8B48",
"$_.	c #6B8044",
"%_.	c #657B47",
"&_.	c #5A7641",
"*_.	c #577141",
"=_.	c #586E45",
"-_.	c #566C43",
";_.	c #5D6E49",
">_.	c #6F7A41",
",_.	c #747D4C",
"'_.	c #737C66",
")_.	c #757D63",
"!_.	c #54663E",
"~_.	c #5A693F",
"{_.	c #55633B",
"]_.	c #5B6641",
"^_.	c #4F5D45",
"/_.	c #26374D",
"(_.	c #233249",
"__.	c #202F45",
":_.	c #212F43",
"<_.	c #0D2038",
"[_.	c #102036",
"}_.	c #283430",
"|_.	c #374034",
"1_.	c #1B282C",
"2_.	c #0B1729",
"3_.	c #0C1827",
"4_.	c #051120",
"5_.	c #09121F",
"6_.	c #041326",
"7_.	c #04152E",
"8_.	c #0E1E38",
"9_.	c #04142E",
"0_.	c #061731",
"a_.	c #01122C",
"b_.	c #03152F",
"c_.	c #08182C",
"d_.	c #0A1B32",
"e_.	c #081C2F",
"f_.	c #081E34",
"g_.	c #0B1D32",
"h_.	c #0A1F33",
"i_.	c #2A4665",
"j_.	c #2E4F74",
"k_.	c #173967",
"l_.	c #143664",
"m_.	c #1A3B69",
"n_.	c #20416E",
"o_.	c #36547C",
"p_.	c #3E5B81",
"q_.	c #2C4A74",
"r_.	c #284772",
"s_.	c #304D77",
"t_.	c #2E4B76",
"u_.	c #2D4A75",
"v_.	c #2E4B75",
"w_.	c #2F4A75",
"x_.	c #173565",
"y_.	c #123061",
"z_.	c #253F6C",
"A_.	c #26416C",
"B_.	c #2E4670",
"C_.	c #334B74",
"D_.	c #1E3866",
"E_.	c #213A67",
"F_.	c #08295C",
"G_.	c #1C3765",
"H_.	c #385178",
"I_.	c #4B6386",
"J_.	c #3B547B",
"K_.	c #27426E",
"L_.	c #1A3866",
"M_.	c #123060",
"N_.	c #0D2D5D",
"O_.	c #0B2C5C",
"P_.	c #0C2E5E",
"Q_.	c #113362",
"R_.	c #133664",
"S_.	c #808D59",
"T_.	c #6D8648",
"U_.	c #6D8749",
"V_.	c #7E914B",
"W_.	c #7A8E4B",
"X_.	c #708849",
"Y_.	c #6E8648",
"Z_.	c #698247",
"`_.	c #688146",
" :.	c #647E45",
".:.	c #617C43",
"+:.	c #6E8245",
"@:.	c #708345",
"#:.	c #697C44",
"$:.	c #637947",
"%:.	c #637842",
"&:.	c #4E6449",
"*:.	c #586F42",
"=:.	c #5D7240",
"-:.	c #61723F",
";:.	c #697640",
">:.	c #606F3F",
",:.	c #5C685C",
"':.	c #5D6A47",
"):.	c #56653B",
"!:.	c #546239",
"~:.	c #576339",
"{:.	c #556141",
"]:.	c #525E49",
"^:.	c #414C5C",
"/:.	c #28364A",
"(:.	c #17283F",
"_:.	c #091C35",
"::.	c #041931",
"<:.	c #242E2F",
"[:.	c #3D4330",
"}:.	c #2A342E",
"|:.	c #111D2E",
"1:.	c #121D2B",
"2:.	c #030F1F",
"3:.	c #08111B",
"4:.	c #0C141D",
"5:.	c #051124",
"6:.	c #061630",
"7:.	c #051530",
"8:.	c #051630",
"9:.	c #02122C",
"0:.	c #00112B",
"a:.	c #091A2F",
"b:.	c #091C33",
"c:.	c #0A1C33",
"d:.	c #091C2F",
"e:.	c #081E32",
"f:.	c #0C2037",
"g:.	c #0D1D35",
"h:.	c #0B1D2F",
"i:.	c #102235",
"j:.	c #334F6B",
"k:.	c #304F74",
"l:.	c #123562",
"m:.	c #103462",
"n:.	c #254570",
"o:.	c #2D4C75",
"p:.	c #3B577D",
"q:.	c #294672",
"r:.	c #203E6B",
"s:.	c #274571",
"t:.	c #25426F",
"u:.	c #193867",
"v:.	c #193866",
"w:.	c #213F6C",
"x:.	c #213E6A",
"y:.	c #213C68",
"z:.	c #163261",
"A:.	c #0A2B5C",
"B:.	c #30446B",
"C:.	c #2F466E",
"D:.	c #213B67",
"E:.	c #203B68",
"F:.	c #052659",
"G:.	c #0B2A5C",
"H:.	c #233E69",
"I:.	c #385179",
"J:.	c #344D75",
"K:.	c #3B547A",
"L:.	c #28456E",
"M:.	c #133260",
"N:.	c #0E2E5D",
"O:.	c #113160",
"P:.	c #113260",
"Q:.	c #71795D",
"R:.	c #657F47",
"S:.	c #728848",
"T:.	c #7D8F4B",
"U:.	c #778B49",
"V:.	c #7C8D4A",
"W:.	c #698246",
"X:.	c #6B8247",
"Y:.	c #6F8447",
"Z:.	c #6D8246",
"`:.	c #627B44",
" <.	c #647B43",
".<.	c #5C7741",
"+<.	c #546F3F",
"@<.	c #597342",
"#<.	c #627640",
"$<.	c #617541",
"%<.	c #586E3F",
"&<.	c #60713F",
"*<.	c #64733F",
"=<.	c #5B6E3E",
"-<.	c #5D6C3D",
";<.	c #6A7446",
"><.	c #4D594F",
",<.	c #495A43",
"'<.	c #526240",
")<.	c #556240",
"!<.	c #525F3C",
"~<.	c #59634A",
"{<.	c #4E5843",
"]<.	c #1C2C44",
"^<.	c #212F44",
"/<.	c #132233",
"(<.	c #343C35",
"_<.	c #3F432E",
":<.	c #3D4237",
"<<.	c #17232A",
"[<.	c #030C1A",
"}<.	c #07111C",
"|<.	c #050E1B",
"1<.	c #070E1B",
"2<.	c #051022",
"3<.	c #081630",
"4<.	c #06142D",
"5<.	c #05132D",
"6<.	c #04142D",
"7<.	c #01112B",
"8<.	c #01122B",
"9<.	c #081B33",
"0<.	c #0A1C36",
"a<.	c #0B1C34",
"b<.	c #0B1D31",
"c<.	c #0C1E34",
"d<.	c #0F1F37",
"e<.	c #0B1E30",
"f<.	c #0C1F31",
"g<.	c #112438",
"h<.	c #35516C",
"i<.	c #28486D",
"j<.	c #133561",
"k<.	c #1B3C67",
"l<.	c #1E3D69",
"m<.	c #1E3E6A",
"n<.	c #36537A",
"o<.	c #23416D",
"p<.	c #223F6B",
"q<.	c #1E3C69",
"r<.	c #183765",
"s<.	c #10305F",
"t<.	c #0D2E5E",
"u<.	c #1E3A67",
"v<.	c #243E69",
"w<.	c #233E68",
"x<.	c #3E5377",
"y<.	c #19335F",
"z<.	c #062859",
"A<.	c #032657",
"B<.	c #042657",
"C<.	c #032457",
"D<.	c #032456",
"E<.	c #062758",
"F<.	c #122F5E",
"G<.	c #364E75",
"H<.	c #364E76",
"I<.	c #324C73",
"J<.	c #27426B",
"K<.	c #1A3763",
"L<.	c #12325F",
"M<.	c #11315F",
"N<.	c #183864",
"O<.	c #48555F",
"P<.	c #7F8E4E",
"Q<.	c #7C8D4B",
"R<.	c #688147",
"S<.	c #6C8246",
"T<.	c #667E45",
"U<.	c #607A44",
"V<.	c #657D45",
"W<.	c #6B8045",
"X<.	c #5E7742",
"Y<.	c #607842",
"Z<.	c #597240",
"`<.	c #5A7240",
" [.	c #597041",
".[.	c #566C3F",
"+[.	c #586D3E",
"@[.	c #546A3C",
"#[.	c #5A6C3E",
"$[.	c #65723E",
"%[.	c #57673C",
"&[.	c #626E3E",
"*[.	c #636D43",
"=[.	c #4E5844",
"-[.	c #576352",
";[.	c #5A6651",
">[.	c #525F44",
",[.	c #545F46",
"'[.	c #5C6456",
")[.	c #4B554E",
"![.	c #1F2E43",
"~[.	c #0F2134",
"{[.	c #3D432E",
"][.	c #40432D",
"^[.	c #3E4134",
"/[.	c #2A332D",
"([.	c #0E1928",
"_[.	c #041120",
":[.	c #030C1B",
"<[.	c #050D1C",
"[[.	c #080F1B",
"}[.	c #050E1F",
"|[.	c #08152C",
"1[.	c #07152D",
"2[.	c #091630",
"3[.	c #06132D",
"4[.	c #05142C",
"5[.	c #03132C",
"6[.	c #02122B",
"7[.	c #01112A",
"8[.	c #081C32",
"9[.	c #0A1C34",
"0[.	c #0C1C34",
"a[.	c #0D1D32",
"b[.	c #0C1D30",
"c[.	c #0B1F32",
"d[.	c #0C1F34",
"e[.	c #13263E",
"f[.	c #334D6B",
"g[.	c #2A486C",
"h[.	c #153661",
"i[.	c #2E4D72",
"j[.	c #22416A",
"k[.	c #1E3D67",
"l[.	c #365378",
"m[.	c #25436D",
"n[.	c #163563",
"o[.	c #1D3B67",
"p[.	c #1A3965",
"q[.	c #153563",
"r[.	c #0F2F5E",
"s[.	c #102F5D",
"t[.	c #0D2C5B",
"u[.	c #0D2E5C",
"v[.	c #0E2D5B",
"w[.	c #2B4167",
"x[.	c #273F67",
"y[.	c #193360",
"z[.	c #072657",
"A[.	c #052557",
"B[.	c #042456",
"C[.	c #052455",
"D[.	c #0A2857",
"E[.	c #102B5A",
"F[.	c #27416A",
"G[.	c #344C72",
"H[.	c #2C466D",
"I[.	c #1E3A63",
"J[.	c #14315D",
"K[.	c #0E2D5A",
"L[.	c #1B3963",
"M[.	c #11325F",
"N[.	c #637552",
"O[.	c #708449",
"P[.	c #6B8049",
"Q[.	c #6B7F48",
"R[.	c #607943",
"S[.	c #577342",
"T[.	c #5D7643",
"U[.	c #5E7642",
"V[.	c #7F8946",
"W[.	c #808946",
"X[.	c #5B7140",
"Y[.	c #516A3E",
"Z[.	c #526A3D",
"`[.	c #50683D",
" }.	c #4D653B",
".}.	c #50663B",
"+}.	c #56693C",
"@}.	c #4F633C",
"#}.	c #5A6940",
"$}.	c #5D6A40",
"%}.	c #606B45",
"&}.	c #626C4D",
"*}.	c #62694E",
"=}.	c #5F6755",
"-}.	c #5A644E",
";}.	c #515C44",
">}.	c #525C4D",
",}.	c #535A54",
"'}.	c #2D3949",
")}.	c #0E2038",
"!}.	c #2B3746",
"~}.	c #283231",
"{}.	c #3C4129",
"]}.	c #3B402C",
"^}.	c #373C34",
"/}.	c #1D262E",
"(}.	c #0A1522",
"_}.	c #050F1D",
":}.	c #040C17",
"<}.	c #040B16",
"[}.	c #050F1F",
"}}.	c #0B152D",
"|}.	c #06152D",
"1}.	c #06142E",
"2}.	c #06142B",
"3}.	c #04122C",
"4}.	c #07162C",
"5}.	c #0A1A30",
"6}.	c #0B1B30",
"7}.	c #0C1D32",
"8}.	c #0B1C30",
"9}.	c #0D1E30",
"0}.	c #0B1D30",
"a}.	c #0C1F32",
"b}.	c #0D1E33",
"c}.	c #0E1F34",
"d}.	c #132439",
"e}.	c #2E4763",
"f}.	c #224064",
"g}.	c #173760",
"h}.	c #2E4C71",
"i}.	c #2C486E",
"j}.	c #213F67",
"k}.	c #2A486F",
"l}.	c #2A476E",
"m}.	c #26426B",
"n}.	c #1A3863",
"o}.	c #143560",
"p}.	c #12335F",
"q}.	c #0D2E5B",
"r}.	c #0D2B5A",
"s}.	c #14305D",
"t}.	c #112E5B",
"u}.	c #0C2857",
"v}.	c #0B2857",
"w}.	c #0A2757",
"x}.	c #092656",
"y}.	c #082656",
"z}.	c #082555",
"A}.	c #072454",
"B}.	c #082454",
"C}.	c #0D2957",
"D}.	c #1F3862",
"E}.	c #2E466D",
"F}.	c #213D64",
"G}.	c #203B63",
"H}.	c #1E3861",
"I}.	c #294369",
"J}.	c #586163",
"K}.	c #7D884E",
"L}.	c #697D47",
"M}.	c #6F7F4A",
"N}.	c #738149",
"O}.	c #5E7543",
"P}.	c #5C7343",
"Q}.	c #5A7242",
"R}.	c #586F40",
"S}.	c #637441",
"T}.	c #778044",
"U}.	c #657440",
"V}.	c #4F663B",
"W}.	c #4E653B",
"X}.	c #51673B",
"Y}.	c #4B6239",
"Z}.	c #5A6A3C",
"`}.	c #5A693C",
" |.	c #56653D",
".|.	c #53633D",
"+|.	c #586446",
"@|.	c #606A5A",
"#|.	c #5F6951",
"$|.	c #5D6651",
"%|.	c #606751",
"&|.	c #545F53",
"*|.	c #465242",
"=|.	c #2C3B3C",
"-|.	c #18293E",
";|.	c #16253A",
">|.	c #162337",
",|.	c #1E2A2A",
"'|.	c #3A3C27",
")|.	c #373A2D",
"!|.	c #252D2D",
"~|.	c #19202A",
"{|.	c #040D1C",
"]|.	c #030B1A",
"^|.	c #050D19",
"/|.	c #040B17",
"(|.	c #061021",
"_|.	c #0A182C",
":|.	c #0C172D",
"<|.	c #0A152B",
"[|.	c #09162C",
"}|.	c #05132B",
"||.	c #02112A",
"1|.	c #08172E",
"2|.	c #09182F",
"3|.	c #0A1930",
"4|.	c #0B1A2F",
"5|.	c #0B1A30",
"6|.	c #0A1B2E",
"7|.	c #0C1C32",
"8|.	c #0E1E33",
"9|.	c #0D1E32",
"0|.	c #0E1F33",
"a|.	c #0E1E32",
"b|.	c #0F1E31",
"c|.	c #101F32",
"d|.	c #122437",
"e|.	c #29415B",
"f|.	c #223F61",
"g|.	c #13335B",
"h|.	c #234166",
"i|.	c #2A476B",
"j|.	c #264369",
"k|.	c #28456B",
"l|.	c #324D72",
"m|.	c #2C476D",
"n|.	c #173761",
"o|.	c #12335E",
"p|.	c #12325E",
"q|.	c #11315D",
"r|.	c #16345F",
"s|.	c #0F2D5A",
"t|.	c #102C59",
"u|.	c #122D5A",
"v|.	c #0F2B59",
"w|.	c #112C59",
"x|.	c #092655",
"y|.	c #2D4469",
"z|.	c #0A2755",
"A|.	c #082453",
"B|.	c #0D2956",
"C|.	c #0A2655",
"D|.	c #0C2854",
"E|.	c #273F65",
"F|.	c #2B4369",
"G|.	c #263F65",
"H|.	c #334B6E",
"I|.	c #465B7A",
"J|.	c #898957",
"K|.	c #7A8648",
"L|.	c #717F49",
"M|.	c #677947",
"N|.	c #677946",
"O|.	c #617444",
"P|.	c #5B6F42",
"Q|.	c #5B6F40",
"R|.	c #586E40",
"S|.	c #566B3E",
"T|.	c #6D7641",
"U|.	c #747C43",
"V|.	c #616F3E",
"W|.	c #596A3C",
"X|.	c #58693C",
"Y|.	c #5C6A3C",
"Z|.	c #656F3E",
"`|.	c #5D683E",
" 1.	c #59653B",
".1.	c #59643C",
"+1.	c #58613C",
"@1.	c #5A613D",
"#1.	c #535F47",
"$1.	c #4F5B41",
"%1.	c #49553D",
"&1.	c #3E4A3C",
"*1.	c #16263B",
"=1.	c #081D36",
"-1.	c #061931",
";1.	c #13202C",
">1.	c #323725",
",1.	c #353623",
"'1.	c #272D24",
")1.	c #0F1824",
"!1.	c #0A101A",
"~1.	c #0D1322",
"{1.	c #0E172A",
"]1.	c #0A182B",
"^1.	c #09162B",
"/1.	c #0F1A30",
"(1.	c #08152A",
"_1.	c #03112B",
":1.	c #03122C",
"<1.	c #010E28",
"[1.	c #02102A",
"}1.	c #0B1C31",
"|1.	c #0B1C2F",
"11.	c #344053",
"21.	c #0F1E33",
"31.	c #0D1E31",
"41.	c #0F2034",
"51.	c #0F1F34",
"61.	c #0E1D31",
"71.	c #101E31",
"81.	c #121F31",
"91.	c #112132",
"01.	c #122134",
"a1.	c #253A51",
"b1.	c #203B5C",
"c1.	c #113056",
"d1.	c #18365C",
"e1.	c #234165",
"f1.	c #2A466A",
"g1.	c #2D486C",
"h1.	c #354F72",
"i1.	c #354F71",
"j1.	c #284368",
"k1.	c #1B3860",
"l1.	c #122F5A",
"m1.	c #14315B",
"n1.	c #102D59",
"o1.	c #122D59",
"p1.	c #0C2955",
"q1.	c #132E59",
"r1.	c #142E58",
"s1.	c #082452",
"t1.	c #18315B",
"u1.	c #223A60",
"v1.	c #072451",
"w1.	c #072450",
"x1.	c #072350",
"y1.	c #0A2752",
"z1.	c #112C56",
"A1.	c #132D56",
"B1.	c #2B4367",
"C1.	c #284165",
"D1.	c #395070",
"E1.	c #616977",
"F1.	c #837B50",
"G1.	c #7E8249",
"H1.	c #727C46",
"I1.	c #6F7C45",
"J1.	c #6E7A45",
"K1.	c #6D7843",
"L1.	c #6B7542",
"M1.	c #6D7642",
"N1.	c #687341",
"O1.	c #667140",
"P1.	c #6D7341",
"Q1.	c #6E7541",
"R1.	c #656E3F",
"S1.	c #606B3C",
"T1.	c #606B3D",
"U1.	c #616A3C",
"V1.	c #515D3D",
"W1.	c #565F3E",
"X1.	c #576239",
"Y1.	c #555F39",
"Z1.	c #545C36",
"`1.	c #505939",
" 2.	c #47543E",
".2.	c #414E35",
"+2.	c #364342",
"@2.	c #13243B",
"#2.	c #071C34",
"$2.	c #04162D",
"%2.	c #06162B",
"&2.	c #2F362C",
"*2.	c #35372A",
"=2.	c #2E3126",
"-2.	c #1A2128",
";2.	c #0C131E",
">2.	c #181C23",
",2.	c #212328",
"'2.	c #1A1D23",
")2.	c #1F2A35",
"!2.	c #192C46",
"~2.	c #0C1D3B",
"{2.	c #0C172F",
"]2.	c #0B182A",
"^2.	c #0B172C",
"/2.	c #111C31",
"(2.	c #09152B",
"_2.	c #0A162C",
":2.	c #08152B",
"<2.	c #07142B",
"[2.	c #07142C",
"}2.	c #06132C",
"|2.	c #06122C",
"12.	c #112136",
"22.	c #0C1D2F",
"32.	c #111F32",
"42.	c #111E30",
"52.	c #142132",
"62.	c #132232",
"72.	c #152233",
"82.	c #1C2738",
"92.	c #203247",
"02.	c #233C5A",
"a2.	c #122F55",
"b2.	c #153358",
"c2.	c #18355B",
"d2.	c #294466",
"e2.	c #304A6C",
"f2.	c #354E6F",
"g2.	c #324C6D",
"h2.	c #2F486C",
"i2.	c #233D62",
"j2.	c #15315A",
"k2.	c #143059",
"l2.	c #122E58",
"m2.	c #0D2A54",
"n2.	c #0C2953",
"o2.	c #112C55",
"p2.	c #0D2953",
"q2.	c #082550",
"r2.	c #384B6A",
"s2.	c #2B3F61",
"t2.	c #07244F",
"u2.	c #05234E",
"v2.	c #06234D",
"w2.	c #0C2750",
"x2.	c #183158",
"y2.	c #152E55",
"z2.	c #112B52",
"A2.	c #21395D",
"B2.	c #64666D",
"C2.	c #7F744E",
"D2.	c #797B47",
"E2.	c #7A7C48",
"F2.	c #7E7D48",
"G2.	c #7B7D46",
"H2.	c #7A7C45",
"I2.	c #737743",
"J2.	c #747642",
"K2.	c #6E7341",
"L2.	c #69713F",
"M2.	c #666E3E",
"N2.	c #666D3E",
"O2.	c #636C3E",
"P2.	c #656B3D",
"Q2.	c #5E673B",
"R2.	c #556039",
"S2.	c #576139",
"T2.	c #586038",
"U2.	c #505A36",
"V2.	c #535A39",
"W2.	c #55593A",
"X2.	c #465138",
"Y2.	c #3F4D38",
"Z2.	c #39453F",
"`2.	c #16283E",
" 3.	c #081C34",
".3.	c #041830",
"+3.	c #07182F",
"@3.	c #0D1B2F",
"#3.	c #0D1A2D",
"$3.	c #141F2E",
"%3.	c #30342C",
"&3.	c #292C26",
"*3.	c #161D24",
"=3.	c #1B2027",
"-3.	c #1E2228",
";3.	c #1E2127",
">3.	c #151920",
",3.	c #131720",
"'3.	c #17324F",
")3.	c #091830",
"!3.	c #10172B",
"~3.	c #12172A",
"{3.	c #0F1629",
"]3.	c #0C162C",
"^3.	c #0D152C",
"/3.	c #0B152A",
"(3.	c #0A1529",
"_3.	c #091629",
":3.	c #08142A",
"<3.	c #071329",
"[3.	c #07132B",
"}3.	c #051129",
"|3.	c #05132A",
"13.	c #041229",
"23.	c #031129",
"33.	c #010F27",
"43.	c #08172D",
"53.	c #0C1B30",
"63.	c #142438",
"73.	c #101F31",
"83.	c #121F30",
"93.	c #132031",
"03.	c #131F2F",
"a3.	c #162132",
"b3.	c #192334",
"c3.	c #182434",
"d3.	c #1C2B3D",
"e3.	c #233953",
"f3.	c #193455",
"g3.	c #0F2D52",
"h3.	c #143156",
"i3.	c #233D5F",
"j3.	c #324C6B",
"k3.	c #314A6A",
"l3.	c #2E4869",
"m3.	c #284265",
"n3.	c #1D385D",
"o3.	c #153057",
"p3.	c #122D55",
"q3.	c #102B53",
"r3.	c #0A274F",
"s3.	c #09264E",
"t3.	c #20365A",
"u3.	c #172F55",
"v3.	c #07234C",
"w3.	c #07224B",
"x3.	c #08234C",
"y3.	c #1E3558",
"z3.	c #263D5E",
"A3.	c #0C274D",
"B3.	c #142D53",
"C3.	c #4A596E",
"D3.	c #776E57",
"E3.	c #797648",
"F3.	c #777546",
"G3.	c #7B784A",
"H3.	c #787447",
"I3.	c #767645",
"J3.	c #737343",
"K3.	c #747243",
"L3.	c #727143",
"M3.	c #6E6E40",
"N3.	c #686C3F",
"O3.	c #62693D",
"P3.	c #666A3E",
"Q3.	c #61663C",
"R3.	c #5C623A",
"S3.	c #535D37",
"T3.	c #515A37",
"U3.	c #555D42",
"V3.	c #595F4A",
"W3.	c #4F573D",
"X3.	c #4C543A",
"Y3.	c #495241",
"Z3.	c #3E4940",
"`3.	c #152132",
" 4.	c #152131",
".4.	c #131E2D",
"+4.	c #242B34",
"@4.	c #18202B",
"#4.	c #151B24",
"$4.	c #191D25",
"%4.	c #0C1421",
"&4.	c #151729",
"*4.	c #131E38",
"=4.	c #0F172D",
"-4.	c #11162B",
";4.	c #11162A",
">4.	c #0E152A",
",4.	c #0E162B",
"'4.	c #0D152A",
")4.	c #091528",
"!4.	c #081428",
"~4.	c #081329",
"{4.	c #09142C",
"]4.	c #08132C",
"^4.	c #06122A",
"/4.	c #041028",
"(4.	c #030F27",
"_4.	c #08172B",
":4.	c #0B1A2E",
"<4.	c #0D1C30",
"[4.	c #0D1C2E",
"}4.	c #0F1E32",
"|4.	c #142334",
"14.	c #102030",
"24.	c #121F32",
"34.	c #121F33",
"44.	c #17273A",
"54.	c #162133",
"64.	c #192232",
"74.	c #1A2233",
"84.	c #1A2432",
"94.	c #1A2331",
"04.	c #1E2736",
"a4.	c #22344A",
"b4.	c #15304F",
"c4.	c #0D2A4E",
"d4.	c #0B2A4F",
"e4.	c #163255",
"f4.	c #274161",
"g4.	c #2F4866",
"h4.	c #314A68",
"i4.	c #284162",
"j4.	c #203A5D",
"k4.	c #183156",
"l4.	c #102B51",
"m4.	c #102A51",
"n4.	c #0D274F",
"o4.	c #0B264E",
"p4.	c #0F294F",
"q4.	c #0F284F",
"r4.	c #152E53",
"s4.	c #0A254C",
"t4.	c #07234B",
"u4.	c #1B3255",
"v4.	c #132D52",
"w4.	c #2A4261",
"x4.	c #374862",
"y4.	c #64554A",
"z4.	c #6F6645",
"A4.	c #706E45",
"B4.	c #6E6E42",
"C4.	c #686B42",
"D4.	c #6A6942",
"E4.	c #6F6C44",
"F4.	c #6D6A43",
"G4.	c #6A6841",
"H4.	c #6A6940",
"I4.	c #66673E",
"J4.	c #66673D",
"K4.	c #62623D",
"L4.	c #5F5D3E",
"M4.	c #505735",
"N4.	c #515738",
"O4.	c #515437",
"P4.	c #4E5339",
"Q4.	c #4C533E",
"R4.	c #4A5243",
"S4.	c #4A5041",
"T4.	c #464E43",
"U4.	c #3F4747",
"V4.	c #172437",
"W4.	c #142133",
"X4.	c #121E2D",
"Y4.	c #18212E",
"Z4.	c #101823",
"`4.	c #0E1620",
" 5.	c #131922",
".5.	c #0F151F",
"+5.	c #050C17",
"@5.	c #151929",
"#5.	c #171A2E",
"$5.	c #171A2C",
"%5.	c #141930",
"&5.	c #12172C",
"*5.	c #12162C",
"=5.	c #11172C",
"-5.	c #10182C",
";5.	c #10172A",
">5.	c #0E162A",
",5.	c #0D162A",
"'5.	c #0B1529",
")5.	c #0A1528",
"!5.	c #091428",
"~5.	c #0A152A",
"{5.	c #09142A",
"]5.	c #08132B",
"^5.	c #07132A",
"/5.	c #05112A",
"(5.	c #051128",
"_5.	c #09182B",
":5.	c #09192B",
"<5.	c #0A192C",
"[5.	c #0B1A2D",
"}5.	c #0F1A2C",
"|5.	c #111C2E",
"15.	c #121D2F",
"25.	c #141D30",
"35.	c #132035",
"45.	c #223649",
"55.	c #4C6978",
"65.	c #172336",
"75.	c #192131",
"85.	c #1A2230",
"95.	c #1D2432",
"05.	c #1E2432",
"a5.	c #1F2531",
"b5.	c #202531",
"c5.	c #202A3A",
"d5.	c #1E334C",
"e5.	c #152F4E",
"f5.	c #122D4E",
"g5.	c #173153",
"h5.	c #1F3959",
"i5.	c #2A4361",
"j5.	c #2A4362",
"k5.	c #1F395A",
"l5.	c #193356",
"m5.	c #1A3355",
"n5.	c #1C3456",
"o5.	c #193255",
"p5.	c #152F53",
"q5.	c #0C284E",
"r5.	c #0B264D",
"s5.	c #142D51",
"t5.	c #253C5B",
"u5.	c #233757",
"v5.	c #0B274D",
"w5.	c #0A264C",
"x5.	c #182F51",
"y5.	c #1C3354",
"z5.	c #1D3555",
"A5.	c #233B5A",
"B5.	c #243450",
"C5.	c #5E544D",
"D5.	c #736B52",
"E5.	c #686743",
"F5.	c #666541",
"G5.	c #636340",
"H5.	c #63623F",
"I5.	c #646240",
"J5.	c #61603D",
"K5.	c #61613C",
"L5.	c #60603B",
"M5.	c #5D5D39",
"N5.	c #585837",
"O5.	c #4F5235",
"P5.	c #4D5136",
"Q5.	c #4E523D",
"R5.	c #50564B",
"S5.	c #4F5551",
"T5.	c #484F50",
"U5.	c #384147",
"V5.	c #1D2939",
"W5.	c #0C1B2E",
"X5.	c #101D2D",
"Y5.	c #071425",
"Z5.	c #081424",
"`5.	c #0E1724",
" 6.	c #0A141F",
".6.	c #06101B",
"+6.	c #09101C",
"@6.	c #060E18",
"#6.	c #0D121D",
"$6.	c #1A1A2A",
"%6.	c #19192D",
"&6.	c #18182A",
"*6.	c #18182B",
"=6.	c #1C1E32",
"-6.	c #16192C",
";6.	c #14172B",
">6.	c #12162A",
",6.	c #10152A",
"'6.	c #0F152B",
")6.	c #0E1528",
"!6.	c #0D1528",
"~6.	c #0C1528",
"{6.	c #0A1527",
"]6.	c #081429",
"^6.	c #071228",
"/6.	c #061329",
"(6.	c #041128",
"_6.	c #07132C",
":6.	c #061229",
"<6.	c #051127",
"[6.	c #041026",
"}6.	c #08162E",
"|6.	c #09172C",
"16.	c #0A182D",
"26.	c #152335",
"36.	c #0C192C",
"46.	c #0E1B2E",
"56.	c #101B2E",
"66.	c #121B2E",
"76.	c #101A2C",
"86.	c #111B2E",
"96.	c #121C2E",
"06.	c #131E30",
"a6.	c #141F30",
"b6.	c #171E32",
"c6.	c #162034",
"d6.	c #17293A",
"e6.	c #192132",
"f6.	c #18212F",
"g6.	c #1B2330",
"h6.	c #1C2431",
"i6.	c #1E2431",
"j6.	c #212632",
"k6.	c #212430",
"l6.	c #22262F",
"m6.	c #242731",
"n6.	c #1E283C",
"o6.	c #132B46",
"p6.	c #132D4B",
"q6.	c #1C3653",
"r6.	c #1C3654",
"s6.	c #253F5B",
"t6.	c #2D4461",
"u6.	c #1D3655",
"v6.	c #142F50",
"w6.	c #1A3152",
"x6.	c #09264B",
"y6.	c #1A3253",
"z6.	c #152F50",
"A6.	c #0C284C",
"B6.	c #0B274C",
"C6.	c #112B4E",
"D6.	c #2A405D",
"E6.	c #203655",
"F6.	c #213857",
"G6.	c #122C4E",
"H6.	c #0B264A",
"I6.	c #0C2649",
"J6.	c #082346",
"K6.	c #172F4F",
"L6.	c #1E3653",
"M6.	c #1C3552",
"N6.	c #1D324F",
"O6.	c #706758",
"P6.	c #655E48",
"Q6.	c #5D5B41",
"R6.	c #5C593F",
"S6.	c #5D593E",
"T6.	c #5C5A3E",
"U6.	c #5A593C",
"V6.	c #58573A",
"W6.	c #575738",
"X6.	c #535436",
"Y6.	c #4C5135",
"Z6.	c #4B513F",
"`6.	c #4F554B",
" 7.	c #535856",
".7.	c #4F5452",
"+7.	c #49504D",
"@7.	c #454B4A",
"#7.	c #2A3542",
"$7.	c #1D2A39",
"%7.	c #121F2F",
"&7.	c #111B29",
"*7.	c #161E29",
"=7.	c #121A24",
"-7.	c #121922",
";7.	c #151B23",
">7.	c #09121C",
",7.	c #0A101B",
"'7.	c #171824",
")7.	c #1F1D2B",
"!7.	c #1F1B2B",
"~7.	c #1E1B2C",
"{7.	c #1C1A2A",
"]7.	c #1B1929",
"^7.	c #1A1A2C",
"/7.	c #16192B",
"(7.	c #16182B",
"_7.	c #14182B",
":7.	c #13172B",
"<7.	c #101529",
"[7.	c #0D1427",
"}7.	c #0D1629",
"|7.	c #0B1429",
"17.	c #091328",
"27.	c #091327",
"37.	c #071226",
"47.	c #061227",
"57.	c #0A162E",
"67.	c #0B162D",
"77.	c #0C1A2D",
"87.	c #0F1A2E",
"97.	c #101A2E",
"07.	c #121A2D",
"a7.	c #131B2E",
"b7.	c #131C2F",
"c7.	c #122030",
"d7.	c #15202F",
"e7.	c #181F30",
"f7.	c #171F31",
"g7.	c #1A2332",
"h7.	c #1C2231",
"i7.	c #1C2331",
"j7.	c #1E2430",
"k7.	c #1F2430",
"l7.	c #2D303B",
"m7.	c #242632",
"n7.	c #262731",
"o7.	c #262630",
"p7.	c #292733",
"q7.	c #2F2F3D",
"r7.	c #1F293F",
"s7.	c #112945",
"t7.	c #152D49",
"u7.	c #1F3651",
"v7.	c #233B56",
"w7.	c #273E58",
"x7.	c #122C4B",
"y7.	c #0D2849",
"z7.	c #142D4D",
"A7.	c #122A4C",
"B7.	c #0E274A",
"C7.	c #18304F",
"D7.	c #1D3553",
"E7.	c #152E4E",
"F7.	c #1D3452",
"G7.	c #112B4B",
"H7.	c #102949",
"I7.	c #122949",
"J7.	c #0D2545",
"K7.	c #182E4C",
"L7.	c #122948",
"M7.	c #233852",
"N7.	c #34455C",
"O7.	c #595350",
"P7.	c #5D4D3F",
"Q7.	c #534B3C",
"R7.	c #544D3C",
"S7.	c #574F3D",
"T7.	c #574D3C",
"U7.	c #585241",
"V7.	c #565341",
"W7.	c #545341",
"X7.	c #50523F",
"Y7.	c #4D503D",
"Z7.	c #4C4F41",
"`7.	c #4B4F45",
" 8.	c #4B4F49",
".8.	c #4C5152",
"+8.	c #484D4C",
"@8.	c #414745",
"#8.	c #2E373E",
"$8.	c #1E2A37",
"%8.	c #1D2834",
"&8.	c #222A34",
"*8.	c #141B26",
"=8.	c #0D141F",
"-8.	c #090F1A",
";8.	c #191824",
">8.	c #25202F",
",8.	c #252230",
"'8.	c #221F2C",
")8.	c #201D2A",
"!8.	c #1C1A28",
"~8.	c #1D1B29",
"{8.	c #191929",
"]8.	c #171829",
"^8.	c #16172A",
"/8.	c #15172A",
"(8.	c #121629",
"_8.	c #101528",
":8.	c #0F1427",
"<8.	c #0F1528",
"[8.	c #0B1328",
"}8.	c #0A1226",
"|8.	c #0A1227",
"18.	c #091126",
"28.	c #061226",
"38.	c #071227",
"48.	c #061127",
"58.	c #061228",
"68.	c #061129",
"78.	c #0D1831",
"88.	c #0B162F",
"98.	c #0B172D",
"08.	c #0D192D",
"a8.	c #101A2D",
"b8.	c #141C2F",
"c8.	c #161E31",
"d8.	c #171E2F",
"e8.	c #1A1E2D",
"f8.	c #1A1F2E",
"g8.	c #192030",
"h8.	c #1C2230",
"i8.	c #1D2331",
"j8.	c #1F2330",
"k8.	c #252834",
"l8.	c #242531",
"m8.	c #262733",
"n8.	c #272732",
"o8.	c #282731",
"p8.	c #2B2A32",
"q8.	c #2D2B35",
"r8.	c #2E2B36",
"s8.	c #312B33",
"t8.	c #2E2A36",
"u8.	c #222A3E",
"v8.	c #142943",
"w8.	c #24384F",
"x8.	c #243951",
"y8.	c #273C54",
"z8.	c #233952",
"A8.	c #182F4C",
"B8.	c #172E4B",
"C8.	c #122B49",
"D8.	c #102948",
"E8.	c #0E2847",
"F8.	c #0B2645",
"G8.	c #092343",
"H8.	c #1C324E",
"I8.	c #213652",
"J8.	c #152B49",
"K8.	c #142A48",
"L8.	c #1D314E",
"M8.	c #223550",
"N8.	c #142846",
"O8.	c #122746",
"P8.	c #142946",
"Q8.	c #273A52",
"R8.	c #384555",
"S8.	c #595248",
"T8.	c #4F453B",
"U8.	c #4B4239",
"V8.	c #4B4539",
"W8.	c #4C4438",
"X8.	c #4F493E",
"Y8.	c #4F4C3F",
"Z8.	c #4B4D40",
"`8.	c #4A4D45",
" 9.	c #4C504D",
".9.	c #494D4B",
"+9.	c #444948",
"@9.	c #404645",
"#9.	c #3A4142",
"$9.	c #1E2734",
"%9.	c #202833",
"&9.	c #1A222D",
"*9.	c #0A131D",
"=9.	c #0A121C",
"-9.	c #0C101A",
";9.	c #1D1924",
">9.	c #28202F",
",9.	c #2B2231",
"'9.	c #29212F",
")9.	c #261F2D",
"!9.	c #292330",
"~9.	c #221D2A",
"{9.	c #1F1C2A",
"]9.	c #1E1B29",
"^9.	c #191828",
"/9.	c #181828",
"(9.	c #161728",
"_9.	c #151628",
":9.	c #141629",
"<9.	c #131629",
"[9.	c #121528",
"}9.	c #111528",
"|9.	c #0E1427",
"19.	c #0B1326",
"29.	c #0A1225",
"39.	c #091124",
"49.	c #061126",
"59.	c #061027",
"69.	c #051027",
"79.	c #0A142D",
"89.	c #0E1830",
"99.	c #0C172B",
"09.	c #11192D",
"a9.	c #131A2D",
"b9.	c #151C2F",
"c9.	c #161D30",
"d9.	c #151D2F",
"e9.	c #171F2E",
"f9.	c #1A1F2C",
"g9.	c #1B202F",
"h9.	c #1C2133",
"i9.	c #1E2133",
"j9.	c #1E2130",
"k9.	c #212331",
"l9.	c #242532",
"m9.	c #242430",
"n9.	c #282734",
"o9.	c #272632",
"p9.	c #282732",
"q9.	c #2A2831",
"r9.	c #2D2A33",
"s9.	c #312D37",
"t9.	c #322D38",
"u9.	c #342B33",
"v9.	c #352C33",
"w9.	c #382E34",
"x9.	c #362E37",
"y9.	c #2A2D3D",
"z9.	c #1F2F45",
"A9.	c #1F3349",
"B9.	c #273A4F",
"C9.	c #23374E",
"D9.	c #192E48",
"E9.	c #092241",
"F9.	c #152A46",
"G9.	c #152B47",
"H9.	c #0C2443",
"I9.	c #122946",
"J9.	c #172D48",
"K9.	c #142A47",
"L9.	c #152945",
"M9.	c #162A46",
"N9.	c #142845",
"O9.	c #172B46",
"P9.	c #182C46",
"Q9.	c #0E2240",
"R9.	c #1A2D46",
"S9.	c #304053",
"T9.	c #404349",
"U9.	c #454036",
"V9.	c #474036",
"W9.	c #443D33",
"X9.	c #423D32",
"Y9.	c #433F33",
"Z9.	c #403F34",
"`9.	c #41433A",
" 0.	c #424542",
".0.	c #404441",
"+0.	c #3C403C",
"@0.	c #393E3B",
"#0.	c #30373D",
"$0.	c #202934",
"%0.	c #17202A",
"&0.	c #0E1723",
"*0.	c #0C151F",
"=0.	c #101620",
"-0.	c #0F111B",
";0.	c #221A23",
">0.	c #2F212C",
",0.	c #342733",
"'0.	c #2F2330",
")0.	c #2E2330",
"!0.	c #2B222F",
"~0.	c #29202D",
"{0.	c #271E2B",
"]0.	c #251D2A",
"^0.	c #241E2D",
"/0.	c #251E2D",
"(0.	c #211A29",
"_0.	c #1E1A2A",
":0.	c #1B1927",
"<0.	c #1A1928",
"[0.	c #181827",
"}0.	c #161727",
"|0.	c #151629",
"10.	c #141529",
"20.	c #131428",
"30.	c #111427",
"40.	c #0D1326",
"50.	c #0C1326",
"60.	c #0B1225",
"70.	c #071225",
"80.	c #061125",
"90.	c #0C182E",
"00.	c #0C182D",
"a0.	c #0E192B",
"b0.	c #10192B",
"c0.	c #111A2B",
"d0.	c #131B2D",
"e0.	c #1F2638",
"f0.	c #161D2F",
"g0.	c #171E30",
"h0.	c #1D2333",
"i0.	c #1B1F2E",
"j0.	c #1A1E2C",
"k0.	c #1E212E",
"l0.	c #1D202F",
"m0.	c #1E2333",
"n0.	c #222530",
"o0.	c #252632",
"p0.	c #282631",
"q0.	c #292730",
"r0.	c #2C282F",
"s0.	c #2F2A31",
"t0.	c #312A31",
"u0.	c #312830",
"v0.	c #392F36",
"w0.	c #372C2F",
"x0.	c #392D30",
"y0.	c #3C2F31",
"z0.	c #3E3031",
"A0.	c #403032",
"B0.	c #41353C",
"C0.	c #332E3A",
"D0.	c #1E2538",
"E0.	c #1E2E41",
"F0.	c #213246",
"G0.	c #11263F",
"H0.	c #10253F",
"I0.	c #0B213D",
"J0.	c #112640",
"K0.	c #192B44",
"L0.	c #172A43",
"M0.	c #1D2F46",
"N0.	c #1A2D44",
"O0.	c #11253F",
"P0.	c #10243E",
"Q0.	c #1F3046",
"R0.	c #1A2B42",
"S0.	c #0A1E39",
"T0.	c #13253D",
"U0.	c #203045",
"V0.	c #293849",
"W0.	c #243346",
"X0.	c #28323C",
"Y0.	c #3B3C31",
"Z0.	c #38362B",
"`0.	c #333028",
" a.	c #322E27",
".a.	c #333128",
"+a.	c #35382F",
"@a.	c #333831",
"#a.	c #2E3533",
"$a.	c #262E33",
"%a.	c #111C2A",
"&a.	c #091524",
"*a.	c #0B1522",
"=a.	c #0C1520",
"-a.	c #0D151F",
";a.	c #10161E",
">a.	c #0C111A",
",a.	c #1A141C",
"'a.	c #2D1E23",
")a.	c #38242A",
"!a.	c #3A272D",
"~a.	c #38272F",
"{a.	c #382B33",
"]a.	c #31252E",
"^a.	c #2E222B",
"/a.	c #2E222C",
"(a.	c #2C1F2A",
"_a.	c #291E27",
":a.	c #281E27",
"<a.	c #281F29",
"[a.	c #241C28",
"}a.	c #231B28",
"|a.	c #1F1A27",
"1a.	c #1D1927",
"2a.	c #1B1926",
"3a.	c #191826",
"4a.	c #181725",
"5a.	c #171726",
"6a.	c #161627",
"7a.	c #141527",
"8a.	c #101427",
"9a.	c #0C1224",
"0a.	c #0C1325",
"aa.	c #0C1327",
"ba.	c #0B1327",
"ca.	c #081023",
"da.	c #081024",
"ea.	c #071125",
"fa.	c #051024",
"ga.	c #142033",
"ha.	c #0E192D",
"ia.	c #0F1A2D",
"ja.	c #0F192B",
"ka.	c #11192C",
"la.	c #131C2D",
"ma.	c #181E2F",
"na.	c #181F2E",
"oa.	c #3A4353",
"pa.	c #383F4F",
"qa.	c #1C2030",
"ra.	c #1F212F",
"sa.	c #222330",
"ta.	c #222430",
"ua.	c #252731",
"va.	c #252530",
"wa.	c #292731",
"xa.	c #2B2831",
"ya.	c #2D2830",
"za.	c #2E282F",
"Aa.	c #342A31",
"Ba.	c #362B32",
"Ca.	c #382C31",
"Da.	c #3C2F30",
"Ea.	c #403031",
"Fa.	c #423131",
"Ga.	c #443132",
"Ha.	c #473335",
"Ia.	c #473334",
"Ja.	c #483434",
"Ka.	c #402E33",
"La.	c #312833",
"Ma.	c #1B2033",
"Na.	c #0C1D34",
"Oa.	c #091D34",
"Pa.	c #0C2038",
"Qa.	c #11243B",
"Ra.	c #1D2D42",
"Sa.	c #18283E",
"Ta.	c #1F2D42",
"Ua.	c #223043",
"Va.	c #1E2C40",
"Wa.	c #1E2D3F",
"Xa.	c #212F40",
"Ya.	c #243141",
"Za.	c #1F2B3C",
"`a.	c #1E2B3B",
" b.	c #262F31",
".b.	c #282E2D",
"+b.	c #22282C",
"@b.	c #17222D",
"#b.	c #15202E",
"$b.	c #0D1928",
"%b.	c #0B1625",
"&b.	c #0A1422",
"*b.	c #181D24",
"=b.	c #1B1E24",
"-b.	c #171B21",
";b.	c #1B181E",
">b.	c #2E1D22",
",b.	c #3D2529",
"'b.	c #43292C",
")b.	c #41282B",
"!b.	c #3E262B",
"~b.	c #3B262B",
"{b.	c #3A262D",
"]b.	c #37272E",
"^b.	c #33242C",
"/b.	c #32242B",
"(b.	c #31222C",
"_b.	c #30212B",
":b.	c #2D2029",
"<b.	c #2B2028",
"[b.	c #291F28",
"}b.	c #261C27",
"|b.	c #241B27",
"1b.	c #211A27",
"2b.	c #181727",
"3b.	c #151626",
"4b.	c #131527",
"5b.	c #121527",
"6b.	c #0C1225",
"7b.	c #0A1124",
"8b.	c #091023",
"9b.	c #061024",
"0b.	c #041023",
"ab.	c #030F22",
"bb.	c #0D192E",
"cb.	c #0D1A2C",
"db.	c #0E1A2D",
"eb.	c #0F192C",
"fb.	c #131B2C",
"gb.	c #141B2C",
"hb.	c #151B2E",
"ib.	c #161B2E",
"jb.	c #191F2F",
"kb.	c #181E2D",
"lb.	c #343C4D",
"mb.	c #333A4A",
"nb.	c #1E2231",
"ob.	c #21222F",
"pb.	c #272631",
"qb.	c #282730",
"rb.	c #2C2830",
"sb.	c #2E2830",
"tb.	c #2F2830",
"ub.	c #322930",
"vb.	c #342A2F",
"wb.	c #372B30",
"xb.	c #3A2D31",
"yb.	c #3D2E32",
"zb.	c #3E2F31",
"Ab.	c #413031",
"Bb.	c #473131",
"Cb.	c #493231",
"Db.	c #4C3432",
"Eb.	c #4D3432",
"Fb.	c #4F3433",
"Gb.	c #523634",
"Hb.	c #563838",
"Ib.	c #533636",
"Jb.	c #503739",
"Kb.	c #3F2C32",
"Lb.	c #2B2430",
"Mb.	c #0C1D31",
"Nb.	c #101F33",
"Ob.	c #192738",
"Pb.	c #1C293A",
"Qb.	c #1A2637",
"Rb.	c #142234",
"Sb.	c #172434",
"Tb.	c #1D2A38",
"Ub.	c #222D39",
"Vb.	c #202B37",
"Wb.	c #192532",
"Xb.	c #131F2D",
"Yb.	c #111D2A",
"Zb.	c #111B28",
"`b.	c #0C1724",
" c.	c #0A1421",
".c.	c #15181F",
"+c.	c #1D1C22",
"@c.	c #2D2023",
"#c.	c #3E2728",
"$c.	c #482A2A",
"%c.	c #4D2C2B",
"&c.	c #4A2C2B",
"*c.	c #482A2C",
"=c.	c #45292A",
"-c.	c #42282B",
";c.	c #432C2F",
">c.	c #3F282D",
",c.	c #3A262B",
"'c.	c #39262B",
")c.	c #36242A",
"!c.	c #332229",
"~c.	c #322128",
"{c.	c #302127",
"]c.	c #2D2127",
"^c.	c #2B1F27",
"/c.	c #281D26",
"(c.	c #271C27",
"_c.	c #251B27",
":c.	c #231A27",
"<c.	c #211926",
"[c.	c #1F1927",
"}c.	c #1D1926",
"|c.	c #1B1826",
"1c.	c #181726",
"2c.	c #171625",
"3c.	c #131526",
"4c.	c #121426",
"5c.	c #111526",
"6c.	c #0F1326",
"7c.	c #0D1225",
"8c.	c #0B1124",
"9c.	c #061124",
"0c.	c #041124",
"ac.	c #031023",
"bc.	c #0E1A2F",
"cc.	c #0B182B",
"dc.	c #0F182D",
"ec.	c #12192C",
"fc.	c #171C2F",
"gc.	c #1A1E2E",
"hc.	c #1D202E",
"ic.	c #1C202E",
"jc.	c #1F202E",
"kc.	c #22212D",
"lc.	c #24232E",
"mc.	c #252531",
"nc.	c #27262F",
"oc.	c #29262E",
"pc.	c #2B272E",
"qc.	c #2F282F",
"rc.	c #332930",
"sc.	c #362B30",
"tc.	c #3C2E31",
"uc.	c #3E2E32",
"vc.	c #412F33",
"wc.	c #433134",
"xc.	c #473435",
"yc.	c #483232",
"zc.	c #4C3230",
"Ac.	c #503331",
"Bc.	c #523531",
"Cc.	c #553733",
"Dc.	c #573634",
"Ec.	c #5A3837",
"Fc.	c #5D3937",
"Gc.	c #5D3935",
"Hc.	c #6A4540",
"Ic.	c #633A35",
"Jc.	c #663C35",
"Kc.	c #583533",
"Lc.	c #4D2F30",
"Mc.	c #3B262C",
"Nc.	c #281E29",
"Oc.	c #151826",
"Pc.	c #121E2C",
"Qc.	c #17212E",
"Rc.	c #1A2430",
"Sc.	c #16202D",
"Tc.	c #0C1826",
"Uc.	c #081523",
"Vc.	c #091522",
"Wc.	c #091321",
"Xc.	c #08121E",
"Yc.	c #040D19",
"Zc.	c #030C17",
"`c.	c #070C17",
" d.	c #130F18",
".d.	c #27181C",
"+d.	c #3B2323",
"@d.	c #482927",
"#d.	c #542F2A",
"$d.	c #5A322D",
"%d.	c #5D332E",
"&d.	c #5A3230",
"*d.	c #57302E",
"=d.	c #552F2E",
"-d.	c #522E2D",
";d.	c #4F2D2C",
">d.	c #4A2B2A",
",d.	c #47292B",
"'d.	c #45292B",
")d.	c #43282C",
"!d.	c #40272B",
"~d.	c #3D252A",
"{d.	c #3A2428",
"]d.	c #382329",
"^d.	c #362227",
"/d.	c #332226",
"(d.	c #302227",
"_d.	c #2D2027",
":d.	c #291D26",
"<d.	c #271B26",
"[d.	c #261B27",
"}d.	c #251A27",
"|d.	c #221A27",
"1d.	c #1C1826",
"2d.	c #1A1826",
"3d.	c #191725",
"4d.	c #161524",
"5d.	c #171626",
"6d.	c #151525",
"7d.	c #131426",
"8d.	c #111325",
"9d.	c #101326",
"0d.	c #071124",
"ad.	c #051125",
"bd.	c #041024",
"cd.	c #0F192D",
"dd.	c #10182D",
"ed.	c #141B2D",
"fd.	c #161C2C",
"gd.	c #171D2D",
"hd.	c #1B1E2D",
"id.	c #1C202C",
"jd.	c #21212E",
"kd.	c #24222C",
"ld.	c #26242E",
"md.	c #282630",
"nd.	c #2A262F",
"od.	c #2C272E",
"pd.	c #2E272E",
"qd.	c #322830",
"rd.	c #342931",
"sd.	c #352A2F",
"td.	c #382B30",
"ud.	c #3B2C30",
"vd.	c #3F2E32",
"wd.	c #422F32",
"xd.	c #443133",
"yd.	c #473436",
"zd.	c #503C3D",
"Ad.	c #4D3333",
"Bd.	c #513432",
"Cd.	c #553532",
"Dd.	c #583732",
"Ed.	c #5B3935",
"Fd.	c #5C3836",
"Gd.	c #613A37",
"Hd.	c #633B34",
"Id.	c #643C34",
"Jd.	c #683C35",
"Kd.	c #6B3C33",
"Ld.	c #704036",
"Md.	c #724038",
"Nd.	c #73423A",
"Od.	c #754239",
"Pd.	c #764239",
"Qd.	c #764238",
"Rd.	c #744037",
"Sd.	c #6E3B33",
"Td.	c #67362F",
"Ud.	c #62332D",
"Vd.	c #5C322C",
"Wd.	c #522D29",
"Xd.	c #522D2B",
"Yd.	c #482A28",
"Zd.	c #422523",
"`d.	c #422321",
" e.	c #462420",
".e.	c #4E2822",
"+e.	c #4E2722",
"@e.	c #562C25",
"#e.	c #5C2F28",
"$e.	c #613128",
"%e.	c #68342B",
"&e.	c #6D372D",
"*e.	c #70392F",
"=e.	c #723B32",
"-e.	c #6F3A31",
";e.	c #6B372F",
">e.	c #68362F",
",e.	c #64352E",
"'e.	c #60342E",
")e.	c #5E322D",
"!e.	c #5B322D",
"~e.	c #59312C",
"{e.	c #56302C",
"]e.	c #522E2C",
"^e.	c #4F2D2B",
"/e.	c #4B2B2A",
"(e.	c #48292A",
"_e.	c #46282A",
":e.	c #44272B",
"<e.	c #41272A",
"[e.	c #3E2529",
"}e.	c #3C2528",
"|e.	c #392427",
"1e.	c #352326",
"2e.	c #322226",
"3e.	c #302126",
"4e.	c #2E2027",
"5e.	c #2C1F28",
"6e.	c #2A1D26",
"7e.	c #271B27",
"8e.	c #261A26",
"9e.	c #231927",
"0e.	c #201926",
"ae.	c #1C1927",
"be.	c #181624",
"ce.	c #161525",
"de.	c #151526",
"ee.	c #121326",
"fe.	c #0D1226",
"ge.	c #0C1125",
"he.	c #0B1024",
"ie.	c #0A0F23",
"je.	c #090E22",
"ke.	c #080F23",
"le.	c #070E24",
"me.	c #060E23",
"ne.	c #0C172E",
"oe.	c #0D182D",
"pe.	c #10172D",
"qe.	c #12182E",
"re.	c #12182C",
"se.	c #13192D",
"te.	c #141A2D",
"ue.	c #161B2C",
"ve.	c #181B2B",
"we.	c #1A1C2B",
"xe.	c #1C1D2C",
"ye.	c #20212D",
"ze.	c #1F1F2B",
"Ae.	c #23222F",
"Be.	c #26232D",
"Ce.	c #29242D",
"De.	c #2B252D",
"Ee.	c #2D262F",
"Fe.	c #30272F",
"Ge.	c #31282F",
"He.	c #342B32",
"Ie.	c #372A2F",
"Je.	c #392B2F",
"Ke.	c #3D2E30",
"Le.	c #3F2E2F",
"Me.	c #422F30",
"Ne.	c #493434",
"Oe.	c #493131",
"Pe.	c #4C3132",
"Qe.	c #503433",
"Re.	c #523433",
"Se.	c #573532",
"Te.	c #5A3631",
"Ue.	c #5B3832",
"Ve.	c #5E3932",
"We.	c #623B34",
"Xe.	c #653D34",
"Ye.	c #693D32",
"Ze.	c #6E3E33",
"`e.	c #703E33",
" f.	c #744134",
".f.	c #774134",
"+f.	c #7A4235",
"@f.	c #7D4337",
"#f.	c #7F4439",
"$f.	c #81463B",
"%f.	c #83473A",
"&f.	c #85463A",
"*f.	c #874537",
"=f.	c #884437",
"-f.	c #884335",
";f.	c #8E4638",
">f.	c #8C4435",
",f.	c #8B4435",
"'f.	c #8A4434",
")f.	c #894333",
"!f.	c #884334",
"~f.	c #864231",
"{f.	c #844032",
"]f.	c #813F31",
"^f.	c #7F3F31",
"/f.	c #7C3E31",
"(f.	c #793C2F",
"_f.	c #773B2E",
":f.	c #763B2E",
"<f.	c #71392E",
"[f.	c #6E3A30",
"}f.	c #6A382E",
"|f.	c #69372F",
"1f.	c #66352E",
"2f.	c #5F312C",
"3f.	c #5B302B",
"4f.	c #562E2C",
"5f.	c #542D2C",
"6f.	c #512D2C",
"7f.	c #4D2B2C",
"8f.	c #4A2A2C",
"9f.	c #47282B",
"0f.	c #45272A",
"af.	c #42272A",
"bf.	c #3E2629",
"cf.	c #3A2527",
"df.	c #382427",
"ef.	c #352226",
"ff.	c #322025",
"gf.	c #302027",
"hf.	c #2E1F27",
"if.	c #2C1D27",
"jf.	c #291D27",
"kf.	c #281B26",
"lf.	c #251A26",
"mf.	c #231925",
"nf.	c #201924",
"of.	c #1E1825",
"pf.	c #1D1825",
"qf.	c #1A1724",
"rf.	c #191724",
"sf.	c #141324",
"tf.	c #121224",
"uf.	c #101224",
"vf.	c #0F1123",
"wf.	c #0D1224",
"xf.	c #0C1124",
"yf.	c #0B1023",
"zf.	c #0A0F22",
"Af.	c #090F22",
"Bf.	c #080F22",
"Cf.	c #070E21",
"Df.	c #0B162C",
"Ef.	c #101B31",
"Ff.	c #13182C",
"Gf.	c #151A2E",
"Hf.	c #14192D",
"If.	c #151A2D",
"Jf.	c #181C2D",
"Kf.	c #1B1D2C",
"Lf.	c #1C1D2B",
"Mf.	c #1F1E2C",
"Nf.	c #20202C",
"Of.	c #21202C",
"Pf.	c #22222E",
"Qf.	c #25232F",
"Rf.	c #28242F",
"Sf.	c #2B242E",
"Tf.	c #2D252D",
"Uf.	c #30262F",
"Vf.	c #372D32",
"Wf.	c #3A2B2F",
"Xf.	c #3E2D31",
"Yf.	c #412F30",
"Zf.	c #442F30",
"`f.	c #493230",
" g.	c #4E3230",
".g.	c #513331",
"+g.	c #543532",
"@g.	c #583632",
"#g.	c #5C3732",
"$g.	c #5F3732",
"%g.	c #633B33",
"&g.	c #673C34",
"*g.	c #6A3D34",
"=g.	c #6F4135",
"-g.	c #723E33",
";g.	c #784035",
">g.	c #794133",
",g.	c #7D4234",
"'g.	c #804235",
")g.	c #844335",
"!g.	c #874536",
"~g.	c #8A4639",
"{g.	c #8C4839",
"]g.	c #8D4A39",
"^g.	c #904837",
"/g.	c #934736",
"(g.	c #954A37",
"_g.	c #974938",
":g.	c #974736",
"<g.	c #984735",
"[g.	c #974735",
"}g.	c #964734",
"|g.	c #954732",
"1g.	c #954733",
"2g.	c #944533",
"3g.	c #914432",
"4g.	c #8F4334",
"5g.	c #8D4334",
"6g.	c #8A4232",
"7g.	c #874033",
"8g.	c #834030",
"9g.	c #813E2F",
"0g.	c #7F3D2F",
"ag.	c #7B3C31",
"bg.	c #733A2F",
"cg.	c #713A2F",
"dg.	c #6D382D",
"eg.	c #6D392E",
"fg.	c #68362D",
"gg.	c #64342C",
"hg.	c #61322C",
"ig.	c #5C302C",
"jg.	c #592F2D",
"kg.	c #562E2D",
"lg.	c #4E2B2C",
"mg.	c #4B2A2A",
"ng.	c #472829",
"og.	c #452829",
"pg.	c #412728",
"qg.	c #3E2628",
"rg.	c #3B2527",
"sg.	c #392426",
"tg.	c #362226",
"ug.	c #352127",
"vg.	c #322027",
"wg.	c #2F1F27",
"xg.	c #2C1D26",
"yg.	c #291B25",
"zg.	c #261A24",
"Ag.	c #251A24",
"Bg.	c #221924",
"Cg.	c #201824",
"Dg.	c #1F1824",
"Eg.	c #1C1723",
"Fg.	c #191523",
"Gg.	c #171522",
"Hg.	c #161522",
"Ig.	c #151424",
"Jg.	c #131223",
"Kg.	c #111224",
"Lg.	c #101123",
"Mg.	c #0E1323",
"Ng.	c #091022",
"Og.	c #080F21",
"Pg.	c #111B32",
"Qg.	c #141A2F",
"Rg.	c #161C2D",
"Sg.	c #181D2D",
"Tg.	c #23222E",
"Ug.	c #23232F",
"Vg.	c #25242F",
"Wg.	c #29252F",
"Xg.	c #2C252E",
"Yg.	c #2F252D",
"Zg.	c #31262F",
"`g.	c #392E39",
" h.	c #372B34",
".h.	c #3A2C30",
"+h.	c #3D2B30",
"@h.	c #412D31",
"#h.	c #432E30",
"$h.	c #462E30",
"%h.	c #4A3030",
"&h.	c #4D3231",
"*h.	c #553531",
"=h.	c #613932",
"-h.	c #643932",
";h.	c #6B3E35",
">h.	c #6E3E35",
",h.	c #703E34",
"'h.	c #733E32",
")h.	c #783E33",
"!h.	c #7E3F34",
"~h.	c #804133",
"{h.	c #844434",
"]h.	c #894536",
"^h.	c #8C4637",
"/h.	c #8F4738",
"(h.	c #924736",
"_h.	c #954937",
":h.	c #974A37",
"<h.	c #9A4A35",
"[h.	c #9E4935",
"}h.	c #9E4A35",
"|h.	c #9F4936",
"1h.	c #A04835",
"2h.	c #A24935",
"3h.	c #A14A35",
"4h.	c #A14A34",
"5h.	c #A04A32",
"6h.	c #A14A33",
"7h.	c #A04934",
"8h.	c #9D4733",
"9h.	c #9A4631",
"0h.	c #974632",
"ah.	c #954532",
"bh.	c #924430",
"ch.	c #8F4232",
"dh.	c #8C4231",
"eh.	c #8A4030",
"fh.	c #853E2E",
"gh.	c #823E30",
"hh.	c #7B3C2F",
"ih.	c #7C4134",
"jh.	c #733B2E",
"kh.	c #70392D",
"lh.	c #6C372C",
"mh.	c #6A362D",
"nh.	c #66352D",
"oh.	c #5D312C",
"ph.	c #592F2B",
"qh.	c #552D2B",
"rh.	c #522C2B",
"sh.	c #4F2C2A",
"th.	c #4B2A29",
"uh.	c #472827",
"vh.	c #452828",
"wh.	c #412727",
"xh.	c #3E2626",
"yh.	c #3C2426",
"zh.	c #392225",
"Ah.	c #362125",
"Bh.	c #332025",
"Ch.	c #301E25",
"Dh.	c #2D1D27",
"Eh.	c #2A1C25",
"Fh.	c #271B24",
"Gh.	c #251B24",
"Hh.	c #241A24",
"Ih.	c #221A26",
"Jh.	c #1F1825",
"Kh.	c #1B1725",
"Lh.	c #181623",
"Mh.	c #171523",
"Nh.	c #121423",
"Oh.	c #111223",
"Ph.	c #0F1424",
"Qh.	c #0D1325",
"   .  +  @  #  $  %  &  *  =  -  ;  >  ,  '  )  !  ~  {  ]  ^  /  (  _  :  <  [  }  |  1  2  3  4  5  6  7  8  9  0  a  b  c  d  e  f  g  h  i  j  k  l  m  n  o  p  q  r  s  t  u  v  w  x  y  z  A  B  z  C  D  E  F  G  H  I  J  K  L  M  N  O  P  Q  R  S  T  U  V  W  X  Y  Z  `   . .. +. @. #. $. %. &. *. =. -. ;. >. ,. '. ). !. ~. {. ]. ^. /. (. _. :. <. [. ",
"}. |. 1. 2. 3. $  4. 5. 6. 7. 8. 9. 0. a. b. c. d. e. f. g. h. i. j. (  k. l. m. n. o. p. q. r. s. t. u. v. w. x. y. z. A. B. B. C. D. E. F. F. G. H. z  I. J. K. L. M. N. O. P. Q. R. S. T. U. V. W. X. Y. Z. `.  + .+ ++ @+ #+ $+ %+ &+ *+ =+ -+ ;+ >+ ,+ '+ )+ !+ ~+ {+ ]+ ^+ /+ (+ _+ :+ <+ [+ }+ |+ 1+ 2+ 3+ 4+ 5+ 6+ 7+ 8+ 9+ 0+ a+ b+ c+ d+ e+ f+ g+ h+ i+ j+ k+ ",
"l+ |. m+ n+ 3. o+ p+ q+ r+ s+ t+ u+ v+ w+ x+ y+ z+ A+ B+ C+ D+ E+ F+ G+ H+ I+ :  J+ K+ L+ M+ N+ q. O+ P+ Q+ R+ 5  S+ T+ U+ V+ W+ X+ A. Y+ Z+ `+ D. a   @  @ .@ +@ @@ #@ $@ %@ +@ &@ E. *@ G  =@ -@ ;@ ;@ >@ ,@ '@ )@ !@ ~@ {@ ]@ ^@ /@ (@ _@ :@ <@ [@ }@ |@ 1@ 2@ 3@ 4@ 5@ 6@ 7@ 8@ 9@ 0@ a@ b@ c@ d@ e@ f@ g@ h@ 5+ i@ j@ k@ l@ m@ n@ o@ p@ q@ r@ s@ t@ u@ v@ w@ x@ y@ ",
"z@ A@ B@ n+ C@ D@ E@ F@ G@ H@ I@ J@ K@ L@ M@ N@ O@ P@ Q@ R@ S@ T@ U@ V@ W@ X@ Y@ Z@ `@  # .# +# M+ @# ## $# %# &# *# =# -# ;# ># ,# '# )# !# ~# {# ]# ^# /# (# _# :# <# [# }# |# 1# 2# 3# 4# 5# 6# 7# 8# 9# 0# a# b# c# d# e# f# g# h# i# j# k# l# m# n# o# p# q# r# s# t# u# v# w# x# y# z# A# B# C# D# E# F# G# i@ H# I# J# K# L# M# N# O# P# Q# R# S# T# U# V# W# X# ",
"Y# Z# `#  $ .$ +$ @$ #$ &  $$ %$ &$ *$ =$ -$ ;$ >$ ,$ '$ )$ !$ ~$ {$ ]$ ^$ /$ ($ _$ :$ <$ [$ }$ |$ 1$ 2$ 3$ 4$ 5$ 6$ 7$ 8$ 9$ 0$ a$ b$ c$ d$ e$ f$ g$ h$ i$ j$ k$ l$ m$ n$ o$ p$ q$ r$ s$ t$ u$ v$ w$ x$ y$ z$ A$ B$ C$ D$ E$ F$ G$ H$ I$ U  J$ K$ L$ M$ N$ O$ P$ Q$ R$ S$ T$ U$ V$ W$ X$ Y$ Z$ `$  % E# .% +% @% #% $% %% &% *% =% -% ;% >% ,% '% t@ )% !% ~% {% ]% ^% ",
"/% (% `# _% .$ :% <% [% }% |% 1% 8. 2% 3% 4% 5% 6% 7% 8% 9% 0% a% b% c% d% e% f% g% h% i% j% k% l% m% n% o% p% q% r% s% 5$ t% u% v% w% x% y% z% A% B% C% D% E% F% G% H% I% J% K% L% M% N% O% P% Q% R% S% T% U% V% W% X% Y% Z% `%  & .& +& @& #& $& %& && *& =& -& ;& >& ,& '& )& !& ~& {& ]& ^& /& (& _& :& <& [& }& |& 1& 2& 3& 4& 5& 6& 7& 8& 9& 0& a& b& c& W# d& e& ",
"f& g& h& i& j& k& l& m& n& o& p& q& r& s& t& u& v& w& x& y& z& A& B& C& D& E& F& G& H& I& J& K& L& M& N& O& P& Q& R& S& T& U& V& W& X& Y& Z& `&  * .* +* @* #* $* %* &* ** =* -* ;* >* >* ,* '* )* !* ~* {* ]* ^* /* (* _* :* <* [* }* |* 1* 2* 3* 4* 5* 6* 7* 8* 9* 0* a* b* c* d* e* f* g* h* i* j* k* l* m* n* o* p* q* r* s* t* u* >% Q# '% v* w* x* y* z* A* B* C* ",
"f& g& D* E* F* G* H* I* J* K* L* M* N* O* P* Q* R* S* T* U* V* W* X* Y* Z* `*  = .= += @= #= $= %= &= *= == -= ;= >= ,= '= )= != ~= {= ]= ^= /= (= _= := <= [= }= |= 1= 2= 3= 4= 5= 6= 7= 8= 9= 0= a= b= c= d= e= f= g= h= i= j= k= l= m= n= o= p= q= r= s= t= u= v= w= x= y= z= A= B= C= D= E= F= G= l* H= I= J= K= L= M= N= O= P= Q= R= S= T= U= V= W= X= Y= Z= `=  - ",
".- +- @- #- $- %- &- *- =- -- ;- >- ,- '- )- !- ~- {- ]- ^- /- (- _- :- <- [- }- |- 1- 2- 3- 4- 5- 6- 7- 8- 9- 0- a- b- c- d- e- f- g- h- i- j- k- l- m- n- o- p- q- r- s- t- u- v- w- x- y- z- A- B- C- D- E- F- G- H- I- J- K- L- M- N- O- P- Q- R- S- T- U- V- W- X- Y- Z- `-  ; .; +; @; #; $; %; H= &; *; =; -; ;; >; ,; '; ); !; ~; {; ]; ^; /; (; _; :; <; [; }; ",
"|; +- 1; 2; 3; 4; 5; 6; 7; 8; 9; 0; a; b; c; d; e; f; g; h; i; j; k; l; m; n; o; p; q; r; s; t; u; v; w; x; y; z; A; B; d- C; D; E; F; G; G; H; I; J; K; s- L; M; N; O; P; Q; R; S; T; U; V; W; X; Y; Z; `;  > .> +> @> #> $> %> &> *> => -> ;> >> ,> '> )> !> ~> {> ]> ^> /> (> _> :> <> [> }> |> 1> 2> 3> 4> 5> 6> 7> 8> 9> 0> a> b> c> d> e> f> g> h> i> j> k> l> m> ",
"n> o> p> q> r> s> t> u> v> w> x> y> z> A> B> s& C> D> E> F> G> H> I> J> K> L> M> N> O> P> Q> R> S> T> U> V> W> X> Y> Z> `>  , ., +, @, #, #, $, %, &, *, =, -, ;, >, ,, ', ), !, ~, {, ], ^, /, (, _, :, <, [, }, |, 1, 2, 3, 4, 5, 6, 7, 8, 9, 0, a, b, c, d, e, f, g, h, i, j, k, l, m, n, o, p, q, r, s, t, u, v, 8> w, 0> x, y, z, A, B, C, D, E, F, G, H, I, J, K, ",
"L, M, N, O, P, Q, R, S, T, U, V, W, X, Y, Z, `, d;  ' .' +' @' #' $' %' &' *' =' -' ;' >' ,' '' )' !' ~' {' ]' ^' /' (' _' :' <' [' }' }' |' 1' 2' 3' 4' 5' 6' 7' 8' 9' 0' a' b' c' d' e' f' g' h' i' j' <, k' l' m' n' o' p' q' r' s' t' u' v' w' x' y' z' A' B' C' D' E' F' G' H' I' J' K' p, L' M' N' O' P' Q' R' w, 0> S' T' U' V' W' X' Y' Z' `'  ) .) +) @) #) $) ",
"%) &) *) =) -) s> ;) >) ,) ') )) !) ~) {) ]) ^) /) () _) :) <) [) }) |) 1) 2) 3) 4) 5) 6) 7) 8) 9) 0) a) b) c) d) e) f) g) h) i) j) k) l) m) n) o) p) q) r) s) t) t) u) v) w) x) y) z) A) B) C) D) E) F) G) H) I) J) K) L) M) N) O) P) Q) R) S) T) U) V) W) X) Y) Z) `)  ! .! +! @! #! $! %! &! *! =! -! ;! >! ,! w, '! S' )! !! ~! {! ]! ^! /! (! _! :! <! [! }! |! 1! ",
"%) &) 2! 3! 4! 5! 6! 7! ,) ') 8! 9! 0! a! b! c! d! e! f! g! h! i! j! k! l! m! n! o! p! q! r! s! t! u! v! w! x! y! z! A! B! C! D! E! F! G! H! I! J! K! L! M! N! O! P! Q! R! S! T! U! V! W! X! Y! Z! `!  ~ .~ +~ @~ #~ $~ %~ &~ *~ =~ -~ ;~ >~ ,~ '~ )~ !~ ~~ {~ ]~ ^~ /~ (~ _~ :~ <~ [~ }~ |~ 1~ 2~ 3~ 4~ 5~ 6~ 7~ 8~ 9~ 0~ a~ b~ c~ d~ f> e~ f~ g~ h~ i~ j~ k~ l~ m~ n~ ",
"%) o~ p~ q~ r~ s~ t~ u~ v~ w~ x~ y~ z~ ~) A~ B~ C~ D~ E~ F~ G~ H~ I~ J~ K~ L~ M~ N~ O~ P~ Q~ R~ S~ T~ U~ V~ W~ X~ Y~ Z~ `~  { .{ +{ @{ #{ ${ %{ &{ *{ ={ -{ ;{ >{ ,{ '{ ){ !{ ~{ {{ ]{ ^{ /{ ({ _{ :{ <{ [{ }{ |{ 1{ 2{ 3{ 4{ 5{ 6{ 7{ 8{ 9{ 0{ a{ b{ c{ d{ e{ f{ g{ h{ i{ j{ k{ l{ m{ n{ o{ p{ q{ r{ s{ t{ u{ v{ w{ x{ y{ z{ A{ B{ C{ D{ E{ F{ G{ H{ I{ J{ K{ L{ M{ N{ ",
"O{ P{ Q{ R{ S{ T{ U{ V{ W{ X{ Y{ Z{ `{  ] .] +] @] #] $] %] &] *] =] -] ;] >] ,] '] )] !] ~] {] ]] ^] /] (] _] :] <] [] }] |] 1] 2] 3] 4] 5] 6] 7] 8] 9] 0] a] b] c] d] e] f] g] h] i] j] k] l] m] n] o] p] q] r] s] t] u] v] w] x] y] z] A] B] C] D] E] F] G] H] I] J] K] L] M] N] O] P] Q] R] S] T] U] V] W] X] Y] Z] `]  ^ B{ .^ +^ @^ #^ $^ %^ &^ *^ =^ -^ ;^ >^ ,^ ",
"'^ )^ !^ ~^ {^ ]^ ^^ /^ (^ _^ :^ <^ [^ }^ |^ 1^ 2^ 3^ 4^ 5^ 6^ 7^ 8^ 9^ 0^ a^ b^ c^ d^ e^ f^ g^ h^ i^ j^ k^ l^ m^ n^ o^ p^ q^ r^ s^ t^ u^ v^ w^ x^ y^ z^ A^ B^ C^ D^ E^ F^ G^ H^ I^ J^ K^ L^ M^ N^ O^ P^ Q^ R^ S^ T^ U^ V^ W^ X^ Y^ Z^ `^  / ./ A] +/ @/ #/ $/ %/ &/ */ =/ -/ ;/ >/ ,/ '/ )/ !/ ~/ {/ ]/ ^/ // (/ _/ :/ </ [/ }/ |/ 1/ 2/ `' 3/ 4/ 5/ J{ 6/ 7/ 8/ 9/ 0/ ",
"a/ b/ c/ d/ e/ f/ g/ h/ i/ j/ k/ l/ m/ n/ o/ p/ q/ r/ s/ t/ u/ v/ w/ x/ y/ z/ A/ B/ C/ D/ E/ F/ G/ H/ I/ J/ K/ L/ M/ N/ O/ P/ Q/ R/ S/ T/ U/ V/ W/ X/ Y/ Z/ `/  ( -{ .( +( @( #( $( %( &( *( =( -( ;( >( ,( '( )( !( ~( {( ]( ^( /( (( _( :( <( [( }( |( 1( 2( 3( 4( 5( 6( 7( 8( 9( 0( a( b( c( d( e( f( g( h( i( A{ j( [/ k( l( m( 2/ n( o( p( i~ I{ J{ q( r( s( t( u( ",
"v( w( x( y( z( A( B( C( D( E( F( G( H( I( J( K( L( M( N( O( P( Q( R( S( T( U( B/ V( W( X( Y( Z( `(  _ ._ +_ @_ #_ $_ %_ &_ *_ =_ -_ ;_ >_ ,_ '_ )_ !_ ~_ {_ ]_ ^_ /_ (_ __ :_ <_ [_ :_ }_ |_ 1_ 2_ 3_ 4_ 5_ 6_ 7_ 8_ 9_ 0_ a_ b_ c_ d_ e_ f_ g_ h_ i_ j_ k_ l_ m_ n_ o_ p_ q_ r_ s_ t_ u_ v_ w_ x_ y_ z_ A_ B_ C_ D_ E_ F_ G_ H_ I_ J_ K_ L_ M_ N_ O_ P_ L{ Q_ R_ S_ T_ ",
"v( U_ x( V_ z( W_ X_ Y_ Z_ `_  : .: +: @: #: $: %: &: *: =: -: ;: >: ,: ': ): !: ~: {: ]: ^: /: (: _: :: <: [: }: |: 1: 2: 3: 4: 5: 6: 7: 8: 9: 0: 4: a: b: c: d: e: f: g: h: i: j: k: l: m: n: o: p: q: r: s: t: u: v: w: x: y: z: A: B: C: D: E: F: G: H: I: J: K: L: M: N: O: P: Q: R: S: T: U: V: W: X: Y: Z: `:  < .< +< @< #< $^ $< %< H, I{ &< *< =< -< ;< >< ,< ",
"'< )< !< ~< {< ]< ^< /< (< _< 6; :< << [< }< |< 1< 2< 3< 4< 5< 6< 7< 8< 9< 0< a< b< c< d< e< f< g< h< i< j< k< l< m< n< o< p< q< r< s< t< u< v< w< x< y< z< A< B< C< D< E< F< G< H< I< J< K< L< M< N< O< P< Q< R< S< T< U< V< W< X< Y< Z< `<  [ .[ +[ @[ #[ $[ %[ &[ *[ =[ -[ ;[ >[ ,[ '[ )[ ![ ~[ {[ ][ ^[ /[ ([ _[ :[ <[ [[ }[ |[ 1[ :! 2[ 3[ 4[ 5[ *< 6[ 7[ 8[ 9[ 0[ ",
"a[ b[ c[ d[ e[ f[ f/ B( g[ h[ i[ j[ k[ l[ m[ n[ o[ p[ q[ r[ s[ t[ u[ v[ w[ x[ y[ z[ A[ B[ C[ D[ E[ F[ G[ H[ I[ J[ K[ L[ M[ s< N[ O[ P[ Q[ R[ o< S[ T[ U[ V[ W[ X[ Y[ Z[ `[  } .} +} @} #} $} %} &} *} =} -} ;} >} ,} '} )} !} ~} {} ]} ^} /} (} _} :} <} [} }} |} 1} 2} 3} 4} 5} 6} 7} 8} 9} 0} a} b} c} d} e} f} g} h} i} j} k} l} m} n} o} p} P_ q} r} s} t} u} v} w} ",
"a[ x} y} z} A} B} A( C} D} E} &- F} G} H} I} J} K} L} M} N} O} P} Q} R} S} T} U} V} W} X} Y} Z} D[ `}  | .| +| @| #| $| %| &| *| =| -| ;| >| ,| '| )| !| ~| {| ]| ^| /| (| _| :| <| [| }| || 1| 2| 3| 4| 5| 6| 7| 8| 9| 0| a| b| c| d| e| f| g| h| i| j| k| l| m| n| o| p| q| r| s| t| u| v| w| x| y| z| A| B| C| D| E| F| G| H| I| J| K| L| M| N| O| P| Q| t( R| S| T| ",
"a[ U| V| W| X| Y| Z| X_ s> 6! `|  1 .1 +1 @1 #1 $1 %1 &1 *1 =1 -1 ;1 >1 ,1 '1 )1 !1 ~1 {1 ]1 ^1 /1 (1 _1 h< :1 <1 [1 }1 |1 11 21 31 41 51 61 71 81 91 01 a1 b1 c1 d1 e1 f1 g1 h1 i1 j1 k1 l1 m1 n1 o1 p1 q1 r1 s1 t1 u1 v1 w1 x1 y1 z1 A1 B1 C1 D1 E1 F1 G1 H1 I1 J1 K1 L1 M1 N1 O1 P1 Q1 R1 S1 T1 U1 V1 W1 X1 Y1 Z1 `1  2 .2 +2 @2 #2 $2 M| %2 &2 *2 =2 -2 ;2 >2 ,2 '2 ",
")2 U| !2 ~2 {2 ]2 ^2 /2 (2 G* _2 :2 <2 [2 }2 |2 12 22 32 42 52 62 72 82 92 02 a2 b2 E[ c2 d2 e2 f2 g2 h2 i2 j2 k2 l2 m2 n2 o2 p2 q2 r2 s2 t2 u2 v2 w2 x2 y2 z2 A2 B2 C2 D2 E2 F2 G2 H2 I2 J2 K2 L2 M2 N2 O2 P2 Q2 R2 S2 T2 U2 V2 W2 X2 Y2 Z2 `2  3 .3 +3 @3 #3 $3 %3 &3 *3 =3 -3 ;3 >3 ,3 '3 )3 !3 ~3 {3 ]3 ^3 /3 (3 _3 :3 <3 [3 }3 |3 13 23 33 43 53 63 73 83 u( 93 03 ",
")2 U| a3 b3 c3 e[ d3 e3 f3 s> t~ g3 h3 i3 j3 k3 l3 m3 n3 o3 p3 q3 82 r3 s3 t3 u3 v3 w3 Z} x3 y3 z3 A3 B3 C3 D3 E3 F3 G3 H3 I3 J3 K3 L3 M3 N3 O3 P3 Q3 R3 S3 T3 U3 V3 W3 X3 Y3 Z3 `3  4 .4 +4 @4 #4 $4 %4 &4 *4 =4 -4 ;4 >4 ,4 '4 )4 !4 ~4 {4 ]4 ^4 /4 (4 _4 :4 <4 [4 }4 |4 14 24 34 44 54 64 74 84 94 04 a4 b4 c4 d4 e4 f4 g4 h4 i4 j4 k4 l4 m4 n4 o4 p4 q4 u( r4 s4 t4 ",
"u4 v4 V| w4 x4 e[ ]2 y4 f/ (2 z4 A4 B4 C4 D4 E4 F4 G4 H4 I4 J4 K4 L4 M4 N4 O4 P4 Q4 R4 S4 T4 U4 V4 W4 X4 Y4 Z4 `4  5 .5 +5 @5 #5 $5 %5 &5 *5 =5 -5 ;5 >5 ,5 '5 )5 !5 ~5 {5 ]5 ^5 /5 (5 _5 :5 <5 [5 }5 |5 15 25 35 45 55 65 75 85 95 05 a5 b5 c5 d5 e5 f5 g5 h5 i5 j5 k5 l5 m5 n5 o5 p5 q5 r5 s5 t5 u5 v5 w5 x5 y5 z5 A5 B5 C5 D5 E5 F5 G5 H5 I5 J5 o4 K5 q4 u( L5 M5 N5 ",
"O5 P5 Q5 R5 S5 T5 U5 V5 W5 C} X5 Y5 Z5 `5  6 .6 +6 @6 #6 $6 %6 &6 *6 =6 -6 ;6 >6 ,6 '6 )6 !6 ~6 {6 ]6 ^6 /6 (6 _6 :6 <6 [6 }6 |6 16 26 36 46 56 66 `( 76 86 96 06 a6 b6 c6 d6 e6 f6 g6 h6 i6 j6 k6 l6 m6 n6 o6 p6 q6 r6 s6 t6 u6 v6 w6 x6 y6 z6 A6 B6 C6 D6 E6 F6 G6 H6 I6 J6 K6 L6 M6 N6 O6 P6 Q6 R6 S6 T6 U6 V6 W6 X6 Y6 Z6 `6  7 .7 +7 @7 #7 $7 %7 &7 *7 =7 -7 03 ;7 ",
">7 ,7 '7 )7 !7 ~7 {7 V5 ]7 ^7 /7 (7 _7 :7 <7 [7 }7 |7 17 27 37 47 57 67 77 87 97 07 a7 b7 c7 d7 e7 !6 f7 g7 h7 i7 j7 k7 l7 m7 n7 o7 p7 q7 r7 s7 t7 u7 `4 v7 w7 x7 y7 l] z7 A7 B7 C7 D7 E7 F7 G7 H7 I7 J7 K7 L7 M7 N7 O7 P7 Q7 R7 S7 T7 U7 V7 W7 X7 Y7 Z7 `7  8 .8 +8 @8 #8 $8 %8 &8 *8 =8 -8 ;8 >8 ,8 '8 )8 !8 ~8 {8 ]8 ^8 /8 (8 _8 :8 <8 [8 }8 |8 18 28 38 48 58 68 78 ",
"O5 88 '7 98 !7 08 a8 b8 c8 d8 e8 f8 g8 h8 i8 j8 k8 l8 m8 n8 o8 p8 q8 r8 s8 t8 u8 v8 w8 x8 y8 z8 A8 B8 C8 D8 E8 F8 G8 H8 I8 J8 K8 L8 M8 N8 O8 P8 Q8 R8 S8 T8 U8 V8 W8 X8 Y8 Z8 `8  9 .9 +9 @9 #9 $9 %9 &9 *9 =9 -9 ;9 >9 ,9 '9 )9 !9 ~9 {9 ]9 ^9 /9 (9 _9 :9 <9 [9 }9 |9 19 29 39 49 59 69 79 89 99 09 a9 b9 c9 d9 e9 f9 g9 h9 i9 j9 k9 l9 m9 n9 o9 p9 S| q9 r9 s9 t9 u9 ",
"v9 w9 x9 y9 !7 z9 A9 B9 e/ C9 D9 E9 F9 G9 H9 I9 J9 K9 L9 M9 N9 O9 P9 Q9 R9 S9 T9 U9 V9 W9 X9 Y9 Z9 `9  0 .0 +0 @0 Z/ #0 $0 %0 &0 *0 =0 -0 `} ;0 >0 ,0 '0 )0 !0 ~0 {0 ]0 ^0 /0 (0 _0 :0 <0 [0 }0 |0 10 20 30 40 50 60 70 80 90 00 a0 b0 c0 d0 e0 f0 g0 h0 i0 j0 k0 l0 m0 n0 o0 p0 q0 r0 s0 t0 u0 v0 w0 x0 y0 z0 A0 B0 C0 D0 E0 F0 G0 H0 I0 J0 K0 83 L0 u( M0 N0 O0 P0 Q0 ",
"R0 S0 T0 U0 V0 W0 X0 Y0 C' j{ Z0 `0  a .a +a @a +a #a $a %a &a *a =a -a ;a >a ,a 'a )a !a ~a {a ]a ^a /a (a _a :a <a [a }a |a 1a 2a 3a 4a 5a 6a 7a 8a 9a 0a aa ba ca da ea fa ga ha ia ja ka la ma na oa pa qa ra sa ta ua va wa xa ya za Aa Ba Ca Da Ea Fa Ga Ha Ia Ja Ka La Ma Na Oa Pa Qa Ra Sa Ta Ua Va Wa Xa Ya Za `a  b .b +b @b #b J0 73 $b %b >2 &b *b =b -b ;b ",
"P5 >b ,b 'b )b !b V_ ~^ ~b {b ]b ^b /b (b _b :b <b [b }b |b 1b 2b 3b 4b 5b 6b 7b 8b 9b 0b ab bb cb db eb fb gb hb ib jb kb lb mb nb ob pb qb rb sb tb ub vb wb xb yb zb Ab Bb Cb Db Eb Fb Gb Hb Ib Jb Kb Lb Mb Nb Ob Pb Qb Rb Sb Tb Ub Vb Wb Xb Yb Zb `b  c .c +c @c #c $c %c &c *c =c -c ;c >c ,c 'c )c !c ~c {c ]c ^c /c (c _c :c <c [c }c |c 1c 2c 3c 4c 5c 6c 7c 8c ",
"9c 0c ,b ac bc cc dc ec fc gc hc ic jc kc lc mc nc oc pc qc rc sc tc uc vc wc xc yc zc Ac Bc Cc Dc Ec Fc Gc Hc Ic Jc Kc Lc Mc Nc Oc Pc Qc Rc Sc Tc Uc Vc Wc Xc Yc Zc `c  d .d +d @d #d $d %d &d *d =d -d ;d >d ,d 'd )d !d ~d {d ]d ^d /d (d _d :d <d [d }d |d 1d 2d 3d 4d 5d 6d 7d 8d 9d 0d ad bd cd dd ed fd gd hd id jd kd ld md F0 nd S_ od pd 2c qd 5c rd sd td -b ",
"ud vd ,b ac 'b wd xd yd zd Ad Bd Cd Dd Ed Fd Gd Hd Id Jd rc Kd Ld Md Nd Od Pd Qd 8b Rd Sd Td Ud Vd Wd Xd Yd Zd `d  e .e +e @e #e $e %e &e *e =e -e ;e >e ,e 'e )e !e ~e {e ]e ^e /e (e _e :e <e [e }e |e 1e 2e 3e 4e 5e )d 6e 7e 8e 9e 0e ae be ce de ee fe ge he ie je ke le me ne oe pe qe re se te ue ve we xe ye ze Ae Be Ce De Ee <c Fe S| 2c Ge He rd Ie Je Ke Le ",
"Me Ne Oe Pe Pe Qe Re Se Te Ue Ve We Xe Ye Ze `e  f .f +f @f Kd #f $f %f &f *f =f -f ;f >f ,f 'f )f !f ~f {f ]f ^f p8 /f (f _f :f <f [f }f |f 1f 2f 3f 4f 5f 6f 7f 8f 9f 0f af bf cf df ef ff gf hf if jf kf lf mf nf of pf qf rf sf tf uf vf wf xf yf zf Af Bf Cf Df Ef Ff Gf Hf If Jf Kf Lf Mf Nf Of Pf Qf Rf Sf Tf Uf Vf Wf Xf Yf Zf `f  g .g +g qd He r9 Ie -b Le @g ",
"9c #g $g %g &g !< *g =g -g ;g >g ,g 'g )g !g ~g {g ]g @f rc ^g /g Gc (g _g :g <g [g }g |g 1g T9 2g 3g 4g 5g 6g 7g Td 8g 9g 0g ag bg cg dg eg fg gg hg ig jg kg lg mg ng og pg qg rg sg tg ug vg wg xg yg zg Ag Bg Cg Dg Eg Fg Gg Hg Ig Jg Kg Lg Mg Ng Og Pg Qg Rg Sg Tg Ug Vg Wg Xg Yg Zg `g  h .h +h @h #h $h ;] %h &h *h =h -h ld ;h >h ,h 'h qd )h !h Ie ~h {h Q0 @g ",
"9c #g 0c ]h '7 ^h /h (h _h :h <h [h }h |h 1h 2h 3h 4h +f 5h 6h 7h .0 8h 9h 0h ah bh ch dh eh fh gh hh ih jh kh lh mh nh oh ph qh rh sh th uh vh wh xh yh zh Ah Bh Ch Dh Eh Fh Gh Hh Ih Jh Kh Lh Mh Nh Oh Ph Qh Rh Sh Th Uh Vh Wh Xh Yh Zh `h  i .i +i ee @i #i $i %i &i *i =i -i ;i >i ,i 'i )i !i ~i {i ]i ^i /i (i _i :i <i [i }i |i Ee 1i 2i 3i 4i !h Ke 5i 6i 7i 8i ",
"9i 0i Ne ai bi ci di ei fi gi hi Ed ii ji ki 2h li rc mi ni oi pi qi ri si rc ti ui vi wi xi yi zi Ai Bi Ci Di Ei Fi Gi Hi Ii Ji Ki Li Mi Ni Oi Pi Qi Ri Si Ti Ui Vi Wi Xi Yi Zi `i  j .j +j @j #j $j %j &j *j =j -j ;j >j ,j 'j )j !j ~j {j ]j ^j /j (j _j :j <j [j }j |j 1j 2j 3j 4j 5j 6j 7j 8j 9j 0j aj bj cj dj ej fj gj hj ij jj kj lj mj nj oj r9 Ke Ie 6i pj 8i ",
"9i qj #g P5 rj sj tj uj vj wj xj yj zj Aj Bj Cj Dj Ej Fj Gj Hj Hj Ij Jj Kj Lj Mj Nj Oj ni Pj Qj Rj Sj Tj Uj Vj Wj Xj Yj Zj `j  k .k +k @k #k $k %k &k *k =k -k ;k >k ,k 'k )k !k ~k {k ]k ^k /k (k _k :k <k [k }k |k 1k 2k 3k 4k 5k 6k 7k 8k 9k 0k ak bk ck dk ek fk gk hk ik jk kk lk mk nk ok pk qk rk sk tk uk vk wk xk yk zk Ak Bk Ck Dk Ek Fk Gk Hk Ke Ie Ik pj 8i ",
"9i qj Ne P5 Jk bi Kk Lk Mk Nk Ok Pk Qk Rk Hj Cj Sk Tk Uk Vk Wk Xk Yk Zk `k  l .l +l @l #l $l %l &l *l =l -l ;l >l ,l 'l )l !l ~l {l ]l ^l /l (l _l :l <l [l }l |l 1l 2l 3l 4l 5l 6l 7l 8l 9l 0l al bl cl dl el fl gl hl il jl kl ll ml nl ol pl ql rl sl tl ul vl wl xl yl zl Al Bl Cl Dl El Fl Gl Hl Il Jl Kl Ll Ml Nl Ol Pl Ql Rl Sl Tl Ul Vl Wl Xl Ke Ke 6i Ik Yl 8i ",
"Zl 9i #g 0c Jk `l  m .m +m xj @m #m $m %m &m *m =m -m ;m Gc jb >m ,m 'm )m !m ~m {m ]m ^m /m (m _m :m <m [m }m |m 1m 2m 3m 4m 5m 6m 7m 8m 9m 0m am bm cm dm em fm gm hm im jm km lm mm nm om pm qm rm sm tm um vm wm xm ym zm Am Bm Cm Dm Em Fm Gm Hm Im Jm Km vl Lm Mm Nm Om Pm Qm Rm Sm Tm Um Vm Wm Xm Ym Zm 7^ `m  n .n k[ +n @n #n $n %n &n *n =n Ie Ke Le 7i pj 8i ",
"-n ;n >n Ne ,n 'n )n Mk !n xj ~n {n ]n ^n /n (n Wj _n :n <n [n }n |n Sj 1n 2n 3n 4n 5n 6n 7n 8n 9n 0n an bn cn dn en fn gn hn in jn kn ln mn nn on pn qn rn sn tn un vn wn xn yn zn An Bn Cn Dn En Fn Gn Hn In Jn Kn Ln Mn Nn On Pn Qn Rn Sn Tn Un Vn Wn Xn Yn Zn Lm `n  o .o +o @o #o $o %o &o *o =o -o ;o >o ,o 'o )o !o ~o {o ]o ^o /o (o _o :o <o [o }o |o 1o 2o 2o ",
"3o 4o 5o vd 6o 7o 8o 9o 0o ao bo co do eo =a fo go ho io jo ko Ld lo mo no oo po qo ro so to uo vo wo xo yo zo Ao dn Bo Co Do Eo Fo Go Ho Io Jo Ko Lo Mo $6 No Oo Po Qo Ro So To Uo Vo Wo Xo Yo Zo `o  p .p +p @p #p $p %p &p *p =p -p ;p >p ,p 'p )p !p ~p {p ]p ^p /p (p _p :p <p V* [p }p |p 1p 2p 3p 4p 5p 6p 7p 8p 9p 0p ap bp cp dp ep fp gp hp ip jp kp lp mp lp ",
"np op pp ud >b qp rp sp tp up vp wp xp yp zp Ap Bp Cp =m Dp Ep mi Fp Gp Hp Ip Jp Kp Lp Mp Np Op Pp Qp Rp Sp Tp Up Vp Wp Xp Yp Zp `p  q .q +q @q Io #q $q %q &q *q =q -q ;q >q ,q 'q )q !q ~q {q ]q ^q /q (q _q :q <q [q }q |q 1q 2q 3q 4q 5q 6q 7q 8q 9q 0q aq bq cq dq eq fq gq hq iq jq kq lq mq nq oq pq qq rq sq tq uq vq wq xq yq zq Aq Bq Cq Dq Eq Fq kp Fq mp lp ",
"Gq op Hq ud Iq Jq Kq Lq Mq Nq Oq Pq Qq &m Rq Sq Tq Uq Vq Wq Xq Hp Yq Zq Id `q  r .r +r @r #r $r %r &r *r =r -r ;r >r ,r 'r )r !r ~r {r ]r ^r /r /r (r _r :r <r [r }r |r 1r 2r 3r 4r 5r 6r 7r 8r 9r 0r ar br cr dr er fr gr hr ir jr kr lr mr nr or pr qr rr sr tr ur vr wr xr yr zr Ar Br Cr Dr Er Fr Gr Hr Ir Jr Kr Lr Mr Nr Or Pr Qr Rr Sr Tr Ur Vr Wr lp Fq lp Xr Yr ",
"Zr `r op Me  s .s k8 +s @s #s $s %s &s *s =s -s ;s >s ,s 's )s !s ~s {s ]s ^s @r /s (s _s :s <s [s }s |s 1s 2s 3s 4s 5s 6s 7s 8s 9s 0s as bs cs ds es fs gs hs is js ks ls ms ns os ps qs rs ss ts us vs ws xs ys zs As Bs Cs Ds Es Fs Gs Hs Is Js Ks Ls Ms Ns Os Ps Qs Rs Ss Ts Us Vs Ws Xs Ys Zs `s  t .t +t @t #t $t &$ %t &t *t =t -t ;t >t ,t 't )t 58 !t lp lp ~t ",
"{t Gq -n Me ]t ^t /t (t _t :t <t [t }t |t 1t 2t 3t 4t 5t 6t 7t 8t 9t 0t at bt ct dt et ft gt N9 ht it jt kt lt mt nt ot pt qt rt st tt ut vt wt xt yt zt At Bt Ct Dt Et Ft Gt Ht It Jt Kt Lt Mt Nt Ot Pt Qt Rt St Tt Ut Vt Wt Xt Yt Zt `t  u .u +u @u #u $u %u &u *u =u -u ;u >u ,u ,u 'u )u !u ~u {u ]u ^u /u (u _u :u <u [u }u |u 1u 2u 3u 4u 5u 6u 7u 8u Yr 9u jp 0u ",
"au bu cu du eu fu l8 _b gu hu iu ju ku lu mi Wq c7 mu _n nu ou pu qu ru su tu uu vu wu xu yu zu Au Bu Cu Du Eu Fu Gu Hu Iu Ju Ku Lu Mu Nu Ou Pu Qu Ru Su Tu Uu Vu Wu Xu qc Yu Zu `u  v .v +v @v #v $v %v &v *v =v -v -v ;v >v ,v 'v )v !v ~v {v ]v ^v /v (v _v :v <v [v }v |v 1v 2v 3v 4v 5v 6v 7v 8v 9v 0v av bv cv dv ev fv gv hv iv jv kv lv mv nv ov pv qv rv rv lp ",
"sv bu `r tv uv vv wv rn xv yv zv Av Bv Xq Cv Dv Ev Fv Gv Hv Iv )s ~s Jv Kv Lv Mv Nv Ov Pv Qv Rv Sv Tv Uv Vv Wv Xv Yv Zv `v  w .w +w @w #w $w %w &w *w =w -w ;w >w ,w 'w )w !w ~w {w ]w ^w /w (w _w :w <w [w }w |w -v ,j 1w 2w 3w 4w 5w 6w 7w 8w 9w 0w aw bw cw dw ew fw gw hw iw jw kw lw mw nw ow pw qw rw sw tw uw vw ww xw yw zw Aw Bw kv Cw Dw Ew Fw Gw qv rv rv lp ",
"sv sv Hw Iw Jw vv Kw Lw Mw xo ;m Fp Nw -s Ow Pw Qw Rw Sw Tw Uw Vw Ww Xw Yw Zw `w  x .x +x @x #x $x %x &x *x =x -x ;x >x ,x 'x )x !x ~x {x ]x ^x /x (x _x :x <x [x }x |x 1x 2x 3x `u 4x 5x 6x 7x 8x 9x 0x 1k ax bx cx dx ex fx gx hx ix jx kx lx mx nx ox px qx rx sx tx ux vx wx xx yx zx Ax Bx Cx Dx Ex Fx Gx Hx Ix Jx ww Kx Lx Mx Nx Ox Px Qx Rx Sx Tx Ux Vx rv rv lp ",
"sv sv Gq Wx Xx Yx Zx `x  y .y +y -s @y c7 Pw #y $y %y &y *y =y -y ;y >y ,y 'y )y !y ~y {y ]y ^y /y (y _y :y <y [y }y |y 1y 2y 3y 4y 5y 6y 7y 8y 9y 0y ay by cy [x dy |x ey fy Ht 4x ]w gy hy iy jy 0x ky |w ly bx my ny oy oy py qy ry sy ty uy vy wy xy yy zy Ay By Cy Dy Ey Fy Gy Hy Iy Jy Ky Ly My Ny Oy Py Qy Ry Sy Ty Uy Vy Wy Xy Yy Zy `y  z Sx .z +z Ik qv rv lp ",
"sv sv cu @z #z $z %z &z *z zp =z 2t c7 -z ;z >z >z Yw ,z 'z )z !z ~z {z qu ]z ^z /z (z _z :z <z [z }z |z 1z 2z 3z 4z 5z 6z 7z 8z 9z 0z az bz cz dz ez fz gz hz iz jz kz lz mz nz oz pz qz rz sz tz uz ky }w bx vz wz xz yz zz Az Bz Cz Dz Ez Fz Gz Hz Iz Jz Kz Lz Mz Nz Oz Pz Qz cq Rz Sz Tz Uz Vz Wz Xz Yz Zz `z  A .A +A @A #A $A %A &A *A =A -A ;A >A ,A 'A rv rv lp ",
")A au !A ~A {A ]A ^A /A (A N4 5h _A -z :A #y <A [A }A |A 1A uu 2A 3A 4A 5A 6A 7A 8A &6 9A 0A aA bA cA dA eA fA gA hA iA jA kA lA mA nA oA pA qA rA sA tA uA vA wA xA yA zA AA BA CA DA EA FA GA HA IA JA ky KA LA MA NA OA PA QA RA SA TA UA VA WA XA YA ZA `A  B .B +B @B #B $B %B &B *B =B -B ;B >B ,B 'B )B !B ~B {B ]B ^B /B (B _B :B <B [B }B |B 1B 2B 3B 4B 5B 6B ",
")A )A 7B 8B 9B 0B aB bB cB qc dB eB fB gB hB iB jB kB eb $y lB &y eb mB nB oB pB qB rB sB tB uB vB wB xB yB zB AB BB CB DB EB FB GB HB IB JB KB LB MB NB OB PB QB RB SB TB UB Gt A7 VB WB XB YB ZB `B  C .C +C @C #C $C %C &C *C =C -C ;C >C ,C 'C )C !C ~C {C ]C ^C /C (C _C :C <C [C }C |C 1C 2C 3C 4C 5C 6C 7C 8C 9C 0C aC bC cC dC eC fC gC hC iC jC kC lC mC nC kp ",
")A )A oC pC qC rC sC tC uC vC Nw wC xC yC zC AC BC CC DC EC FC GC HC IC JC KC LC MC NC OC PC QC RC SC TC UC VC WC XC YC ZC `C  D .D +D @D #D $D %D &D *D =D -D ;D >D ,D 'D )D !D ~D {D ]D ^D /D (D _D :D <D [D }D |D 1D 2D 3D 4D 5D 6D 7D 8D 9D 0D aD bD cD dD eD fD gD hD iD jD kD lD mD nD oD pD qD rD sD tD uD vD wD xD yD zD AD BD CD DD ED FD |B 6u GD HD mC kp Fq ",
"ID sv JD KD LD MD ND OD PD QD 2t RD SD TD UD DC VD WD gB XD YD ZD `D %y ,s c7  E .E +E @E #E $E %E &E *E =E -E ;E >E ,E 'E )E !E ~E {E ]E ^E /E (E _E :E <E [E }E |E 1E 2E 3E 4E 5E 6E 7E 8E 9E 0E aE bE cE dE eE fE gE hE iE jE kE lE mE nE oE pE qE rE sE tE uE vE wE xE yE zE AE BE CE DE EE FE GE HE IE JE KE LE ME NE OE PE QE RE SE fC TE UE |B 6u VE WE kp XE YE ",
"ZE )A JD `E  F .F +F @F #F d7 $F %F &F *F XD =F -F ;F >F ,F 'F )F !F ~F 's nu &m {F ]F ^F /F (F _F :F <F [F }F |F 1F 2F 3F 4F 5F 6F 7F 8F 9F 0F aF bF cF dF eF fF gF hF iF jF kF lF lF mF nF oF pF qF rF sF bE tF uF vF wF xF yF zF AF BF CF DF EF FF GF HF IF JF KF LF MF NF OF PF QF RF SF TF UF VF WF XF YF ZF `F  G .G +G @G #G $G %G &G *G =G Sx -G ;G >G 1o @g @g ",
",G )A 'G )G !G ~G {G ]G ^G /G -F (G -6 _G :G <G <G >F [G :G WD }G |G 1G 2G 3G 4G 5G 6G 7G 8G 9G 0G aG bG cG dG eG fG gG hG iG jG kG lG mG nG oG pG qG rG sG tG uG vG wG xG yG zG AG BG CG DG EG FG GG HG IG JG KG LG MG NG OG PG QG RG SG TG UG VG WG XG YG ZG `G  H .H +H @H #H $H %H &H *H =H -H ;H >H ,H 'H )H !H ~H {H ]H ^H /H (H _H :H <H [H Sx }H |H 1H 1o @g 2H ",
"3H )A 4H 5H 6H 7H 8H 9H 0H ]6 aH bH cH dH eH fH gH gB hH iH =F <G jH kH lH mH nH oH pH qH rH sH tH uH vH wH xH yH zH AH BH CH DH EH FH GH HH IH JH KH LH MH NH OH PH QH RH SH TH UH VH WH XH YH FG ZH `H  I .I +I @I #I $I %I &I *I =I -I ;I >I ,I 'I )I !I ~I {I ]I ^I /I (I _I :I <I [I }I |I 1I 2I 3I 4I 5I 6I 7I 8I 9I 0I aI bI cI dI eI fI gI hI }H iI jI 2o kI lI ",
"mI ZE nI oI pI qI rI sI tI uI vI wI xI yI zI UD AI BI CI =F <G DI dB EI FI GI HI II JI KI LI MI NI OI PI QI RI SI TI UI VI WI XI YI ZI `I  J .J +J @J #J $J %J &J *J =J -J ;J >J ,J 'J )J !J ~J {J ]J ^J /J (J _J :J <J [J }J |J 1J 2J 3J 4J 5J 6J 7J 8J 9J 0J aJ bJ cJ dJ eJ fJ gJ hJ iJ jJ kJ lJ mJ nJ oJ pJ qJ rJ sJ tJ uJ vJ wJ xJ yJ zJ AJ BJ CJ +z VE DJ 2o EJ FJ ",
"3H ZE GJ HJ IJ JJ KJ LJ MJ NJ OJ PJ QJ RJ SJ TJ UJ VJ WJ ,F XJ YJ ZJ `J  K .K +K @K #K $K %K &K *K =K -K ;K >K ,K 'K )K +D !K ~K {K ]K ^K /K (K _K :K <K [K }K |K 1K 2K 3K 4K 5K 6K 7K 8K 9K 0K aK bK cK dK eK fK gK hK iK jK kK lK mK nK oK pK qK )$ rK sK tK uK vK wK xK yK zK AK BK CK DK EK FK GK HK IK JK KK LK MK NK OK PK QK RK yJ SK TK gI UK VK VE WK XK YK ZK ",
"3H ZE au `K  L .L rI +L @L #L XD $L %L &L *L =L -L ;L >L ,L 'L )L !L ~L {L ]L ^L /L (L @K _L :L <L [L }L |L 1L 2L 3L 4L 5L 6L 7L 8L 9L 0L aL bL cL dL eL fL gL hL iL jL kL lL mL nL oL pL qL rL sL tL uL vL wL xL yL zL AL BL CL DL EL FL GL HL IL JL KL LL ML NL OL PL QL RL SL TL UL VL WL XL YL ZL `L  M JK .M +M +M @M #M $M %M &M *M =M -M ;M >M ,M iI >G |o 'M )M ",
"3H ZE au !M ~M {M ]M ^M /M (M XJ _M :M <M [M }M |M 1M 2M 3M )L 4M <G 5M 6M 7M 8M 9M 0M aM bM HB cM dM eM fM gM hM iM jM kM lM mM nM oM pM qM rM sM tM uM vM wM xM yM zM AM 7E BM CM DM EM FM GM HM IM JM KM LM MM NM OM PM QM RM SM TM UM VM WM XM YM ZM `M  N .N +N @N #N $N %N &N *N =N -N ;N >N ,N oJ 5I 'N )N +M !N ~N {N ]N ^N /N (N _N :N <N [N +z }N |N 1N 2N 3N ",
"ZE ZE 4N 5N 6N 7N 8N 9N 0N aN bN cN dN eN fN gN hN PJ &L iN jN kN lN mN nN oN pN <E qN rN sN tN uN vN wN xN yN zN AN BN CN DN EN FN GN HN IN JN KN LN MN NN ON PN QN RN SN 'J TN UN VN WN XN YN ZN `N  O .O +O @O #O $O %O &O *O =O -O ;O >O ,O XM 'O )O !O ~O {O ]O ^O /O (O _O :O <O [O }O |O 1O 2O 3O 4O 5O 6O 7O 8O 9O 0O aO bO cO dO eO fO gO hO }H iO jO kO lO mO ",
"ZE ZE nO oO pO qO rO @L sO tO uO 1M vO wO xO yO zO AO BO CO DO EO FO GO HO IO JO KO LO MO NO OO PO QO RO SO TO UO VO WO XO YO ZO `O  P .P +P @P #P $P %P &P *P =P -P ;P >P ,P 'P )P !P ~P {P ]P ^P /P (P _P :P <P [P }P |P 1P 2P 3P 4P 5P 6P 7P 8P 9P 0P aP bP cP dP eP fP gP hP iP jP kP lP mP nP sD oP pP 5O 6O qP rP sP tP >2 uP vP wP xP yP zP AP BP CP DP EP FP GP ",
"ZE ZE nO HP IP JP  5 KP L/ LP MP NP OP PP QP RP SP TP UP VP WP XP YP ZP `P  Q .Q +Q @Q #Q $Q %Q &Q *Q =Q -Q ;Q >Q ,Q 'Q )Q !Q ~Q {Q ]Q ^Q 1E /Q (Q _Q :Q <Q [Q }Q |Q 1Q 2Q 3Q 4Q 5Q 6Q 7Q 8Q 9Q 0Q aQ bQ cQ dQ eQ fQ gQ Hz hQ iQ jQ kQ lQ mQ nQ oQ pQ qQ rQ sQ tQ uQ vQ wQ xQ yQ fq zQ AQ BQ CQ 'B sD DQ EQ 5O FQ GQ HQ IQ JQ KQ LQ MQ NQ OQ PQ QQ RQ SQ TQ UQ VQ WQ GP ",
"ZE ZE nO XQ YQ ZQ `Q  R .R +R @R #R $R %R &R *R =R *R -R ;R >R ,R 'R )R !R ~R {R ]R ^R /R (R _R :R <R [R }R |R 1R 2R 3R 4R 5R 6R 7R 8R 9R 0R aR bR cR dR eR fR gR hR iR jR kR lR mR nR oR pR qR rR sR tR uR vR wR xR yR zR Cz AR BR CR DR ER FR GR HR IR JR KR LR MR NR OR PR QR RR SR TR UR VR WR XR YR ZR `R FQ +M  S .S +S @S #S $S %S &S *S =S -S ;S >S ,S 'S )S !S ",
"~S ~S {S ]S ^S /S (S _S :S <S [S }S |S 1S 2S 3S 4S 5S 6S 7S 8S 9S `u 0S aS bS cS dS eS fS gS hS iS jS kS lS mS nS oS pS qS rS sS tS uS vS wS xS yS zS AS BS CS DS ES FS GS HS IS JS KS LS MS NS OS PS QS RS dQ SS TS US VS WS XS YS ZS `S  T .T +T @T #T $T %T &T *T =T -T ;T >T ,T 'T )T !T ~T {T ]T ^T /T (T _T :T <T [T }T |T 1T 2T 3T 4T 5T 6T RQ 7T 8T 9T 0T )S !S ",
"aT bT cT dT eT fT gT hT iT jT kT kT lT RP mT nT oT pT qT rT sT tT uT vT wT xT yT zT AT BT CT DT ET FT GT HT IT JT KT LT MT NT OT PT QT RT ST TT UT VT WT XT YT ZT `T BM  U .U +U @U #U $U %U &U *U =U -U ;U >U ,U 'U )U !U ~U {U ]U ^U /U (U _U :U <U [U }U |U 1U 2U 3U 4U 5U 6U 7U 8U 9U 0U aU bU cU dU 6I eU fU gU hU iU jU kU lU mU nU oU pU qU rU 7T sU tU 'S uU vU ",
"wU xU xU yU zU AU BU CU DU EU FU GU HU IU JU qT KU LU mT MU qT NU OU PU QU RU SU TU UU VU WU XU YU ZU `U  V .V +V @V wS #V $V %V &V *V =V -V ;V >V ,V YT 'V )V 6K 8K !V pL ~V {V ]V ^V /V (V _V :V <V [V }V |V 1V 2V 3V 4V 5V 6V 7V 8V 9V 0V aV bV cV dV eV fV gV hV iV jV kV lV mV nV oV pV qV rV sV tV uV vV wV xV yV zV AV N{ BV CV DV yP EV FV GV HV IV tU JV KV LV ",
"MV xU NV OV PV QV RV SV TV UV VV WV XV YV ZV `V  W YV .W +W @W #W $W %W &W *W =W -W ;W >W ,W 'W )W !W ~W {W ]W ^W /W (W _W :W <W [W }W |W 1W 2W 3W 4W 5W 6W 7W 8W 9W 0W aW bW cW dW eW fW gW hW iW jW kW lW mW nW oW pW qW rW sW tW uW vW wW xW yW zW AW BW CW DW EW FW GW HW IW JW KW LW MW NW OW PW QW RW SW TW sd yV UW VW WW XW YW ZW `W  X .X +X @X #X tU kO $X !S ",
"MV cT cT %X &X *X =X -X ;X >X ,X 'X )X !X ~X {X ]X ^X /X (X _X :X <X [X }X |X 1X 2X 3X 4X 5X 6X 7X 8X 9X 0X aX bX cX dX eX fX gX hX iX jX kX lX mX nX oX pX qX rX sX tX uX vX wX bE xX yX zX AX BX CX DX EX FX GX HX IX JX KX LX MX NX OX PX QX RX SX #H TX UX VX WX XX YX ZX `X  Y .Y +Y @Y #Y $Y %Y &Y *Y =Y -Y ;Y >Y ,Y 'Y )Y !Y ~Y {Y ]Y ^Y /Y (Y _Y :Y <Y kO KV [Y ",
"MV cT cT %X }Y |Y 1Y 2Y 3Y 4Y 5Y B^ 6Y 7Y 8Y 9Y 0Y aY bY cY dY eY fY gY hY iY jY kY lY mY nY oY pY qY rY sY tY uY vY wY xY yY yY zY AY BY CY DY EY FY GY HY IY 9K JY KY LY MY NY OY PY QY RY SY TY UY VY WY XY YY ZY `Y  Z .Z +Z @Z #Z $Z %Z &Z *Z =Z -Z ;Z >Z ,Z 'Z )Z !Z ~Z {Z ]Z ^Z /Z (Z 4I _Z :Z <Z [Z }Z |Z .S u9 1Z 2Z 3Z 4Z 5Z 6Z sU 7Z 8T Tx ,M 8Z <Y kO KV [Y ",
"MV cT 9Z cT 0Z aZ bZ cZ dZ eZ fZ gZ hZ iZ jZ kZ lZ mZ nZ oZ pZ qZ nT am rZ sZ tZ uZ vZ wZ xZ yZ zZ AZ BZ kF CZ DZ EZ FZ GZ HZ IZ JZ KZ LZ MZ NZ OZ PZ QZ RZ SZ TZ UZ VZ WZ XZ YZ ZZ `Z  ` .` +` @` #` $` %` &` *` =` -` ;` >` ,` '` )` !` ~` {` ]` ^` /` (` _` :` c. <` [` }` |` 1` 2` 3` 4` pJ 5` 6` 7` 8` 9` 0` a` b` c` d` e` f` g` h` i` j` k` VE l` tU tU kO m` !S ",
"n` %X 9Z o` nO p` q` d6 Z3 r` s` t` u` v` w` x` y` z` A` B` C` D` E` F` G` H` I` J` K` L` M` N` O` P` Q` R` S` T` U` V` W` X` Y` Z` ``   .. .+ .@ .# .$ .% .& .* .= .- .; .> ., .' .) .! .~ .{ .] .^ ./ .( ._ .: .< .[ .} .| .1 .2 .3 .4 .5 .6 .7 .8 .9 .0 .a .b .c .d .e .f .g .h .i .j .k .l .:Z m .n .o .p .q .>Y r .s .t .u .v .w .x .y .z .k` iI A .tU tU B .C .!S ",
"MV 9Z 9Z 9Z OV D .E .F .G .H .I .J .K .L .M .N .O .P .Q .R .S .T .U .V .W .X .Y .Z .` . .....+..@..#..$..%..&..*..=..-..*..;..>..,..'..)..!..~..{..]..^../..(.._..:..<..[..}..|..1..2..3..4..5..6..7..8..9..0..a..b..c..d..e..f..g..h..i..j..k..l..m..n..o..p..q..r..s..t..u..v..w..x..y..oP 5` RW z..A..B..p .C..D..E..F..G..H..I..J..K..L..M..N..iI O..tU tU P..C .!S ",
"Q..9Z R..cT S..T..U..V..G .W..X..Y..9r Z..`.. +..+.++.@+.#+.$+.%+.&+.*+.=+.-+.;+.>+.,+.'+.)+.!+.ha ~+.{+.]+.^+./+.(+._+.:+.<+.[+.}+.|+.1+.2+.3+.4+.5+.6+.7+.8+.9+.0+.a+.b+.c+.d+.e+.f+.g+.h+.i+.j+.k+.l+.m+.n+.o+.p+.q+.r+.s+.t+.u+.v+.RX w+.x+.y+.z+.A+.B+.C+.D+.E+.F+.G+.H+.I+.J+.K+.L+.M+.%Y m .N+.GQ HQ O+.P+.Q+.R+.S+.T+.U+.V+.W+.X+.iC N..Y+.Z+.`+.tU <Y P.. @..@.",
"+@.R..R..cT @@.#@.$@.%@.&@.I .*@.=@.-@.;@.>@.,@.'@.)@.!@.~@.{@.]@.^@./@.(@._@.:@.<@.[@.}@.|@.1@.2@.3@.4@.5@.6@.7@.8@.8@.9@.0@.a@.b@.c@.d@.e@.f@.g@.h@.i@.j@.k@.l@.m@.n@.o@.p@.q@.r@.s@.t@.u@.v@.w@.x@.y@.z@.A@.B@.C@.D@.E@.F@.G@.H@.I@.J@.K@.L@.M@.N@.O@.P@.Q@.R@.S@.T@.U@.V@.W@.X@.Y@.Z@.`@.RW 7` =Y 9`  #.l9 .#.+#.@#.##.$#.%#.&#.*#.X+.=#.-#.VE ;#.tU tU <Y >#.,#.aO ",
"MV @@.'#.9Z )#.!#.~#.{#.]#.^#./#.(#._#.:#.<#.[#.}#.|#.1#.2#.3#.4#.5#.6#.7#.8#.9#.0#.a#.b#.c#.d#.e#.f#.g#.h#.i#.j#.k#.0@.l#.m#.n#.o#.p#.q#.r#.s#.t#.u#.v#.w#.x#.y#.z#.A#.B#.C#.D#.E#.F#.G#.H#.I#.J#.K#.L#.M#.N#.O#.P#.Q#.R#.S#.T#.U#.V#.W#.X#.Y#.Z#.`#. $..$.+$.@$.#$.$$.%$.&$.*$.=$.-$.;$.>$.,$.'$.)$.;Y !$.~$.{$.R+.]$.^$./$.($._$.:$.<$.}H Tx [$.}$.<Y tU <Y |$.1$.KQ ",
"2$.3$.4$.5$.6$.7$.8$.9$.0$.a$.b$.c$.d$.e$.f$.g$.h$.i$.j$.k$.l$.m$.n$.o$.p$.q$.r$.s$.t$.u$.v$.w$.x$.y$.z$.A$.B$.C$.D$.E$.F$.G$.H$.I$.J$.K$.L$.M$.N$.O$.P$.Q$.R$.S$.T$.U$.V$.W$.X$.Y$.Z$.`$. %..%.+%.@%.#%.$%.%%.&%.*%.=%.-%.;%.>%.,%.'%.)%.!%.~%.{%.]%.^%./%.(%._%.:%.<%.[%.}%.|%.1%.2%.3%.4%.5%.6%.B.. #.7%.8%.9%.0%.a%.b%.c%.d%.e%.f%.g%.BP Tx h%.i%.i%.i%.i%.9T j%.k%.",
"2$.3$.l%.m%.n%.o%.p%.q%.r%.s%.t%.u%.v%.w%.x%.y%.z%.A%.B%.C%.2k 2k D%.E%.F%.G%.H%.I%.J%.K%.L%.M%.N%.O%.P%.Q%.R%.S%.T%.U%.V%.W%.X%.Y%.Z%.`%. &..&.+&.@&.#&.$&.%&.&&.*&.=&.-&.;&.>&.,&.'&.)&.!&.~&.{&.]&.^&./&.(&._&.:&.<&.[&.}&.|&.1&.2&.3&.4&.5&.6&.7&.8&.9&.0&.a&.b&.c&.d&.e&.f&.g&.h&.i&.z..'$.B..<T OK j&.k&.l&.m&.n&.o&.ZW p&.q&.r&.s&._Y t&.u&.>#.>#.>#.>#.'M v&.}T ",
"2$.3$.w&.x&.o%.y&.z&.A&.B&.C&.D&.E&.F&.G&.H&.I&.J&.K&.L&.M&.N&.O&.P&.Q&.R&.S&.T&.U&.V&.W&.X&.Y&.Z&.O%.`&. *..*.+*.@*.#*.$*.%*.&*.**.=*.-*.;*.>*.,*.'*.)*.!*.~*.{*.]*.^*./*.(*._*.:*.<*.[*.}*.|*.1*.2*.3*.4*.5*.6*.7*.8*.9*.0*.a*.b*.c*.d*.e*.f*.g*.h*.i*.j*.k*.U@.l*.m*.n*.o*.p*.q*.6I r*.s*.t*.6c 9` IQ u*.v*.w*.x*.y*.z*.A*.B*.X+.C*.D*.E*.F*.G*.>#.H*.>#.>#.I*.j%.}T ",
"2$.J*.w&.m%.K*.L*.p%.M*.N*.O*.P*.Q*.R*.S*.T*.U*.V*.W*.X*.fx Y*.Z*.`*. =..=.+=.@=.#=.$=.%=.&=.*=.==.-=.;=.>=.,=.'=.)=.!=.~=.{=.]=.^=./=.(=._=.:=.<=.[=.}=.|=.1=.2=.3=.4=.5=.6=.7=.8=.9=.0=.a=.b=.c=.d=.e=.f=.g=.h=.i=.j=.k=.l=.m=.n=.o=.p=.q=.r=.s=.t=.u=.v=.w=.x=.y=.z=.A=.B=.C=.JK D=.*Y 6%.E=.F=.IQ >Y G=.H=.I=.J=.CV K=.L=.M=.N=.O=.>A P=.Q=.R=.8Z S=.T=.8Z U=.j%.k%.",
"2$.J*.w&.m%.K*.L*.p%.V=.W=.X=.Y=.Z=.`=. -..-.+-.@-.#-.>j $-.%-.&-.*-.=-.--.;-.>-.,-.'-.)-.!-.~-.{-.]-.]-.^-./-.(-._-.:-.<-.[-.}-.|-.1-.2-.3-.4-.3-.5-.6-.7-.8-.9-.0-.a-.b-.c-.d-.e-.f-.g-.h-.i-.j-.k-.l-.m-.n-.o-.p-.q-.r-.s-.t-.u-.v-.w-.x-.y-.z-.A-.B-.C-.D-.E-.F-.G-.H-.I-.J-.K-.L-.M-.N-.O-.P-.Q-.R-.S-.T-.U-.V-.W-.X-.*#.Y-.Z-.,M N..`-.}$.2N  ;..;.8Z 8Z +;.@;.,#.",
"#;.$;.w&.%;.%;.L*.p%.p%.&;.*;.=;.-;.;;.>;.,;.';.);.!;.~;.{;.];.^;./;.(;.%-._;.:;.<;.[;.};.|;.1;.2;.3;.4;.5;.6;.7;.8;.9;.0;.a;.b;.c;.d;.e;.f;.g;.h;.i;.j;.k;.l;.m;.n;.o;.p;.q;.r;.s;.t;.u;.v;.w;.x;.y;.z;.A;.B;.C;.D;.E;.F;.G;.H;.I;.J;.K;.L;.M;.N;.O;.P;.Q;.R;.S;.T;.U;.V;.W;.JK X;.Y;.N-.Z;.`;. >..>.+>.@>.#>.$>.%>.&>.*>.=>.->.=#.D*.t&.;>.8Z C .>>.,>.'>.)>.8Z +;.!>.",
"~>.~>.$;.w&.w&.{>.L*.o%.p%.]>.^>./>.(>._>.:>.<>.[>.}>.|>.1>.2>.2>.3>.4>./;.5>.5>.6>.7>.8>.9>.0>.a>.b>.c>.d>.e>.f>.g>.h>.i>.j>.k>.l>.m>.n>.o>.p>.q>.r>.s>.t>.u>.v>.w>.x>.y>.z>.A>.B>.C>.D>.E>.F>.G>.H>.I>.J>.K>.L>.M>.N>.O>.P>.Q>.R>.S>.T>.U>.V>.W>.X>.Y>.Z>.`>. ,..,.+,.@,.#,.$,.%,.&,.Z;.*,.=,.-,.b` ;,.>,.,,.',.),.!,.~,.{,.Z-.],.Tx [$.^,.8Z /,.(,._,.:,.)>.C .C .)>.",
"~>.<,.l%.w&.w&.{>.L*.o%.y&.z&.[,.},.|,.1,.2,.3,.4,.4>.5,.6,.7,.8,.9,.0,.2>.a,.b,.c,.d,.e,.f,.8>.g,.h,.[;.i,.j,.k,.l,.m,.n,.o,.p,.q,.r,.s,.t,.u,.v,.w,.x,.y,.z,.A,.B,.C,.D,.E,.F,.G,.H,.I,.J,.K,.L,.M,.N,.O,.P,.Q,.R,.S,.T,.U,.V,.W,.X,.Y,.Z,.`,. '..'.+'.@'.#'.$'.%'.&'.*'.='.-'.;'.}Z >'.FJ }c *7 ,'.''.)'.#X !'.~'.{'.Z+.->.=#.VE ]'.^'.8Z 8Z (,./'.(,.)>.:,.+;.C .)>.",
"$;.$;.~>.('.l%._'.o%.o%.p%.p%.:'.<'.['.}'.|'.1'.2'.|>.3'.4'.5'.6'.7'.8'.9'.0'.a,.a'.b'.c'.d'.e'.f'.g'.h'.i'.j'.k'.l'.m'.r,.n'.o'.p'.q'.r'.s'.t'.u'.v'.w'.x'.y'.z'.A'.B'.C'.D'.E'.F'.G'.H'.I'.J'.K'.L'.M'.N'.O'.P'.Q'.R'.S'.T'.U'.V'.W'.X'.Y'.Z'.`'. )..).+).@).#).$).YR %).&).*).:T p .rd =).-).*7 ;).UQ >).;#.,).').)).y .!).,M ~).F*.{).:,.:,.)>.)>.)>.:,.:,.]).'>._,.",
"~>.<,.w&.('.('.m%.L*.p%.p%.p%.&;.^)./).()._).:).<).[).}).|).1).2).3).4).5).6).7).8).9).0).a).b).c).d).e).f).g).h).i).j).k).l).m).n).o).p).q).r).s).s).t).u).v).w).x).y).z).A).B).C).D).E).F).G).H).I).J).K).L).M).N).O).P).Q).R).S).T).U).V).W).X).Y).Z).`). !..!.+!.JK @!.#!._T B..0` $!.%!.,Y &!.*!.=!.-!.;!.>!.,!.'!.F*.O=.D*.GD )!.!!.~!.~!.~!.~!.~!.:,.:,.+;.+;.)>.",
"<,.<,.$;.('.{!.]!.^!._'.L*.p%./!.(!._!.:!.<!.[!.}!.|!.1!.2!.3!.4!.5!.6!.7!.8!.oK 9!.0!.a!.b!.c!.d!.e!.f!.g!.h!.i!.j!.k!.l!.m!.n!.o!.p!.q!.r!.s!.t!.u!.v!.w!.x!.y!.z!.A!.B!.C!.D!.E!.F!.G!.H!.I!.J!.K!.L!.M!.N!.O!.P!.Q!.R!.S!.T!.U!.V!.W!.X!.Y!.Z!.`!. ~..~.+~.@~.#~.$~.%,.%~.&~.HQ *~.=~.S-.-~.;~.>~.,~.'~.)~.!~.i` ~~.!).,M VE {~.^,.'>.]~.'>.'>.'>.'>.'>.'>.^~./~.(~.",
"_~.~>.$;.~>.{!.:~.<~.<~.[~.L*.o%.z&.}~.|~.1~.2~.3~.4~.5~.6~.7~.8~.7~.9~.0~.a~.b~.c~.d~.5).e~.f~.g~.h~.i~.j~.k~.l~.m~.n~.o~.p~.q~.r~.s~.t~.u~.v~.w~.x~.y~.z~.A~.B~.C~.D~.E~.F~.G~.H~.I~.J~.K~.L~.M~.N~.O~.P~.Q~.R~.S~.T~.U~.V~.W~.X~.Y~.Z~.`~. {..{.+{.@{.#{.${.%{.&{.*{.={.-{.9` ;{.-,.G=.>{.,{.U-.'{.){.!{.~{.{{.r&.Z-.D*.VE ]{.^{.,#.,#.,#./{.({.({.({.({.({._{.:{.<{.",
"_~.~>.~>.~>.{!.:~.<~.<~.[~.L*.p%.z&.z&.[{.}{.|{.1{.2{.3{.4{.5{.6{.7{.8{.9{.0{.a{.b{.c{.d{.e{.f{.g{.h{.i{.j{.k{.l{.m{.n{.o{.p{.q{.r{.s{.t{.u{.v{.w{.x{.y{.z{.A{.B{.C{.D{.E{.F{.G{.H{.I{.J{.K{.L{.M{.N{.O{.P{.Q{.R{.S{.T{.U{.V{.W{.X{.Y{.Z{.Z{.`{. ]..].+].@].#].$].%].&].={.*].;{.=].-].;].#b >].,].'].)].!].~].{].]].],.VE N..^]./].(].^,.!!._].({.({.({.({.({._{.:{.<{.",
"T+.<,.<,.<,.('.:~.<~.<~.:].o%.p%.o%.o%.<].[].}].|].1].2].3].4].5].6].7].8].9].0].a].0{.b].c].d].e].f].g].h].i].j].k].l].m].n].o].p].q].r].s].t].u].v].w].x].y].z].A].B].C].D].E].F].G].H].I].J].K].L].M].N].O].P].Q].R].S].T].U].V].W].X].Y].Z].`]. ^..^.+^.@^.7I #^.$^.%^.&^.*^.b` =^.-^.;^.>^.|N ,^.'^.)^.!^.~^.=#.VK D*.{^.]^.^^./^.(^._^.:^.({.({.}$.,#.({.<^.:{.[^.",
"}^.|^.<,.<,.('.:~.1^.<~.2^.o%.o%.o%.3^.4^.5^.6^.7^.8^.9^.0^.a^.b^.c^.d^.e^.f^.g^.h^.i^.j^.e].k^.l^.m^.n^.o^.p^.q^.8{.r^.s^.t^.u^.v^.w^.x^.y^.z^.A^.B^.C^.D^.E^.F^.G^.H^.I^.J^.K^.L^.M^.N^.O^.P^.Q^.R^.S^.T^.U^.V^.W^.X^.Y^.Z^.`^. /../.+/.@/.#/.$/.%/.&/.*/.=/.-/.;/.>/.,/.'/.)/.!/.~/.{/.]/.^/.//.(/.)^.~]._/.:/.</.'t _/.[/.}/.}/.}/.|/.1/.2/.({.({.3/.3/.4/.5/.6/.7/.",
"}^.|^.~>.$;.('.8/.1^.<~.2^.o%.o%._'.9/.0/.a/.b/.c/.d/.e/.f/.g/.h/.i/.j/.k/.l/.m/.n/.o/.p/.q/.r/.s/.t/.z^.u/.v/.w/.x/.y/.z/.A/.B/.C/.D/.E/.F/.G/.H/.I/.J/.K/.L/.M/.N/.O/.P/.Q/.R/.S/.T/.U/.V/.W/.X/.Y/.Z/.`/. (..(.+(.@(.#(.$(.%(.&(.*(.=(.-(.;(.>(.,(.'(.)(.!(.~(.{(.](.^(.;7 /(.((._(.:(.,~.<(.[(.}(.|(.1(.=#.</.</.2(.3(.4(.5(.|/.|/.6(.7(./^.({.({.({.3/.3/.<^.:{.<{.",
"T+.T+._~.8(.9(.0(.<~.1^.<~.a(.b(.c(.9/.d(.e(.f(.g(.h(.i(.j(.k(.l(.m(.n(.o(.p(.q(.r(.s(.t(.u(.v(.w(.w(.x(.y(.z(.A(.B(.C(.D(.E(.F(.G(.H(.I(.J(.K(.L(.M(.N(.O(.P(.Q(.R(.S(.T(.U(.V(.W(.X(.Y(.Z(.`(. _.._.+_.@_.#_.$_.%_.&_.*_.=_.-_.;_.>_.,_.'_.)_.!_.~_.{_.]_.^_./_.(_.__.:_.<_.[_.}_.|_.1_.2_.3_.4_.1(.5_.Z-.],.],.VE 6_.7_./^.8_.9_.]^.[^.0_.7/.[^.[^.7/.7/.a_.7/.7/.b_.",
"T+.T+.T+.T+.c_.:~.1^.1^.<~.b(.d_.c(.e_.f_.03 g_.h_.i_.j_.k_.l_.m_.n_.k(.o_.p_.q_.r_.s_.t_.u_.v_.w_.A(.x_.y_.z_.A_.B_.C_.D_.E_.F_.G_.H_.I_.J_.K_.L_.M_.N_.O_.P_.Q_.R_.S_.`(.T_.U_.V_.W_.X_.Y_.Z_.`_. :..:.+:.@:.#:.$:.%:.&:.*:.=:.-:.;:.>:.,:.':.):.!:.~:.{:.]:.^:./:.(:._:.::.<:.[:.}:.|:.1:.2:.1(.g%.:/.3:.4:.GD 5:.UQ UQ 6:.7:.8:.9_.7/.9_.9:.7/.[^.[^.7/.a_.0:.0:.7/.",
"T+.T+.}^.T+._~.a:.1^.<~.<~.b(.b:.c:.d:.e:.f:.g:.h:.i:.j:.k:.l:.m:.m_.n:.o:.JR p:.q:.r:.s:.t:.u:.v:.r:.w:.x:.y:.z:.A:.B:.C:.D:.E:.F:.G:.H:.I:.J_.J:.K:.L:.M:.N:.O:.P:.Q:.R:.S:.T:.U:.V:.W:.X:.Y:.Z:.`:. <..<.+<.@<.#<.$<.%<.&<.*<.=<.-<.;<.><.,<.'<.)<.!<.~<.{<.]<.^<.S_ /<.(<._<.:<.<<.V+.4_.[<.}<.|<.1<.],.Tx 2<.3<.4<.5<.5<.5<.9_.^^.]^.6<.6<.7/.9:.9:.9:.7<.8<.a_.]^.",
"T+.T+.T+.T+._~.:~.1^.1^.1^.<~.9<.0<.a<.b<.c<.d<.e<.f<.g<.h<.i<.j<.k<.l<.m<.JR n<.o<.p<.q<.v:.r<.s<.t<.N_.u<.v<.w<.x<.y<.z<.A<.B<.C<.D<.E<.F<.G<.H<.I<.J<.K<.L<.M<.N<.O<.P<.Q<.R<.S<.T<.U<.V<.W<.X<.Y<.Z<.+<.`<. [..[.+[.@[.#[.$[.%[.&[.*[.=[.-[.;[.>[.,[.'[.)[.![.*7 ~[.{[.][.^[./[.([._[.:[.<[.hI [[.Tx >A }[.|[.1[.2[.3[.=!.4[.5[.5[.UQ UQ 5[.5[.5[.6[.6[.5[.6[.7[.6[.",
"}^.}^.8(.T+._~.:~.1^.1^.<~.b(.8[.9[.0[.a[.b[.a[.e<.c[.d[.e[.f[.g[.h[.i[.j[.k[.l[.m[.n[.o[.p[.q[.M<.r[.s[.t[.u[.v[.w[.x[.y[.z[.A[.B[.B[.C[.D[.E[.F[.G[.H[.I[.J[.K[.L[.M[.N[.O[.P[.Q[.R[.S[.T[.U[.V[.W[.X[.Y[.Z[.`[. }..}.+}.@}.#}.$}.%}.&}.*}.=}.-}.;}.>}.,}.'}.)}.!}.~}.{}.]}.^}./}.(}._}.:[.|<.M..:}.<}.[}.}}.>^.|}.1}.1}.|}.2}.3}.3}.3}.3}.3}.6[.6[.7[.6[.5[.6[.6[.5[.",
"4}.4}.##.##.G..9(.9(.9(.5}.6}.c(.7}.c(.a[.8}.9}.0}.a}.b}.c}.d}.e}.f}.g}.h}.i}.j}.k}.l}.m}.n}.L<.o}.p}.q}.r}.K[.s}.t}.u}.v}.w}.x}.y}.z}.A}.B}.x}.C}.D}.E}.F}.G}.H}.I}.J}.K}.L}.M}.N}.O}.P}.Q}.R}.S}.T}.U}.V}.W}.X}.Y}.Z}.`}. |..|.+|.@|.#|.$|.%|.&|.*|.=|.-|.)}.;|.>|.,|.'|.)|.!|.~|.{|.:[.]|.^|./|.<}.(|._|.:|.<|.[|.|[.2}.#X #X 4[.}|.4<.3}.3}.6[.6[.6[.6[.6[.5[.5[.||.",
"U-.1|.1|.2|.3|.##._~.8(.4|.4|.5|.6}.6|.7|.8|.9}.9|.0|.a|.b|.c|.d|.e|.f|.g|.h|.i|.j|.k|.l|.m|.n|.o|.p|.q|.r|.s|.t|.u|.v|.w|.x|.x|.y|.z|.A|.A|.B|.C|.D|.E|.F|.G|.H|.I|.J|.K|.L|.M|.N|.O|.P|.Q|.R|.S|.T|.U|.V|.W|.X|.Y|.Z|.`|. 1..1.+1.@1.#1.$1.%1.&1.*1.=1.::.-1.)'.;1.>1.,1.'1.)1._/.<[.Z-.^|.VE !1.~1.{1.]1.8/.^1./1.^1.(1.}^.}^.]/.>).4[.5<.3}._1._1._1.:1._1.<1.[1.[1.",
"U-.1|.1|.2|.3|.##._~.8(.4|.4|.G..}1.|1.11.21.31.41.51.61.71.81.91.01.a1.b1.c1.d1.e1.f1.g1.h1.i1.j1.k1.l1.m1.n1.t|.o1.p1.q1.r1.s1.t1.u1.v1.w1.x1.y1.z1.A1.B1.C1.D1.E1.F1.G1.H1.I1.J1.K1.L1.M1.N1.O1.P1.Q1.R1.S1.T1.U1.V1.W1.X1.Y1.Z1.`1. 2..2.+2.@2.#2.::.''.$2.%2.&2.*2.=2.-2._/.;2.>2.,2.'2.)2.!2.~2.{2.]2.WE ^2./2.(2._2.^1.}^.:2.<2.[2.}2.|2.3}.3}.3}._1.3}.[1._1.[1.",
"1|.2|.3|.1|.3|.##.8(._~.4|.4|.5|.}1.31.7|.12.22.61.b|.32.42.52.62.72.82.92.02.a2.b2.c2.d2.e2.f2.g2.h2.i2.j2.k2.l2.m2.m2.n2.o2.p2.q2.r2.s2.t2.u2.v2.w2.x2.y2.z2.A2.B2.C2.D2.E2.F2.G2.H2.I2.J2.K2.L2.M2.N2.O2.P2.Q2.R2.S2.T2.U2.V2.W2.X2.Y2.Z2.`2. 3..3.+3.@3.#3.$3.%3.&3.*3.=3.-3.;3.+X >3.,3.'3.)3.!3.~3.{3.]3.^3./3.(3._3._3._3.:3.<3.<3.[3.}3.2}.|3.|3.13.23.13.23.33.",
"U-.1|.]$.U-.2|.43.8(.4|.4|.4|.53.63.31.12.12.b[.b|.73.83.93.03.72.a3.b3.c3.d3.e3.f3.g3.h3.i3.j3.k3.l3.m3.n3.o3.p3.q3.!T r3.oV s3.s3.CQ t3.u3.v3.w3.x3.y3.z3.A3.B3.C3.D3.E3.F3.G3.H3.I3.J3.K3.L3.M3.N3.O3.P3.Q3.R3.S3.T3.U3.V3.W3.X3.Y3.w~ Z3.*1.T-.5}.`3. 4..4.+4.@4.{].#4.$4.BP GD ;G %4.&4.*4.=4.-4.;4.{3.>4.,4.'4./3.(3._3.)4.!4.:3.~4.{4.]4.[3.^4.^4.^4.}3./4.(4.(4.",
"1|.1|.1|.##.G.._4.c_.4|.4|.:4.^$.<4.[4.61.}4.71.|4.14.24.34.44.54.64.74.84.94.04.a4.b4.c4.d4.e4.f4.g4.h4.i4.j4.k4.z2.l4.m4.n4.o4.p4.2O q4.r4.s4.t4.sD XR u4.v4.l4.w4.x4.y4.z4.A4.B4.C4.D4.E4.F4.G4.H4.I4.J4.K4.L4.M4.N4.O4.P4.Q4.R4.S4.T4.U4.V4.W4.H..X4.Y4.J..Z4.`4. 5..5.,M Tx +5.@5.#5.$5.%5.&5.*5.=5.-5.;5.!3.>5.,5.'5.)5.)4.!5.~5.{5.{5.]5.^5.^4.}3.}3./5./4.(5./4.",
"2|.2|._~._~._5.:5.:5.<5.[5.#3.#3.}5.}5.|5.|5.15.25.83.35.45.55.65.75.85.95.05.a5.b5.c5.d5.e5.f5.g5.h5.i5.j5.k5.l5.m5.n5.o5.p5.q5.r5.q5.s5.t5.u5.A3.v5.w5.x5.y5.C=.z5.A5.B5.C5.D5.E5.F5.G5.H5.I5.I5.J5.K5.L5.M5.N5.O5.P5.Q5.R5.5. S5.T5.U5.V5.W5.X5.Y5.Z5.`5. 6.!)..6.+6.E*.@6.#6.$6.%6.&6.*6.=6.-6.;6.>6.,6.'6.!3.)6.!6.~6.{6.!5.]6.~4.{5.~4.^6.<3./6.(6.^4._6.:6.<6.[6.",
"}6.}6.|6.16.]1._5.26._5.36.46.56.66.76.86.96.15.06.a6.b6.c6.d6.e6.f6.g6.h6.i6.j6.k6.l6.m6.n6.o6.p6.q6.r6.s6.t6.u6.v6.w6.x6.y6.z6.A6.B6.C6.D6.E6.F6.G6.H6.I6.J6.K6.uD L6.M6.N6.O6.P6.Q6.R6.S6.S6.T6.U6.V6.W6.X6.Y6.Z6.`6. 7..7.+7.@7.#7.$7.%7.%#.&7.*7.=7.-7.;7.>7.-G Tx ,7.'7.)7.!7.~7.{7.]7.^7./7.(7._7.:7.<7.;4.)6.)6.[7.!6.}7.|7.17.17.27.37.47.<3.(5.}3.^4.(5.<6.[6.",
"57.57.67._2.36.$#.$#.77.#3.87.97.07.07.a7.07.b7.c7.d7.e7.f7.g7.h7.h6.i7.j7.k7.l7.m7.n7.o7.p7.q7.r7.s7.t7.u7.v7.w7.L6.x7.y7.y7.z7.7C A7.B7.C7.D7.E7.F7.G7.H7.I7.J7.K7.L7.M7.N7.O7.P7.Q7.R7.S7.T7.U7.V7.W7.X7.Y7.Z7.`7. 8..8.+8.@8.#8.$8.%8.&8.@4.*8.=8.2(..6.O=.Tx -8.;8.>8.,8.'8.)8.!8.!8.~8.{8.{8.]8.^8./8.(8.(8._8.:8.<8.)6.)6.[8.}8.|8.|8.18.28.38.48.58.68.(5.<6.<6.",
"78.88.98.:|.08.36.36.#3.87.87.a8.07.a7.a7.b8.c8.d8.e8.f8.g8.h7.h8.i8.j8.k8.l8.m8.n8.o8.p8.q8.r8.s8.t8.u8.v8.w8.x8.y8.z8.A8.B8.C8.D8.E8.F8.G8.H8.I8.48 J8.K8.L8.M8.N8.O8.P8.Q8.R8.S8.T8.U8.V8.W8.X8.Y8.Z8.`8. 9..8..9.+9.@9.#9.eO $9.%9.&9.Z4.Z-.;2.*9.=9.N..-9.;9.>9.,9.'9.)9.!9.~9.)7.{9.]9.{7.]7.^9./9.(9._9.:9.<9.[9.}9.:8.|9.!6.19.19.29.39.37.37.49.48.59.69.<6.<6.",
"79.89.:|.:|.99.36.#3.46.87.87.09.07.a9.b9.c9.d9.e9.f9.g9.h9.i9.j9.k9.l9.m9.n9.o9.p9.q9.r9.s9.t9.u9.v9.w9.x9.y9.z9.A9.B9.C9.D9.E9.F9.G9.H9.I9.J9.K9.L9.M9.N9.O9.L9.P9.Q9.;Y R9.S9.R8.T9.U9.V9.W9.X9.Y9.Z9.`9. 0..0.+0.@0.#0.$0.{Y %0.&0.*0.=0.}N +z D*.-0.;0.>0.,0.'0.)0.!0.~0.{0.]0.^0./0.(0._0.!8.:0.<0.[0.}0.|0.10.20.[9.30.40.50.50.60.29.39.70.37.80.49.^6.48.<6.<6.",
"_2.90.00.36.36.#3.46.}5.a0.b0.c0.d0.e0.f0.g0.h0.i0.j0.k0.l0.m0.`6 n0.o0.o7.p0.q0.r0.s0.t0.u0.v0.w0.x0.y0.z0.A0.B0.C0.D0.E0.F0.G0.2H H0.I0.I0.J0.K0.L0.M0.N0.O0.P0.Q0.R0.S0.T0.U0.V0.W0.X0.Y0.Z0.`0. a..a.+a.@a.#a.$a.%a.&a.*a.=a.-a.GV >2.;a.>a.,a.'a.)a.!a.~a.{a.]a.^a./a.(a._a.:a.<a.[a.}a.(0.|a.1a.2a.3a.4a.5a.6a.7a.7a.[9.8a.9a.0a.[7.aa.ba.19.39.ca.ca.da.ea.80.fa.",
"(2.98.DP 36.36.ga.ha.ia.ja.ka.la.la.b9.g0.ma.na.oa.pa.qa.ra.sa.ta.ua.va.wa.xa.ya.za.t0.Aa.Ba.Ca.x0.Da.Ea.Fa.Ga.Ha.Ia.Ja.Ka.La.Ma.Na.Oa. 3.ip Pa.<_.<_.Qa.E0.Ra.Sa.Ta.Ua.Va.Wa.Xa.Ya.Za.`a. b..b.+b.:N @b.#b.$b.%b.&b.f%.-7.*b.<o =b.-b.;b.>b.,b.'b.)b.!b.~b.{b.]b.^b./b.(b._b.:b.<b.[b.}b.|b.}a.1b.|a.1a.2a.3a.2b.2b.3b.7a.4b.5b.:8.6b.0a.19.29.7b.7b.7b.8b.8b.9b.0b.ab.",
"_2.98.bb.cb.36.db.ia.eb.ka.07.fb.gb.hb.ib.jb.kb.lb.mb.nb.ob.m9.pb.qb.q0.rb.sb.tb.ub.vb.wb.xb.yb.zb.Ab.Ga.Bb.Cb.Db.Eb.Fb.Gb.Hb.Ib.Jb.Kb.Lb.fb.~>.0(.a:.Mb.Mb.Nb.Ob.Pb.*M Qb.Rb.Sb.Tb.Ub.Vb.Wb.Xb.Yb.Zb.`b. c.hI .6.,M @X .c.+c.@c.#c.$c.%c.%c.&c.*c.=c.-c.;c.>c.,c.'c.)c.!c.~c.{c.]c.^c./c.(c._c.:c.<c.[c.}c.|c.3a.1c.2c.3b.3c.4c.5c.6c.7c.6b.8c.50.7b.8b.8b.8b.9c.0c.ac.",
"_2._2.bc.cc.36.ha.dc.09.ec.a9.gb.gb.ib.fc.gc.hc.ic.jc.kc.lc.mc.nc.oc.pc.qc.u0.rc.sc.Ca.tc.uc.vc.wc.xc.yc.zc.Ac.Bc.Cc.Dc.Ec.Fc.Gc.Hc.Ic.Jc.Ic.Kc.Lc.Mc.Nc.Oc.([.Pc.Qc.Rc.Sc.(/.Tc.').Uc.Vc.Wc.Xc.!).Yc.Zc.`c. d..d.+d.@d.#d.$d.%d.&d.*d.=d.-d.;d.%c.>d.,d.'d.)d.!d.~d.{d.]d.^d./d.(d._d.^c.:d.<d.[d.}d.|d.[c.1d.2d.3d.4d.5d.6d.7d.4c.8d.9d.6c.7c.50.60.7b.7b.8b.0d.ad.bd.",
"98._2.bc.36.#3.cd.dd.09.ec.a9.ed.fd.gd.X# hd.id.k0.jd.kd.ld.md.nd.od.pd.qd.rd.sd.td.ud.vd.wd.xd.yd.zd.Ad.Bd.Cd.Dd.Ed.Fd.Gd.Hd.Id.Jd.Kd.Ld.Md.Nd.Od.Pd.Qd.Rd.Sd.Td.Ud.Vd.Wd.Xd.Yd.Zd.`d. e..e.+e.@e.#e.$e.%e.&e.*e.=e.-e.;e.>e.,e.'e.)e.!e.~e.{e.]e.^e./e.(e._e.:e.<e.[e.}e.|e.1e.2e.3e.4e.5e.6e.7e.8e.9e.0e.[c.ae.2d.be.1c.5d.ce.de.7d.ee.30.9d.fe.ge.he.ie.je.ke.le.me.",
"ne.:|.:|.bb.oe.pe.qe.re.se.te.ue.ve.we.xe.ye.ze.ra.Ae.Be.Ce.De.Ee.Fe.Ge.He.Ie.Je.Ke.Le.Me.Ne.Oe.Pe.Qe.Re.Se.Te.Ue.Ve.We.Xe.Ye.Ze.`e. f..f.+f.@f.#f.$f.%f.&f.*f.=f.-f.;f.>f.,f.,f.'f.'f.)f.!f.!f.~f.{f.]f.^f./f.(f._f.:f.<f.[f.}f.|f.1f.Ud.2f.3f.4f.5f.6f.7f.8f.9f.0f.af.bf.cf.df.ef.ff.gf.hf.if.jf.kf.lf.mf.nf.of.pf.qf.rf.be.4d.ce.sf.tf.uf.vf.wf.xf.yf.zf.je.Af.Bf.Cf.",
":|.Df.:|.Ef./1.pe.Ff.Gf.Hf.If.Jf.Kf.Lf.Mf.Nf.Of.Pf.Qf.Rf.Sf.Tf.Uf.]a.qd.Vf.Wf.Xf.Yf.Zf.Bb.`f. g..g.+g.@g.#g.$g.%g.&g.*g.=g.-g.;g.>g.,g.'g.)g.!g.~g.{g.]g.^g./g.(g._g.:g.<g.[g.}g.|g.|g.1g.2g.2g.3g.4g.5g.6g.7g.8g.9g.0g.ag.bg.cg.dg.eg.fg.gg.hg.ig.jg.kg.6f.lg.mg.ng.og.pg.qg.rg.sg.tg.ug.vg.wg.xg.yg.zg.Ag.Bg.Cg.Dg.Eg.Fg.Gg.Hg.4d.Ig.Jg.Kg.Lg.Mg.9a.xf.yf.ie.Ng.Ng.Og.",
":|.:|.89.Pg./1.Qg.;4.Gf.If.Rg.Sg.Kf.Lf.Mf.Nf.Tg.Ug.Vg.Wg.Xg.Yg.Zg.`g. h..h.+h.@h.#h.$h.%h.&h..g.*h.@g.#g.=h.-h.;h.>h.,h.'h.)h.!h.~h.{h.]h.^h./h.(h._h.:h.<h.[h.}h.|h.1h.2h.3h.4h.5h.6h.4h.7h.8h.9h.0h.ah.bh.ch.dh.eh.fh.gh.hh.ih.jh.kh.lh.mh.nh.Ud.oh.ph.qh.rh.sh.th.uh.vh.wh.xh.yh.zh.Ah.Bh.Ch.Dh.Eh.Fh.Gh.Hh.Ih.Dg.Jh.Kh.rf.Lh.Mh.ce.Ig.Nh.Oh.Ph.Qh.xf.xf.he.Af.Ng.Og."};
