/* XPM */
static char *W[] = {
/* columns rows colors chars-per-pixel */
"128 128 180 2 ",
"   c #008000",
".  c #018001",
"X  c #038103",
"o  c #048204",
"O  c #058205",
"+  c #078307",
"@  c #088408",
"#  c #098409",
"$  c #0A850A",
"%  c #0B850B",
"&  c #0C860C",
"*  c #0D860D",
"=  c #0F870F",
"-  c #108810",
";  c #118811",
":  c #128912",
">  c #138913",
",  c #148A14",
"<  c #158A15",
"1  c #198C19",
"2  c #1A8D1A",
"3  c #1D8E1D",
"4  c #1E8F1E",
"5  c #1F8F1F",
"6  c #229122",
"7  c #239123",
"8  c #249224",
"9  c #259225",
"0  c #269326",
"q  c #279327",
"w  c #299429",
"e  c #2A952A",
"r  c #2B952B",
"t  c #2C962C",
"y  c #2D962D",
"u  c #2E972E",
"i  c #319831",
"p  c #329932",
"a  c #339933",
"s  c #349A34",
"d  c #359A35",
"f  c #369B36",
"g  c #379B37",
"h  c #389C38",
"j  c #399C39",
"k  c #3C9E3C",
"l  c #3D9E3D",
"z  c #3E9F3E",
"x  c #41A041",
"c  c #42A142",
"v  c #43A143",
"b  c #44A244",
"n  c #46A346",
"m  c #47A347",
"M  c #4AA54A",
"N  c #4BA54B",
"B  c #4CA64C",
"V  c #4DA64D",
"C  c #4EA74E",
"Z  c #4FA74F",
"A  c #50A850",
"S  c #51A851",
"D  c #56AB56",
"F  c #57AB57",
"G  c #58AC58",
"H  c #59AC59",
"J  c #5AAD5A",
"K  c #5BAD5B",
"L  c #5CAE5C",
"P  c #60B060",
"I  c #61B061",
"U  c #62B162",
"Y  c #63B163",
"T  c #65B265",
"R  c #66B366",
"E  c #67B367",
"W  c #68B468",
"Q  c #69B469",
"!  c #6BB56B",
"~  c #6CB66C",
"^  c #6EB76E",
"/  c #6FB76F",
"(  c #71B871",
")  c #72B972",
"_  c #73B973",
"`  c #74BA74",
"'  c #75BA75",
"]  c #76BB76",
"[  c #7ABD7A",
"{  c #7BBD7B",
"}  c #7EBF7E",
"|  c #7FBF7F",
" . c #80C080",
".. c #81C081",
"X. c #84C284",
"o. c #87C387",
"O. c #88C488",
"+. c #8AC58A",
"@. c #8BC58B",
"#. c #8CC68C",
"$. c #8DC68D",
"%. c #8FC78F",
"&. c #93C993",
"*. c #94CA94",
"=. c #96CB96",
"-. c #97CB97",
";. c #98CC98",
":. c #99CC99",
">. c #9DCE9D",
",. c #9ECF9E",
"<. c #9FCF9F",
"1. c #A0D0A0",
"2. c #A2D1A2",
"3. c #A3D1A3",
"4. c #A4D2A4",
"5. c #A5D2A5",
"6. c #A6D3A6",
"7. c #A8D4A8",
"8. c #A9D4A9",
"9. c #ABD5AB",
"0. c #ACD6AC",
"q. c #ADD6AD",
"w. c #AED7AE",
"e. c #AFD7AF",
"r. c #B0D8B0",
"t. c #B1D8B1",
"y. c #B2D9B2",
"u. c #B3D9B3",
"i. c #B7DBB7",
"p. c #B8DCB8",
"a. c #B9DCB9",
"s. c #BBDDBB",
"d. c #BCDEBC",
"f. c #BDDEBD",
"g. c #BEDFBE",
"h. c #C2E1C2",
"j. c #C4E2C4",
"k. c #C5E2C5",
"l. c #C7E3C7",
"z. c #C8E4C8",
"x. c #C9E4C9",
"c. c #CAE5CA",
"v. c #CBE5CB",
"b. c #CCE6CC",
"n. c #D0E8D0",
"m. c #D1E8D1",
"M. c #D2E9D2",
"N. c #D3E9D3",
"B. c #D4EAD4",
"V. c #D5EAD5",
"C. c #D6EBD6",
"Z. c #D7EBD7",
"A. c #D9ECD9",
"S. c #DBEDDB",
"D. c #DCEEDC",
"F. c #DDEEDD",
"G. c #E0F0E0",
"H. c #E1F0E1",
"J. c #E2F1E2",
"K. c #E3F1E3",
"L. c #E5F2E5",
"P. c #E6F3E6",
"I. c #E8F4E8",
"U. c #E9F4E9",
"Y. c #EBF5EB",
"T. c #ECF6EC",
"R. c #EDF6ED",
"E. c #EEF7EE",
"W. c #F1F8F1",
"Q. c #F2F9F2",
"!. c #F4FAF4",
"~. c #F5FAF5",
"^. c #F8FCF8",
"/. c #F9FCF9",
"(. c #FAFDFA",
"). c #FBFDFB",
"_. c #FCFEFC",
"`. c #FDFEFD",
"'. c #FEFFFE",
"]. c white",
/* pixels */
"].].].].].].].].].].].].].].].].].].].].].].].].].].].].].].].].].].].].].].].].].].].].].].].].].].].].].].].].].].].].].].].].].].].].].].].].].].].].].].].].].].].].].].].].].].].].].].].].].].].].].].].].].].].].].].].].].].].].].].].].].].].].].].].].",
"                                ].].].].].].].].].].].].].      ].].].              ].].              ].].                ].                  ].                  ].                ].                  ].                  ].                  ].              ",
"                                                        ].].].].].].].].].].].].        ].].              ].                ].                  ].                ].                  ].                  ].                ].                  ].              ",
"                                                                    ].].].].].].].].].].].].].].].].].].    ].].              ].                ].                  ].                ].                  ].                ].                  ].              ",
"                                                                              ].].].].].].      ].].    ].].].].].].].].].].].].].].              ].                ].                  ].                ].                  ].                ].              ",
"                                                                                          ].].].].].].].].          ].          ].].].].].].].].].].].                ].                ].                ].                  ].                ].              ",
"                                                                                                ].].].].].].].].      ].].            ].              ].].].].].].].].].].].].            ].                ].                ].                ].              ",
"                                                                                                        ].].].].].].].].].].            ].              ].              ].    ].].].].].].].].].].].].      ].                ].                ].              ",
"                                                                                                              ].].].].    ].].].].].      ].              ].              ].              ].          ].].].].].].].].].].].].].                  ].            ",
"                                                                                                                    ].].].].    ].  ].].].].].].          ].              ].                ].                ].              ].].].].].].].].].].].].          ",
"                                                                                                                          ].].].].].].        ].].].].].].  ].              ].              ].                ].                ].                ].  ].].].].].",
"                                                                                                                                ].].].].        ].].      ].].].].].].        ].              ].              ].                ].                ].            ",
"                                                                                                                                    ].].].].].      ].          ].    ].].].].].              ].              ].                ].                ].            ",
"                                                                                                                                        ].].].].].].].].          ].            ].].].].].    ].                ].              ].                ].            ",
"                                                                                                                                            ].].].    ].].].        ].          ].        ].].].].].].          ].              ].                ].            ",
"                                                                                                                                                ].].].    ].].].].  ].            ].            ].    ].].].].].].              ].                ].            ",
"                                                                                                                                                      ].].  ].    ].].].            ].            ].            ].].].].].].      ].              ].            ",
"                                                                                                                                                        ].].].].        ].].].].    ].            ].              ].        ].].].].].            ].            ",
"                                                                                                                                                            ].].].        ].    ].].].].            ].            ].              ].  ].].].].].  ].            ",
"                                                                                                                                                              ].].].].      ].        ].].].        ].            ].              ].            ].].].].].].    ",
"                                                                                                                                                                  ].  ].].].  ].        ].  ].].].  ].              ].            ].              ].        ].].",
"                                                                                                                                                                    ].].].  ].].          ].      ].].].].          ].            ].              ].            ",
"                                                                                                                                                                        ].].    ].].      ].          ].  ].].].    ].              ].            ].            ",
"                                                                                                                                                                            ].    ].].].    ].          ].      ].].].              ].              ].          ",
"                                                                                                                                                                              ].].  ].  ].].].          ].            ].].].].      ].              ].          ",
"                                                                                                                                                                                ].].  ].    ].].].        ].          ].      ].].].].              ].          ",
"                                                                                                                                                                                  ].].].].      ].].].    ].          ].            ].].].          ].          ",
"                                                                                                                                                                                      ].].      ].    ].].].            ].          ].    ].].].    ].          ",
"                                                                                                                                                                                        ].].].    ].      ].].          ].            ].        ].].].].        ",
"                                                                                                                                                                                          ].].].].].        ].].].      ].            ].            ].  ].].].  ",
"                                                                                                                                                                                            ].].  ].].        ].  ].].].].            ].            ].        ].",
"                                                                                                                                                                                              ].].  ].].      ].        ].].          ].            ].          ",
"                                                                                                                                                                                                ].].  ].].      ].        ].].].      ].            ].          ",
"                                                                                                                                                                                                  ].    ].].].  ].        ].    ].].  ].            ].          ",
"                                                                                                                                                                                                    ].].].    ].].          ].      ].].].          ].          ",
"                                                                                                                                                                                                      ].].].    ].].        ].          ].].].      ].          ",
"                                                                                                                                                                                                        ].].].    ].].      ].          ].    ].].  ].          ",
"                                                                                                                                                                                                          ].].      ].].].  ].          ].        ].].          ",
"                                                                                                                                                                                                          ].  ].    ].    ].].].        ].            ].].      ",
"                                                                                                                                                                                                            ].].].  ].        ].        ].            ].  ].].  ",
"                                                                                                                                                                                                              ].].].  ].      ].].].      ].          ].      ].",
"                                                                                                                                                                                                                ].].].].      ].    ].    ].          ].        ",
"                                                                                                                                                                                                                  ].    ].      ].    ].].].          ].        ",
"                                                                                                                                                                                                                    ].  ].].    ].        ].          ].        ",
"                                                                                                                                                                                                                    ].    ].].  ].        ].].].      ].        ",
"                                                                                                                                                                                                                      ].  ].  ].  ].      ].    ].    ].        ",
"                                                                                                                                                                                                                        ].].    ].].        ].    ].].].        ",
"                                                                                                                                                                                                                        ].].].    ].        ].        ].].      ",
"                                                                                                                                                                                                                          ].].    ].].      ].        ].  ].    ",
"                                                                                                                                                                                                                          ].  ].    ].].].  ].        ].    ].].",
"                                                                                                                                                                                                                            ].].    ].    ].].        ].        ",
"                                                                                                                                                                                                                              ].].  ].      ].        ].        ",
"                                                                                                                                                                                                                              ].].].  ].      ].      ].        ",
"                                                    g.].].].].].].].].].].].].z                                   R.].].].].].].].].].].].].H                                   M.].].].].].].].].].].].].;                     ].  ].].      ].].      ].      ",
"                                                     .].].].].].].].].].].].].{                                 w ].].].].].].].].].].].].].=.                                ; ].].].].].].].].].].].].b.                      ].].  ].      ].  ].    ].      ",
"                                                    v ].].].].].].].].].].].].a.                                W ].].].].].].].].].].].].].M.                                V ].].].].].].].].].].].].*.                        ].  ].].    ].    ].  ].      ",
"                                                    $ (.].].].].].].].].].].].Q.                                4.].].].].].].].].].].].].].].;                               +.].].].].].].].].].].].].D                           ].  ].    ].      ].].      ",
"                                                      z.].].].].].].].].].].].].d                               K.].].].].].].].].].].].].].].V                               z.].].].].].].].].].].].].1                           ].  ].].  ].        ].].    ",
"                                                      +.].].].].].].].].].].].].(                             5 ].].].].].].].].].].].].].].].+.                            $ (.].].].].].].].].].].].D.                            ].].].  ].].        ].  ].  ",
"                                                      V ].].].].].].].].].].].].e.                            L ].].].].].].].].].].].].].].].l.                            v ].].].].].].].].].].].].<.                              ].  ].  ].].      ].    ].",
"                                                      ; ].].].].].].].].].].].].Y.                            :.].].].].].].].].].].].].].].].(.$                           ..].].].].].].].].].].].].U                               ].].].    ].      ].      ",
"                                                        M.].].].].].].].].].].].].w                           C.].].].].].].].].].].].].].].].].v                           g.].].].].].].].].].].].].9                                 ].].    ].].    ].      ",
"                                                        *.].].].].].].].].].].].].R                         , ].].].].].].].].].].].].].].].].].}                         O ~.].].].].].].].].].].].I.                                  ].].    ].].    ].      ",
"                                                        D ].].].].].].].].].].].].4.                        A ].].].].].].].].].].].].].].].].].a.                        j ].].].].].].].].].].].].9.                                    ].].  ].  ].  ].      ",
"                                                        1 ].].].].].].].].].].].].H.                        $.].].].].].].].].].].].].].].].].].Q.O                       ] ].].].].].].].].].].].]./                                     ].].  ].    ].].      ",
"                                                          D.].].].].].].].].].].].].5                       z.].].].].].].].].R.].].].].].].].].].d                       u.].].].].].].].].].].].].p                                     ].].].  ].    ].      ",
"                                                          <.].].].].].].].].].].].].L                     & (.].].].].].].].]...].].].].].].].].].(                       R.].].].].].].].].].].].Q.                                        ].  ].].    ].].    ",
"                                                          P ].].].].].].].].].].].].:.                    n ].].].].].].].].].t S.].].].].].].].].e.                    t ].].].].].].].].].].].].a.                                        ].].].].    ].  ].  ",
"                                                          9 ].].].].].].].].].].].].C.                    ..].].].].].].].].R.  <.].].].].].].].].Y.                    / ].].].].].].].].].].].].{                                           ].  ].      ].].  ",
"                                                            L.].].].].].].].].].].].].,                   g.].].].].].].].].r.  L ].].].].].].].].].w                   4.].].].].].].].].].].].].z                                           ].  ].      ].  ].",
"                                                            7.].].].].].].].].].].].].Z                 O ~.].].].].].].].].]   7 ].].].].].].].].].R                   L.].].].].].].].].].].].(.O                                             ].].].    ].    ",
"                                                            ! ].].].].].].].].].].].].%.                j ].].].].].].].].].d     L.].].].].].].].].4.                9 ].].].].].].].].].].].].l.                                              ].  ].].  ].    ",
"                                                            i ].].].].].].].].].].].].b.                ] ].].].].].].].].~.O     4.].].].].].].].].K.                P ].].].].].].].].].].].].X.                                              ].  ].].  ].    ",
"                                                              R.].].].].].].].].].].].(.&               r.].].].].].].].].g.      R ].].].].].].].].].5               <.].].].].].].].].].].].].N                                               ].].].  ].].    ",
"                                                              r.].].].].].].].].].].].].m               R.].].].].].].].].}       t ].].].].].].].].].H               S.].].].].].].].].].].].].;                                                 ].].  ].].    ",
"                                                              ] ].].].].].].].].].].].].X.            t ].].].].].].].].].v         Y.].].].].].].].].=.            1 ].].].].].].].].].].].].b.                                                  ].].    ].    ",
"                                                              j ].].].].].].].].].].].].h.            ! ].].].].].].].].].&         r.].].].].].].].].C.            G ].].].].].].].].].].].].*.                                                  ].].    ].].  ",
"                                                              O ~.].].].].].].].].].].].^.O           4.].].].].].].].].l.          ( ].].].].].].].].].;           =.].].].].].].].].].].].].D                                                     ].].  ].].  ",
"                                                                g.].].].].].].].].].].].].z           K.].].].].].].].].+.          d ].].].].].].].].].V           n.].].].].].].].].].].].].2                                                     ].].  ].  ].",
"                                                                } ].].].].].].].].].].].].[         5 ].].].].].].].].].Z             Q.].].].].].].].].+.        & ].].].].].].].].].].].].D.                                                      ].].  ].  ].",
"                                                                v ].].].].].].].].].].].].i.        L ].].].].].].].].].;             a.].].].].].].].].l.        V ].].].].].].].].].].].].<.                                                      ].].].].    ",
"                                                                $ (.].].].].].].].].].].].W.        :.].].].].].].].].C.              { ].].].].].].].].(.$       +.].].].].].].].].].].].].R                                                         ].].].    ",
"                                                                  l.].].].].].].].].].].].].p       C.].].].].].].].].=.              z ].].].].].].].].].v       l.].].].].].].].].].].].].9                                                         ].  ].    ",
"                                                                  +.].].].].].].].].].].].].(     ; ].].].].].].].].].H               $ ^.].].].].].].].].}     # (.].].].].].].].].].].].I.                                                          ].].].].  ",
"                                                                  V ].].].].].].].].].].].].e.    A ].].].].].].].].].5                 h.].].].].].].].].a.    v ].].].].].].].].].].].].e.                                                            ].].].  ",
"                                                                  & ].].].].].].].].].].].].I.    $.].].].].].].].].K.                  X.].].].].].].].].~.O   } ].].].].].].].].].].].]./                                                             ].  ].  ",
"                                                                    M.].].].].].].].].].].].].9   z.].].].].].].].].4.                  n ].].].].].].].].].d   g.].].].].].].].].].].].].i                                                             ].  ].  ",
"                                                                    =.].].].].].].].].].].].].R $ (.].].].].].].].].R                   & (.].].].].].].].].( O Q.].].].].].].].].].].].Q.                                                              ].  ].].",
"                                                                    D ].].].].].].].].].].].].1.n ].].].].].].].].].w                     b.].].].].].].].].e.d ].].].].].].].].].].].].a.                                                              ].].].].",
"                                                                    1 ].].].].].].].].].].].].H.} ].].].].].].].].R.                      $.].].].].].].].].Y.] ].].].].].].].].].].].].{                                                                 ].].  ",
"                                                                      S.].].].].].].].].].].].].S.].].].].].].].].u.                      V ].].].].].].].].].A.].].].].].].].].].].].].z                                                                 ].].  ",
"                                                                      <.].].].].].].].].].].].].].].].].].].].].].(                       ; ].].].].].].].].].].].].].].].].].].].].].^.#                                                                 ].].  ",
"                                                                      P ].].].].].].].].].].].].].].].].].].].].].g                         C.].].].].].].].].].].].].].].].].].].].].l.                                                                  ].].  ",
"                                                                      9 ].].].].].].].].].].].].].].].].].].].].~.                          =.].].].].].].].].].].].].].].].].].].].].O.                                                                  ].].  ",
"                                                                        L.].].].].].].].].].].].].].].].].].].].g.                          G ].].].].].].].].].].].].].].].].].].].].V                                                                   ].].  ",
"                                                                        7.].].].].].].].].].].].].].].].].].].].|                           2 ].].].].].].].].].].].].].].].].].].].].&                                                                     ].].",
"                                                                        ! ].].].].].].].].].].].].].].].].].].].v                             D.].].].].].].].].].].].].].].].].].].n.                                                                      ].].",
"                                                                        t ].].].].].].].].].].].].].].].].].].^.$                             1.].].].].].].].].].].].].].].].].].].=.                                                                      ].].",
"                                                                          W.].].].].].].].].].].].].].].].].].z.                              P ].].].].].].].].].].].].].].].].].].D                                                                       ].].",
"                                                                          r.].].].].].].].].].].].].].].].].].+.                              9 ].].].].].].].].].].].].].].].].].].2                                                                       ].].",
"                                                                          ] ].].].].].].].].].].].].].].].].].V                                 L.].].].].].].].].].].].].].].].].D.                                                                        ].].",
"                                                                          d ].].].].].].].].].].].].].].].].].;                                 7.].].].].].].].].].].].].].].].].1.                                                                          ].",
"                                                                          O Q.].].].].].].].].].].].].].].].C.                                  ! ].].].].].].].].].].].].].].].].R                                                                           ].",
"                                                                            g.].].].].].].].].].].].].].].].=.                                  t ].].].].].].].].].].].].].].].].9                                                                           ].",
"                                                                            } ].].].].].].].].].].].].].].].H                                     R.].].].].].].].].].].].].].].Y.                                                                            ].",
"                                                                                                                                                                                                                                                              ].",
"                                                                                                                                                                                                                                                              ].",
"                                                                                                                                                                                                                                                              ].",
"                                                                                                                                                                                                                                                              ].",
"                                                                                                                                                                                                                                                              ].",
"                                                                                                                                                                                                                                                              ].",
"                                                                                                                                                                                                                                                              ].",
"                                                                                                                                                                                                                                                              ].",
"                                                                                                                                                                                                                                                                ",
"                                                                                                                                                                                                                                                                ",
"                                                                                                                                                                                                                                                                ",
"                                                                                                                                                                                                                                                                ",
"                                                                                                                                                                                                                                                                ",
"                                                                                                                                                                                                                                                                ",
"                                                                                                                                                                                                                                                                ",
"                                                                                                                                                                                                                                                                ",
"                                                                                                                                                                                                                                                                ",
"                                                                                                                                                                                                                                                                ",
"                                                                                                                                                                                                                                                                ",
"                                                                                                                                                                                                                                                                ",
"                                                                                                                                                                                                                                                                ",
"                                                                                                                                                                                                                                                                ",
"                                                                                                                                                                                                                                                                "
};
