/* XPM */
static char *W_soft[] = {
/* columns rows colors chars-per-pixel */
"128 128 139 2 ",
"   c #88C999",
".  c #89CA9A",
"X  c #8ACA9B",
"o  c #8BCA9C",
"O  c #8CCB9C",
"+  c #8CCB9D",
"@  c #8DCB9D",
"#  c #8ECC9E",
"$  c #8FCC9F",
"%  c #90CDA0",
"&  c #91CDA1",
"*  c #92CDA1",
"=  c #94CEA3",
"-  c #94CFA3",
";  c #96CFA5",
":  c #96D0A5",
">  c #98D0A7",
",  c #99D1A7",
"<  c #99D1A8",
"1  c #9AD1A8",
"2  c #9AD1A9",
"3  c #9BD2A9",
"4  c #9CD2AA",
"5  c #9DD2AB",
"6  c #9DD3AB",
"7  c #9FD3AD",
"8  c #9FD4AD",
"9  c #A0D4AD",
"0  c #A0D4AE",
"q  c #A1D4AE",
"w  c #A1D4AF",
"e  c #A2D5AF",
"r  c #A3D5B0",
"t  c #A4D6B1",
"y  c #A5D6B2",
"u  c #A6D7B3",
"i  c #A7D7B3",
"p  c #A7D7B4",
"a  c #A8D7B4",
"s  c #A9D8B5",
"d  c #ABD9B7",
"f  c #ACD9B8",
"g  c #ACDAB8",
"h  c #ADDAB9",
"j  c #AEDAB9",
"k  c #B0DBBB",
"l  c #B1DBBC",
"z  c #B1DCBC",
"x  c #B2DCBD",
"c  c #B3DCBE",
"v  c #B5DDBF",
"b  c #B5DEC0",
"n  c #B6DEC0",
"m  c #B6DEC1",
"M  c #B7DEC1",
"N  c #B8DFC2",
"B  c #B9DFC3",
"V  c #BAE0C4",
"C  c #BBE0C5",
"Z  c #BCE1C5",
"A  c #BDE1C6",
"S  c #BDE1C7",
"D  c #BEE1C7",
"F  c #BEE2C7",
"G  c #BFE2C8",
"H  c gainsboro",
"J  c #C1E3CA",
"K  c #C3E4CB",
"L  c #C3E4CC",
"P  c #C4E4CC",
"I  c #C4E4CD",
"U  c #C6E5CE",
"Y  c #C7E6CF",
"T  c #C8E6D0",
"R  c #C9E6D1",
"E  c #C9E7D1",
"W  c #CAE7D1",
"Q  c #CBE7D2",
"!  c #CDE8D4",
"~  c #CEE9D5",
"^  c #CFE9D6",
"/  c #D1EAD8",
"(  c #D2EAD8",
")  c #D2EBD9",
"_  c #D3EBD9",
"`  c #D4EBDA",
"'  c #D4ECDA",
"]  c #D5ECDB",
"[  c #D6EDDC",
"{  c #D7EDDD",
"}  c #D8EDDD",
"|  c #D8EDDE",
" . c #D9EEDE",
".. c #D9EEDF",
"X. c #DAEEDF",
"o. c #DBEEE0",
"O. c #DBEFE0",
"+. c #DCEFE1",
"@. c #DDF0E2",
"#. c #DEF0E3",
"$. c #DFF1E4",
"%. c #E0F1E4",
"&. c #E0F1E5",
"*. c #E1F1E5",
"=. c #E3F2E7",
"-. c #E3F3E7",
";. c #E4F3E8",
":. c #E5F3E9",
">. c #E6F4E9",
",. c #E6F4EA",
"<. c #E7F4EA",
"1. c #E7F4EB",
"2. c #E9F5EC",
"3. c #EAF5ED",
"4. c #EAF6ED",
"5. c #EBF6EE",
"6. c #ECF6EF",
"7. c #ECF7EF",
"8. c #EDF7F0",
"9. c #EEF7F1",
"0. c #EFF8F1",
"q. c #F1F8F3",
"w. c #F1F9F3",
"e. c #F2F9F4",
"r. c #F3F9F5",
"t. c #F3FAF5",
"y. c #F4FAF6",
"u. c #F5FAF6",
"i. c #F6FBF7",
"p. c #F7FBF8",
"a. c #F8FCF9",
"s. c #F9FCFA",
"d. c #FAFDFB",
"f. c #FCFEFC",
"g. c #FCFEFD",
"h. c #FDFEFD",
"j. c #FEFEFE",
"k. c #FEFFFE",
"l. c white",
/* pixels */
"H H H H H H H H H H H H H H H H H H H H H H H H H H H H H H H H H H H H H H H H H H H H H H H H H H H H H H H H H H H H H H H H H H H H H H H H H H H H H H H H H H H H H H H H H H H H H H H H H H H H H H H H H H H H H H H H H H H H H H H H H H H H H H H H ",
"                                H H H H H H H H H H H H H       H H H               H H               H H                 H                   H                   H                 H                   H                   H                   H               ",
"                                                        H H H H H H H H H H H H         H H               H                 H                   H                 H                   H                   H                 H                   H               ",
"                                                                    H H H H H H H H H H H H H H H H H H     H H               H                 H                   H                 H                   H                 H                   H               ",
"                                                                              H H H H H H       H H     H H H H H H H H H H H H H H               H                 H                   H                 H                   H                 H               ",
"                                                                                          H H H H H H H H           H           H H H H H H H H H H H                 H                 H                 H                   H                 H               ",
"                                                                                                H H H H H H H H       H H             H               H H H H H H H H H H H H             H                 H                 H                 H               ",
"                                                                                                        H H H H H H H H H H             H               H               H     H H H H H H H H H H H H       H                 H                 H               ",
"                                                                                                              H H H H     H H H H H       H               H               H               H           H H H H H H H H H H H H H                   H             ",
"                                                                                                                    H H H H     H   H H H H H H           H               H                 H                 H               H H H H H H H H H H H H           ",
"                                                                                                                          H H H H H H         H H H H H H   H               H               H                 H                 H                 H   H H H H H ",
"                                                                                                                                H H H H         H H       H H H H H H         H               H               H                 H                 H             ",
"                                                                                                                                    H H H H H       H           H     H H H H H               H               H                 H                 H             ",
"                                                                                                                                        H H H H H H H H           H             H H H H H     H                 H               H                 H             ",
"                                                                                                                                            H H H     H H H         H           H         H H H H H H           H               H                 H             ",
"                                                                                                                                                H H H     H H H H   H             H             H     H H H H H H               H                 H             ",
"                                                                                                                                                      H H   H     H H H             H             H             H H H H H H       H               H             ",
"                                                                                                                                                        H H H H         H H H H     H             H               H         H H H H H             H             ",
"                                                                                                                                                            H H H         H     H H H H             H             H               H   H H H H H   H             ",
"                                                                                                                                                              H H H H       H         H H H         H             H               H             H H H H H H     ",
"                                                                                                                                                                  H   H H H   H         H   H H H   H               H             H               H         H H ",
"                                                                                                                                                                    H H H   H H           H       H H H H           H             H               H             ",
"                                                                                                                                                                        H H     H H       H           H   H H H     H               H             H             ",
"                                                                                                                                                                            H     H H H     H           H       H H H               H               H           ",
"                                                                                                                                                                              H H   H   H H H           H             H H H H       H               H           ",
"                                                                                                                                                                                H H   H     H H H         H           H       H H H H               H           ",
"                                                                                                                                                                                  H H H H       H H H     H           H             H H H           H           ",
"                                                                                                                                                                                      H H       H     H H H             H           H     H H H     H           ",
"                                                                                                                                                                                        H H H     H       H H           H             H         H H H H         ",
"                                                                                                                                                                                          H H H H H         H H H       H             H             H   H H H   ",
"                                                                                                                                                                                            H H   H H         H   H H H H             H             H         H ",
"                                                                                                                                                                                              H H   H H       H         H H           H             H           ",
"                                                                                                                                                                                                H H   H H       H         H H H       H             H           ",
"                                                                                                                                                                                                  H     H H H   H         H     H H   H             H           ",
"                                                                                                                                                                                                    H H H     H H           H       H H H           H           ",
"                                                                                                                                                                                                      H H H     H H         H           H H H       H           ",
"                                                                                                                                                                                                        H H H     H H       H           H     H H   H           ",
"                                                                                                                                                                                                          H H       H H H   H           H         H H           ",
"                                                                                                                                                                                                          H   H     H     H H H         H             H H       ",
"                                                                                                                                                                                                            H H H   H         H         H             H   H H   ",
"                                                                                                                                                                                                              H H H   H       H H H       H           H       H ",
"                                                                                                                                                                                                                H H H H       H     H     H           H         ",
"                                                                                                                                                                                                                  H     H       H     H H H           H         ",
"                                                                                                                                                                                                                    H   H H     H         H           H         ",
"                                                                                                                                                                                                                    H     H H   H         H H H       H         ",
"                                                                                                                                                                                                                      H   H   H   H       H     H     H         ",
"                                                                                                                                                                                                                        H H     H H         H     H H H         ",
"                                                                                                                                                                                                                        H H H     H         H         H H       ",
"                                                                                                                                                                                                                          H H     H H       H         H   H     ",
"                                                                                                                                                                                                                          H   H     H H H   H         H     H H ",
"                                                                                                                                                                                                                            H H     H     H H         H         ",
"                                                                                                                                                                                                                              H H   H       H         H         ",
"                                                                                                                                                                                                                              H H H   H       H       H         ",
"                                                    *.h.h.h.h.h.h.h.h.h.h.h.h.p                                   a.h.h.h.h.h.h.h.h.h.h.h.h.x                                   6.h.h.h.h.h.h.h.h.h.h.h.h.%                     H   H H       H H       H       ",
"                                                    U h.h.h.h.h.h.h.h.h.h.h.h.L                                 5 h.h.h.h.h.h.h.h.h.h.h.h.h.^                                 % h.h.h.h.h.h.h.h.h.h.h.h.3.                      H H   H       H   H     H       ",
"                                                    a h.h.h.h.h.h.h.h.h.h.h.h.$.                                C h.h.h.h.h.h.h.h.h.h.h.h.h.3.                                f h.h.h.h.h.h.h.h.h.h.h.h.~                         H   H H     H     H   H       ",
"                                                    @ h.h.h.h.h.h.h.h.h.h.h.h.f.                                ] h.h.h.h.h.h.h.h.h.h.h.h.h.h.%                               T h.h.h.h.h.h.h.h.h.h.h.h.x                           H   H     H       H H       ",
"                                                      :.h.h.h.h.h.h.h.h.h.h.h.h.q                               w.h.h.h.h.h.h.h.h.h.h.h.h.h.h.f                               ,.h.h.h.h.h.h.h.h.h.h.h.h.=                           H   H H   H         H H     ",
"                                                      T h.h.h.h.h.h.h.h.h.h.h.h.S                             : h.h.h.h.h.h.h.h.h.h.h.h.h.h.h.T                             @ h.h.h.h.h.h.h.h.h.h.h.h.0.                            H H H   H H         H   H   ",
"                                                      f h.h.h.h.h.h.h.h.h.h.h.h...                            v h.h.h.h.h.h.h.h.h.h.h.h.h.h.h.,.                            p h.h.h.h.h.h.h.h.h.h.h.h.]                               H   H   H H       H     H ",
"                                                      % h.h.h.h.h.h.h.h.h.h.h.h.i.                            ^ h.h.h.h.h.h.h.h.h.h.h.h.h.h.h.h.#                           U h.h.h.h.h.h.h.h.h.h.h.h.n                               H H H     H       H       ",
"                                                        6.h.h.h.h.h.h.h.h.h.h.h.h.3                           9.h.h.h.h.h.h.h.h.h.h.h.h.h.h.h.h.p                           *.h.h.h.h.h.h.h.h.h.h.h.h.>                                 H H     H H     H       ",
"                                                        ~ h.h.h.h.h.h.h.h.h.h.h.h.B                         % h.h.h.h.h.h.h.h.h.h.h.h.h.h.h.h.h.K                         o h.h.h.h.h.h.h.h.h.h.h.h.i.                                  H H     H H     H       ",
"                                                        l h.h.h.h.h.h.h.h.h.h.h.h.{                         f h.h.h.h.h.h.h.h.h.h.h.h.h.h.h.h.h.$.                        r h.h.h.h.h.h.h.h.h.h.h.h...                                    H H   H   H   H       ",
"                                                        = h.h.h.h.h.h.h.h.h.h.h.h.e.                        ! h.h.h.h.h.h.h.h.h.h.h.h.h.h.h.h.h.h.o                       J h.h.h.h.h.h.h.h.h.h.h.h.C                                     H H   H     H H       ",
"                                                          w.h.h.h.h.h.h.h.h.h.h.h.h.=                       ,.h.h.h.h.h.h.h.h.a.h.h.h.h.h.h.h.h.h.q                       +.h.h.h.h.h.h.h.h.h.h.h.h.q                                     H H H   H     H       ",
"                                                          ] h.h.h.h.h.h.h.h.h.h.h.h.x                     @ h.h.h.h.h.h.h.h.h.U h.h.h.h.h.h.h.h.h.G                       a.h.h.h.h.h.h.h.h.h.h.h.a.                                        H   H H     H H     ",
"                                                          n h.h.h.h.h.h.h.h.h.h.h.h.~                     a h.h.h.h.h.h.h.h.h.5 w.h.h.h.h.h.h.h.h.+.                    5 h.h.h.h.h.h.h.h.h.h.h.h.*.                                        H H H H     H   H   ",
"                                                          > h.h.h.h.h.h.h.h.h.h.h.h.0.                    U h.h.h.h.h.h.h.h.a.  / h.h.h.h.h.h.h.h.p.                    S h.h.h.h.h.h.h.h.h.h.h.h.J                                           H   H       H H   ",
"                                                            i.h.h.h.h.h.h.h.h.h.h.h.h.%                   *.h.h.h.h.h.h.h.h.+.  n h.h.h.h.h.h.h.h.h.3                   { h.h.h.h.h.h.h.h.h.h.h.h.y                                           H   H       H   H ",
"                                                            ..h.h.h.h.h.h.h.h.h.h.h.h.k                   f.h.h.h.h.h.h.h.h.S   3 h.h.h.h.h.h.h.h.h.n                   e.h.h.h.h.h.h.h.h.h.h.h.h.#                                             H H H     H     ",
"                                                            C h.h.h.h.h.h.h.h.h.h.h.h.Q                 y h.h.h.h.h.h.h.h.h.q     e.h.h.h.h.h.h.h.h.]                 3 h.h.h.h.h.h.h.h.h.h.h.h.-.                                              H   H H   H     ",
"                                                            6 h.h.h.h.h.h.h.h.h.h.h.h.3.                G h.h.h.h.h.h.h.h.h.      { h.h.h.h.h.h.h.h.e.                n h.h.h.h.h.h.h.h.h.h.h.h.Y                                               H   H H   H     ",
"                                                              p.h.h.h.h.h.h.h.h.h.h.h.h.#               O.h.h.h.h.h.h.h.h.*.      C h.h.h.h.h.h.h.h.h.:               / h.h.h.h.h.h.h.h.h.h.h.h.d                                               H H H   H H     ",
"                                                              O.h.h.h.h.h.h.h.h.h.h.h.h.d               a.h.h.h.h.h.h.h.h.U       5 h.h.h.h.h.h.h.h.h.x               w.h.h.h.h.h.h.h.h.h.h.h.h.$                                                 H H   H H     ",
"                                                              G h.h.h.h.h.h.h.h.h.h.h.h.U             5 h.h.h.h.h.h.h.h.h.d         a.h.h.h.h.h.h.h.h.^             = h.h.h.h.h.h.h.h.h.h.h.h.3.                                                  H H     H     ",
"                                                              r h.h.h.h.h.h.h.h.h.h.h.h.*.            V h.h.h.h.h.h.h.h.h.@         ..h.h.h.h.h.h.h.h.9.            l h.h.h.h.h.h.h.h.h.h.h.h.~                                                   H H     H H   ",
"                                                                h.h.h.h.h.h.h.h.h.h.h.h.h.o           ] h.h.h.h.h.h.h.h.1.          G h.h.h.h.h.h.h.h.h.%           ~ h.h.h.h.h.h.h.h.h.h.h.h.x                                                     H H   H H   ",
"                                                                *.h.h.h.h.h.h.h.h.h.h.h.h.y           e.h.h.h.h.h.h.h.h.T           q h.h.h.h.h.h.h.h.h.f           6.h.h.h.h.h.h.h.h.h.h.h.h.:                                                     H H   H   H ",
"                                                                U h.h.h.h.h.h.h.h.h.h.h.h.K         > h.h.h.h.h.h.h.h.h.f           o a.h.h.h.h.h.h.h.h.T         % h.h.h.h.h.h.h.h.h.h.h.h.w.                                                      H H   H   H ",
"                                                                p h.h.h.h.h.h.h.h.h.h.h.h.$.        n h.h.h.h.h.h.h.h.h.%             @.h.h.h.h.h.h.h.h.,.        f h.h.h.h.h.h.h.h.h.h.h.h./                                                       H H H H     ",
"                                                                @ h.h.h.h.h.h.h.h.h.h.h.h.a.        ~ h.h.h.h.h.h.h.h.9.              K h.h.h.h.h.h.h.h.h.@       T h.h.h.h.h.h.h.h.h.h.h.h.n                                                         H H H     ",
"                                                                  ,.h.h.h.h.h.h.h.h.h.h.h.h.q       9.h.h.h.h.h.h.h.h./               y h.h.h.h.h.h.h.h.h.y       :.h.h.h.h.h.h.h.h.h.h.h.h.5                                                         H   H     ",
"                                                                  T h.h.h.h.h.h.h.h.h.h.h.h.S     % h.h.h.h.h.h.h.h.h.x               o h.h.h.h.h.h.h.h.h.U     # h.h.h.h.h.h.h.h.h.h.h.h.p.                                                          H H H H   ",
"                                                                  f h.h.h.h.h.h.h.h.h.h.h.h.O.    k h.h.h.h.h.h.h.h.h.:                 :.h.h.h.h.h.h.h.h.$.    d h.h.h.h.h.h.h.h.h.h.h.h...                                                            H H H   ",
"                                                                  % h.h.h.h.h.h.h.h.h.h.h.h.i.    T h.h.h.h.h.h.h.h.w.                  U h.h.h.h.h.h.h.h.f.    L h.h.h.h.h.h.h.h.h.h.h.h.S                                                             H   H   ",
"                                                                    3.h.h.h.h.h.h.h.h.h.h.h.h.3   ,.h.h.h.h.h.h.h.h.{                   d h.h.h.h.h.h.h.h.h.q   *.h.h.h.h.h.h.h.h.h.h.h.h.q                                                             H   H   ",
"                                                                    ~ h.h.h.h.h.h.h.h.h.h.h.h.B # h.h.h.h.h.h.h.h.h.B                   # h.h.h.h.h.h.h.h.h.S o f.h.h.h.h.h.h.h.h.h.h.h.f.                                                              H   H H ",
"                                                                    x h.h.h.h.h.h.h.h.h.h.h.h.{ a h.h.h.h.h.h.h.h.h.5                     1.h.h.h.h.h.h.h.h.+.q h.h.h.h.h.h.h.h.h.h.h.h.@.                                                              H H H H ",
"                                                                    = h.h.h.h.h.h.h.h.h.h.h.h.w.U h.h.h.h.h.h.h.h.i.                      ~ h.h.h.h.h.h.h.h.p.G h.h.h.h.h.h.h.h.h.h.h.h.J                                                                 H H   ",
"                                                                      9.h.h.h.h.h.h.h.h.h.h.h.h.0.h.h.h.h.h.h.h.h.+.                      f h.h.h.h.h.h.h.h.h.0.h.h.h.h.h.h.h.h.h.h.h.h.y                                                                 H H   ",
"                                                                      ` h.h.h.h.h.h.h.h.h.h.h.h.h.h.h.h.h.h.h.h.h.G                       % h.h.h.h.h.h.h.h.h.h.h.h.h.h.h.h.h.h.h.h.h.h.@                                                                 H H   ",
"                                                                      n h.h.h.h.h.h.h.h.h.h.h.h.h.h.h.h.h.h.h.h.h.q                         6.h.h.h.h.h.h.h.h.h.h.h.h.h.h.h.h.h.h.h.h.,.                                                                  H H   ",
"                                                                      3 h.h.h.h.h.h.h.h.h.h.h.h.h.h.h.h.h.h.h.h.h.o                         ^ h.h.h.h.h.h.h.h.h.h.h.h.h.h.h.h.h.h.h.h.T                                                                   H H   ",
"                                                                        e.h.h.h.h.h.h.h.h.h.h.h.h.h.h.h.h.h.h.h.*.                          x h.h.h.h.h.h.h.h.h.h.h.h.h.h.h.h.h.h.h.h.f                                                                   H H   ",
"                                                                        ..h.h.h.h.h.h.h.h.h.h.h.h.h.h.h.h.h.h.h.L                           - h.h.h.h.h.h.h.h.h.h.h.h.h.h.h.h.h.h.h.h.%                                                                     H H ",
"                                                                        C h.h.h.h.h.h.h.h.h.h.h.h.h.h.h.h.h.h.h.p                             0.h.h.h.h.h.h.h.h.h.h.h.h.h.h.h.h.h.h.3.                                                                      H H ",
"                                                                        8 h.h.h.h.h.h.h.h.h.h.h.h.h.h.h.h.h.h.h.@                             ^ h.h.h.h.h.h.h.h.h.h.h.h.h.h.h.h.h.h.~                                                                       H H ",
"                                                                          p.h.h.h.h.h.h.h.h.h.h.h.h.h.h.h.h.h.,.                              V h.h.h.h.h.h.h.h.h.h.h.h.h.h.h.h.h.h.l                                                                       H H ",
"                                                                          +.h.h.h.h.h.h.h.h.h.h.h.h.h.h.h.h.h.T                               > h.h.h.h.h.h.h.h.h.h.h.h.h.h.h.h.h.h.-                                                                       H H ",
"                                                                          G h.h.h.h.h.h.h.h.h.h.h.h.h.h.h.h.h.f                                 i.h.h.h.h.h.h.h.h.h.h.h.h.h.h.h.h.w.                                                                        H H ",
"                                                                          y h.h.h.h.h.h.h.h.h.h.h.h.h.h.h.h.h.%                                 { h.h.h.h.h.h.h.h.h.h.h.h.h.h.h.h.]                                                                           H ",
"                                                                            f.h.h.h.h.h.h.h.h.h.h.h.h.h.h.h.9.                                  S h.h.h.h.h.h.h.h.h.h.h.h.h.h.h.h.n                                                                           H ",
"                                                                            *.h.h.h.h.h.h.h.h.h.h.h.h.h.h.h.~                                   5 h.h.h.h.h.h.h.h.h.h.h.h.h.h.h.h.3                                                                           H ",
"                                                                            U h.h.h.h.h.h.h.h.h.h.h.h.h.h.h.v                                     a.h.h.h.h.h.h.h.h.h.h.h.h.h.h.i.                                                                            H ",
"                                                                                                                                                                                                                                                              H ",
"                                                                                                                                                                                                                                                              H ",
"                                                                                                                                                                                                                                                              H ",
"                                                                                                                                                                                                                                                              H ",
"                                                                                                                                                                                                                                                              H ",
"                                                                                                                                                                                                                                                              H ",
"                                                                                                                                                                                                                                                              H ",
"                                                                                                                                                                                                                                                              H ",
"                                                                                                                                                                                                                                                                ",
"                                                                                                                                                                                                                                                                ",
"                                                                                                                                                                                                                                                                ",
"                                                                                                                                                                                                                                                                ",
"                                                                                                                                                                                                                                                                ",
"                                                                                                                                                                                                                                                                ",
"                                                                                                                                                                                                                                                                ",
"                                                                                                                                                                                                                                                                ",
"                                                                                                                                                                                                                                                                ",
"                                                                                                                                                                                                                                                                ",
"                                                                                                                                                                                                                                                                ",
"                                                                                                                                                                                                                                                                ",
"                                                                                                                                                                                                                                                                ",
"                                                                                                                                                                                                                                                                ",
"                                                                                                                                                                                                                                                                "
};
