/* XPM */
static char * wall_xpm[] = {
"120 120 10809 3",
"   	c #0A3640",
".  	c #123A41",
"+  	c #1F4146",
"@  	c #294448",
"#  	c #334A4C",
"$  	c #3E4D4C",
"%  	c #49524E",
"&  	c #535850",
"*  	c #5A5D53",
"=  	c #636254",
"-  	c #6D6556",
";  	c #756857",
">  	c #7D6D5A",
",  	c #86725C",
"'  	c #8E755D",
")  	c #94795F",
"!  	c #9C7D5F",
"~  	c #A08160",
"{  	c #BB9F7B",
"]  	c #AC8864",
"^  	c #B88A66",
"/  	c #BD8C65",
"(  	c #C59168",
"_  	c #C99469",
":  	c #CD9769",
"<  	c #D39A6B",
"[  	c #D89B6A",
"}  	c #DC9E6B",
"|  	c #E1A06C",
"1  	c #E7A36E",
"2  	c #EBA46F",
"3  	c #EDA56F",
"4  	c #F1A86F",
"5  	c #F5AA71",
"6  	c #FBB075",
"7  	c #FCAE72",
"8  	c #FFAF72",
"9  	c #FFB173",
"0  	c #FBB171",
"a  	c #FDB573",
"b  	c #FFB572",
"c  	c #FDB672",
"d  	c #FCB672",
"e  	c #FDB574",
"f  	c #FEB773",
"g  	c #FEB974",
"h  	c #FEBA74",
"i  	c #FDBA73",
"j  	c #FBBD76",
"k  	c #FBBE76",
"l  	c #FCBF77",
"m  	c #FDC077",
"n  	c #FEC075",
"o  	c #FDBF78",
"p  	c #FEBE78",
"q  	c #FCBE77",
"r  	c #FDBC75",
"s  	c #F8C079",
"t  	c #F8C17B",
"u  	c #FDBE73",
"v  	c #FEBE74",
"w  	c #FFBE74",
"x  	c #FFBD73",
"y  	c #FEBC73",
"z  	c #FDBB74",
"A  	c #FABB73",
"B  	c #FBBC74",
"C  	c #FFB873",
"D  	c #FCB870",
"E  	c #FBB76E",
"F  	c #FCB56F",
"G  	c #FDB370",
"H  	c #FCB572",
"I  	c #FDBB78",
"J  	c #FFB979",
"K  	c #FFB677",
"L  	c #FFB073",
"M  	c #FDA76C",
"N  	c #FEA46B",
"O  	c #FFA267",
"P  	c #FDA065",
"Q  	c #FD9D64",
"R  	c #FC9A64",
"S  	c #FC9862",
"T  	c #FC9564",
"U  	c #FC9264",
"V  	c #F98E60",
"W  	c #FD8B61",
"X  	c #FC885F",
"Y  	c #FC845C",
"Z  	c #FF805A",
"`  	c #FF7D5C",
" . 	c #FE785B",
".. 	c #FA775C",
"+. 	c #F4795E",
"@. 	c #EA6F58",
"#. 	c #E26B56",
"$. 	c #D86855",
"%. 	c #CD6554",
"&. 	c #C36252",
"*. 	c #BE6357",
"=. 	c #B15B51",
"-. 	c #A7584E",
";. 	c #9E544D",
">. 	c #96524C",
",. 	c #8F524D",
"'. 	c #844D49",
"). 	c #7C4947",
"!. 	c #754748",
"~. 	c #70464B",
"{. 	c #684048",
"]. 	c #5E3C44",
"^. 	c #563A42",
"/. 	c #503942",
"(. 	c #4A3641",
"_. 	c #40333D",
":. 	c #39313D",
"<. 	c #322F3C",
"[. 	c #2C2C39",
"}. 	c #09353F",
"|. 	c #113940",
"1. 	c #1E4045",
"2. 	c #284348",
"3. 	c #32494B",
"4. 	c #48524D",
"5. 	c #51564F",
"6. 	c #585B51",
"7. 	c #616053",
"8. 	c #6B6454",
"9. 	c #736756",
"0. 	c #7A6B58",
"a. 	c #83705B",
"b. 	c #8B745C",
"c. 	c #92775E",
"d. 	c #997B5D",
"e. 	c #9D7F5E",
"f. 	c #9F805D",
"g. 	c #A98661",
"h. 	c #B38764",
"i. 	c #B98A64",
"j. 	c #BF8E66",
"k. 	c #C89467",
"l. 	c #CD9768",
"m. 	c #D3996A",
"n. 	c #D79B69",
"o. 	c #DA9C6A",
"p. 	c #E2A06C",
"q. 	c #E6A26E",
"r. 	c #E9A36E",
"s. 	c #ECA56D",
"t. 	c #EEA56D",
"u. 	c #F4A970",
"v. 	c #F8AC71",
"w. 	c #FBAD71",
"x. 	c #FDAE73",
"y. 	c #FBB073",
"z. 	c #FDB274",
"A. 	c #FEB273",
"B. 	c #FDB372",
"C. 	c #FDB373",
"D. 	c #FDB473",
"E. 	c #FDB571",
"F. 	c #FDB772",
"G. 	c #FBB975",
"H. 	c #FCBA74",
"I. 	c #FCBB74",
"J. 	c #FCBB73",
"K. 	c #FDB974",
"L. 	c #FABB76",
"M. 	c #F6C580",
"N. 	c #F7B975",
"O. 	c #F8BC79",
"P. 	c #F9BC79",
"Q. 	c #FCB971",
"R. 	c #FDBA72",
"S. 	c #FEBA72",
"T. 	c #FEB971",
"U. 	c #FDB871",
"V. 	c #FCB673",
"W. 	c #FCBA76",
"X. 	c #FBBB77",
"Y. 	c #FBB371",
"Z. 	c #FEB170",
"`. 	c #FDB16F",
" + 	c #FDB16E",
".+ 	c #FEAF6F",
"++ 	c #FEAD6D",
"@+ 	c #FBAC6C",
"#+ 	c #FBAE6F",
"$+ 	c #FEB073",
"%+ 	c #FDAC70",
"&+ 	c #FDA66D",
"*+ 	c #FCA169",
"=+ 	c #FD9E67",
"-+ 	c #FD9D65",
";+ 	c #FC9B63",
">+ 	c #FC9963",
",+ 	c #FD9762",
"'+ 	c #FC9462",
")+ 	c #FA8F61",
"!+ 	c #F98D61",
"~+ 	c #F8885E",
"{+ 	c #FE855F",
"]+ 	c #FF825E",
"^+ 	c #FF7F5C",
"/+ 	c #FF7D5A",
"(+ 	c #FD7A5A",
"_+ 	c #F87558",
":+ 	c #F27359",
"<+ 	c #E97158",
"[+ 	c #DE6C56",
"}+ 	c #D66854",
"|+ 	c #CC6554",
"1+ 	c #C36353",
"2+ 	c #B95F51",
"3+ 	c #BA665B",
"4+ 	c #A9594E",
"5+ 	c #A1564E",
"6+ 	c #97524C",
"7+ 	c #8F504A",
"8+ 	c #864D49",
"9+ 	c #7E4A47",
"0+ 	c #784747",
"a+ 	c #704345",
"b+ 	c #6C4349",
"c+ 	c #643E46",
"d+ 	c #5B3B43",
"e+ 	c #543941",
"f+ 	c #4D3742",
"g+ 	c #473540",
"h+ 	c #3E323D",
"i+ 	c #37303D",
"j+ 	c #312F3D",
"k+ 	c #2C2D3D",
"l+ 	c #09343F",
"m+ 	c #1E3F44",
"n+ 	c #274247",
"o+ 	c #3D4D4C",
"p+ 	c #47514D",
"q+ 	c #4F554E",
"r+ 	c #575A50",
"s+ 	c #5F5F52",
"t+ 	c #696354",
"u+ 	c #716756",
"v+ 	c #776957",
"w+ 	c #816F5A",
"x+ 	c #88735B",
"y+ 	c #8F765D",
"z+ 	c #94785B",
"A+ 	c #9B7C5E",
"B+ 	c #A18160",
"C+ 	c #A78461",
"D+ 	c #AF8663",
"E+ 	c #B48964",
"F+ 	c #B88B64",
"G+ 	c #C08F66",
"H+ 	c #C29266",
"I+ 	c #C89468",
"J+ 	c #D09969",
"K+ 	c #D59C6C",
"L+ 	c #D99C6B",
"M+ 	c #DD9F6C",
"N+ 	c #E0A06D",
"O+ 	c #EAA56F",
"P+ 	c #EDA66F",
"Q+ 	c #F1A870",
"R+ 	c #F3AA70",
"S+ 	c #F8AC73",
"T+ 	c #FCB076",
"U+ 	c #FBB176",
"V+ 	c #FCB275",
"W+ 	c #FCB174",
"X+ 	c #FDB173",
"Y+ 	c #FDB171",
"Z+ 	c #FEB271",
"`+ 	c #FEB372",
" @ 	c #FCB573",
".@ 	c #FBB572",
"+@ 	c #FCB571",
"@@ 	c #F8B674",
"#@ 	c #F9CB89",
"$@ 	c #FAB575",
"%@ 	c #FBB472",
"&@ 	c #FCB471",
"*@ 	c #FDB471",
"=@ 	c #FCB16F",
"-@ 	c #FDB271",
";@ 	c #FBB06F",
">@ 	c #FCAE6E",
",@ 	c #FDAC6D",
"'@ 	c #FDAB6D",
")@ 	c #FCAB6C",
"!@ 	c #FFA86B",
"~@ 	c #FDA669",
"{@ 	c #FBA667",
"]@ 	c #FCA468",
"^@ 	c #FBA36C",
"/@ 	c #FCA16B",
"(@ 	c #FD9E69",
"_@ 	c #FD9C68",
":@ 	c #FD9966",
"<@ 	c #FE9765",
"[@ 	c #FD9663",
"}@ 	c #FD9362",
"|@ 	c #FC9061",
"1@ 	c #FC8F60",
"2@ 	c #F88C61",
"3@ 	c #F89169",
"4@ 	c #F78660",
"5@ 	c #FC815F",
"6@ 	c #FF7F5F",
"7@ 	c #FE7C5C",
"8@ 	c #FC785A",
"9@ 	c #F57558",
"0@ 	c #EF7258",
"a@ 	c #E66F57",
"b@ 	c #DC6D55",
"c@ 	c #D36A55",
"d@ 	c #CB6753",
"e@ 	c #C26352",
"f@ 	c #BF685A",
"g@ 	c #B05D51",
"h@ 	c #A95A50",
"i@ 	c #99544D",
"j@ 	c #914F4C",
"k@ 	c #9B6260",
"l@ 	c #824D4B",
"m@ 	c #794847",
"n@ 	c #734546",
"o@ 	c #6C4247",
"p@ 	c #714D54",
"q@ 	c #5F3C44",
"r@ 	c #583944",
"s@ 	c #503842",
"t@ 	c #493641",
"u@ 	c #433340",
"v@ 	c #3B313D",
"w@ 	c #35313B",
"x@ 	c #2F2D3A",
"y@ 	c #292A38",
"z@ 	c #08343E",
"A@ 	c #123940",
"B@ 	c #1D3F44",
"C@ 	c #31484A",
"D@ 	c #3B4C4B",
"E@ 	c #444F4C",
"F@ 	c #4E554F",
"G@ 	c #545951",
"H@ 	c #5D5E52",
"I@ 	c #676254",
"J@ 	c #6C6554",
"K@ 	c #8A7F6E",
"L@ 	c #7C6C57",
"M@ 	c #857159",
"N@ 	c #8C755D",
"O@ 	c #91765B",
"P@ 	c #987A5D",
"Q@ 	c #9E7F61",
"R@ 	c #A38261",
"S@ 	c #AA8562",
"T@ 	c #AF8863",
"U@ 	c #B48965",
"V@ 	c #BB8D67",
"W@ 	c #BE9067",
"X@ 	c #C29267",
"Y@ 	c #C59267",
"Z@ 	c #D5A578",
"`@ 	c #E2B88B",
" # 	c #D69F71",
".# 	c #D79E6E",
"+# 	c #D99E6D",
"@# 	c #E1A16D",
"## 	c #E4A46F",
"$# 	c #E8A66F",
"%# 	c #EBA770",
"&# 	c #ECA871",
"*# 	c #F1A872",
"=# 	c #F3AA72",
"-# 	c #F2AE74",
";# 	c #F6B075",
"># 	c #F8AD73",
",# 	c #FBAF73",
"'# 	c #FDB073",
")# 	c #FDAF72",
"!# 	c #FEB071",
"~# 	c #FFB172",
"{# 	c #FEB171",
"]# 	c #FEB172",
"^# 	c #FCB172",
"/# 	c #F9B173",
"(# 	c #FAB170",
"_# 	c #FDB273",
":# 	c #F9B172",
"<# 	c #FFAF70",
"[# 	c #FEB06F",
"}# 	c #FEB070",
"|# 	c #FDB071",
"1# 	c #FCAF70",
"2# 	c #FEAE70",
"3# 	c #FDAD70",
"4# 	c #FCAC6E",
"5# 	c #FDAD6E",
"6# 	c #FDAA6C",
"7# 	c #FEA96B",
"8# 	c #FEA76A",
"9# 	c #FDA66A",
"0# 	c #FBA66A",
"a# 	c #FEA369",
"b# 	c #FAA369",
"c# 	c #F5A266",
"d# 	c #FD9F68",
"e# 	c #FE9C6A",
"f# 	c #FD9967",
"g# 	c #FD9867",
"h# 	c #FD9666",
"i# 	c #FD9565",
"j# 	c #FE9163",
"k# 	c #FE9062",
"l# 	c #FE8E62",
"m# 	c #FE8A61",
"n# 	c #FD8960",
"o# 	c #FB8560",
"p# 	c #FA8360",
"q# 	c #F9815E",
"r# 	c #FD7F60",
"s# 	c #FC7C5E",
"t# 	c #F7765A",
"u# 	c #F1735A",
"v# 	c #E87058",
"w# 	c #E16F58",
"x# 	c #DA6D58",
"y# 	c #D16A55",
"z# 	c #C86652",
"A# 	c #C06350",
"B# 	c #B7604F",
"C# 	c #AF5D50",
"D# 	c #AA5C51",
"E# 	c #A25750",
"F# 	c #92514D",
"G# 	c #8D4F4E",
"H# 	c #864D4D",
"I# 	c #7D4A4C",
"J# 	c #75474A",
"K# 	c #6E4348",
"L# 	c #684248",
"M# 	c #624249",
"N# 	c #5B3C44",
"O# 	c #543943",
"P# 	c #4C3742",
"Q# 	c #453540",
"R# 	c #3F3340",
"S# 	c #39323F",
"T# 	c #33303D",
"U# 	c #2D2C3B",
"V# 	c #26293A",
"W# 	c #07333D",
"X# 	c #11383F",
"Y# 	c #1D3E43",
"Z# 	c #274246",
"`# 	c #304748",
" $ 	c #394B4A",
".$ 	c #434E4C",
"+$ 	c #4D544E",
"@$ 	c #5C5D52",
"#$ 	c #656254",
"$$ 	c #6A6453",
"%$ 	c #877D6D",
"&$ 	c #796A56",
"*$ 	c #826F59",
"=$ 	c #89745B",
"-$ 	c #8F765B",
";$ 	c #95785C",
">$ 	c #9B7C5F",
",$ 	c #A0805F",
"'$ 	c #A58361",
")$ 	c #A98562",
"!$ 	c #B18965",
"~$ 	c #B58A65",
"{$ 	c #B98E65",
"]$ 	c #BD9066",
"^$ 	c #C19268",
"/$ 	c #C19468",
"($ 	c #C59669",
"_$ 	c #D09E70",
":$ 	c #D09C6D",
"<$ 	c #D29C6C",
"[$ 	c #D59D6B",
"}$ 	c #D99F6D",
"|$ 	c #DCA26D",
"1$ 	c #DFA36D",
"2$ 	c #E2A46E",
"3$ 	c #E3A66F",
"4$ 	c #E9A671",
"5$ 	c #EDA872",
"6$ 	c #EDB37B",
"7$ 	c #EEB178",
"8$ 	c #F4AB72",
"9$ 	c #F6AA70",
"0$ 	c #F7AB70",
"a$ 	c #FAAC71",
"b$ 	c #FDAF71",
"c$ 	c #F8AE72",
"d$ 	c #FAB67A",
"e$ 	c #F9AF73",
"f$ 	c #FFAC74",
"g$ 	c #FEAC71",
"h$ 	c #FCAD6E",
"i$ 	c #FEAA71",
"j$ 	c #FCAB71",
"k$ 	c #FCAA70",
"l$ 	c #FCA96F",
"m$ 	c #FDA86F",
"n$ 	c #FCA86D",
"o$ 	c #FEA56C",
"p$ 	c #FFA46B",
"q$ 	c #FEA26A",
"r$ 	c #FEA16B",
"s$ 	c #FCA16A",
"t$ 	c #FE9F6B",
"u$ 	c #F59F6A",
"v$ 	c #F8B27E",
"w$ 	c #FA9969",
"x$ 	c #FF9768",
"y$ 	c #FE9566",
"z$ 	c #FD9465",
"A$ 	c #FB9163",
"B$ 	c #FD8C61",
"C$ 	c #FD8A61",
"D$ 	c #FE8861",
"E$ 	c #FB845E",
"F$ 	c #FC835F",
"G$ 	c #FE8160",
"H$ 	c #FC7F60",
"I$ 	c #F97D5F",
"J$ 	c #F6795C",
"K$ 	c #F17559",
"L$ 	c #EC7358",
"M$ 	c #E57059",
"N$ 	c #DB6E57",
"O$ 	c #D46B57",
"P$ 	c #CE6857",
"Q$ 	c #C56654",
"R$ 	c #BC6351",
"S$ 	c #B76050",
"T$ 	c #A75A50",
"U$ 	c #A15850",
"V$ 	c #99554F",
"W$ 	c #91524D",
"X$ 	c #8A4F4C",
"Y$ 	c #854C4C",
"Z$ 	c #7E4A4C",
"`$ 	c #7D4E52",
" % 	c #72474C",
".% 	c #6A4148",
"+% 	c #644047",
"@% 	c #5C3D45",
"#% 	c #583C45",
"$% 	c #503743",
"%% 	c #423440",
"&% 	c #3C313F",
"*% 	c #35303F",
"=% 	c #302E3C",
"-% 	c #2A2A3A",
";% 	c #242639",
">% 	c #08323D",
",% 	c #12373F",
"'% 	c #264246",
")% 	c #3A4A4A",
"!% 	c #434F4B",
"~% 	c #4C544D",
"{% 	c #535650",
"]% 	c #5B5B52",
"^% 	c #646154",
"/% 	c #6F6655",
"(% 	c #786B58",
"_% 	c #7E6E58",
":% 	c #86735C",
"<% 	c #8B7459",
"[% 	c #91775B",
"}% 	c #9A7E62",
"|% 	c #9C7E5F",
"1% 	c #A38363",
"2% 	c #A58362",
"3% 	c #AA8563",
"4% 	c #B6906A",
"5% 	c #B38B63",
"6% 	c #B78E65",
"7% 	c #BA9067",
"8% 	c #BB9168",
"9% 	c #CBA47A",
"0% 	c #C3966A",
"a% 	c #C8986B",
"b% 	c #CD996C",
"c% 	c #CF9B6B",
"d% 	c #D29D6C",
"e% 	c #D6A06E",
"f% 	c #D8A06D",
"g% 	c #D9A16E",
"h% 	c #DBA270",
"i% 	c #DFA370",
"j% 	c #E3A570",
"k% 	c #E6A76F",
"l% 	c #EDA76F",
"m% 	c #EFA76F",
"n% 	c #F9AA6E",
"o% 	c #FBAB6F",
"p% 	c #FCAB70",
"q% 	c #FDAA71",
"r% 	c #FCA970",
"s% 	c #F9AA71",
"t% 	c #FCA871",
"u% 	c #FDA96F",
"v% 	c #FBA86D",
"w% 	c #FBAA6E",
"x% 	c #FEA96E",
"y% 	c #FEA86E",
"z% 	c #FEA76D",
"A% 	c #FCA56B",
"B% 	c #FDA56B",
"C% 	c #FDA56C",
"D% 	c #FCA36D",
"E% 	c #FCA26C",
"F% 	c #FDA06C",
"G% 	c #FD9D6B",
"H% 	c #FE9C69",
"I% 	c #FE9A68",
"J% 	c #F99867",
"K% 	c #F79867",
"L% 	c #FB9567",
"M% 	c #FD9166",
"N% 	c #FD9265",
"O% 	c #FD8F63",
"P% 	c #FB8D61",
"Q% 	c #FB8F63",
"R% 	c #FA8962",
"S% 	c #FD8662",
"T% 	c #F88460",
"U% 	c #F79F7A",
"V% 	c #F38160",
"W% 	c #F97C5D",
"X% 	c #F67B5D",
"Y% 	c #EF795D",
"Z% 	c #E8765D",
"`% 	c #E2755E",
" & 	c #E17660",
".& 	c #D86D57",
"+& 	c #CF6A57",
"@& 	c #CA6957",
"#& 	c #C16454",
"$& 	c #B96153",
"%& 	c #B96357",
"&& 	c #AE5C50",
"*& 	c #A75B50",
"=& 	c #9F5850",
"-& 	c #98554D",
";& 	c #92534F",
">& 	c #8B504D",
",& 	c #844D4C",
"'& 	c #7E4A4B",
")& 	c #79494B",
"!& 	c #74494C",
"~& 	c #6A4348",
"{& 	c #664148",
"]& 	c #5F3E46",
"^& 	c #593C45",
"/& 	c #523842",
"(& 	c #4D3642",
"_& 	c #473440",
":& 	c #3F323D",
"<& 	c #39313E",
"[& 	c #312F3B",
"}& 	c #272A3B",
"|& 	c #212638",
"1& 	c #09323D",
"2& 	c #13373F",
"3& 	c #1D3D43",
"4& 	c #244145",
"5& 	c #2F4648",
"6& 	c #394949",
"7& 	c #424E4B",
"8& 	c #4B534D",
"9& 	c #52554F",
"0& 	c #5A5A51",
"a& 	c #625F52",
"b& 	c #696353",
"c& 	c #6E6654",
"d& 	c #756A57",
"e& 	c #7D6D58",
"f& 	c #83715A",
"g& 	c #89755C",
"h& 	c #8E785D",
"i& 	c #A38B6F",
"j& 	c #957A5C",
"k& 	c #9E8060",
"l& 	c #A38160",
"m& 	c #A78562",
"n& 	c #A78560",
"o& 	c #AD8A64",
"p& 	c #B48F68",
"q& 	c #B48E67",
"r& 	c #B69067",
"s& 	c #C5A27A",
"t& 	c #BE946A",
"u& 	c #C2956A",
"v& 	c #C5976B",
"w& 	c #C79768",
"x& 	c #C99969",
"y& 	c #CC9B6B",
"z& 	c #CF9D6D",
"A& 	c #D09D6C",
"B& 	c #D8AC7F",
"C& 	c #D3A373",
"D& 	c #D8A371",
"E& 	c #DCA26E",
"F& 	c #E0A26E",
"G& 	c #E2A26E",
"H& 	c #E3A46E",
"I& 	c #E5A46F",
"J& 	c #E8A56E",
"K& 	c #ECA66F",
"L& 	c #EEA66F",
"M& 	c #F0A66F",
"N& 	c #F5A671",
"O& 	c #F8A66F",
"P& 	c #FAA670",
"Q& 	c #F8A972",
"R& 	c #FBAC76",
"S& 	c #FBA46F",
"T& 	c #FDA36E",
"U& 	c #FEA46E",
"V& 	c #FFA46E",
"W& 	c #FDA36D",
"X& 	c #FEA26C",
"Y& 	c #FDA16C",
"Z& 	c #FEA06B",
"`& 	c #FC9D69",
" * 	c #FC9C69",
".* 	c #FD9B69",
"+* 	c #FE9A69",
"@* 	c #FE9869",
"#* 	c #FF9868",
"$* 	c #FE9766",
"%* 	c #FD9566",
"&* 	c #FC9365",
"** 	c #FB9064",
"=* 	c #FE8E64",
"-* 	c #FE8D63",
";* 	c #FF8B63",
">* 	c #FC8560",
",* 	c #FD8361",
"'* 	c #FA8260",
")* 	c #F88061",
"!* 	c #EF7F5F",
"~* 	c #EF7A5E",
"{* 	c #EE785B",
"]* 	c #E8765B",
"^* 	c #E2735B",
"/* 	c #DA7059",
"(* 	c #D4705B",
"_* 	c #D3705C",
":* 	c #CC6A55",
"<* 	c #C46755",
"[* 	c #BE6553",
"}* 	c #B96454",
"|* 	c #BB6B5E",
"1* 	c #AB5B52",
"2* 	c #A75A52",
"3* 	c #9E5850",
"4* 	c #97564F",
"5* 	c #91534D",
"6* 	c #8C524F",
"7* 	c #864E4D",
"8* 	c #804C4B",
"9* 	c #7A494B",
"0* 	c #734548",
"a* 	c #6C4246",
"b* 	c #684348",
"c* 	c #613F45",
"d* 	c #493441",
"e* 	c #453441",
"f* 	c #3E313F",
"g* 	c #37313E",
"h* 	c #302E3B",
"i* 	c #2A2B3C",
"j* 	c #26293C",
"k* 	c #202639",
"l* 	c #1C3D42",
"m* 	c #244044",
"n* 	c #2E4547",
"o* 	c #384847",
"p* 	c #414E4A",
"q* 	c #49534C",
"r* 	c #51544E",
"s* 	c #595951",
"t* 	c #605F52",
"u* 	c #666352",
"v* 	c #6C6654",
"w* 	c #736A57",
"x* 	c #7A6C58",
"y* 	c #7F6F59",
"z* 	c #84725A",
"A* 	c #89755B",
"B* 	c #90795D",
"C* 	c #947A5D",
"D* 	c #9C8062",
"E* 	c #A58563",
"F* 	c #A3825F",
"G* 	c #A18462",
"H* 	c #C5AC8B",
"I* 	c #AB8A65",
"J* 	c #AE8C65",
"K* 	c #B08D66",
"L* 	c #B59068",
"M* 	c #B79067",
"N* 	c #BB9268",
"O* 	c #BE9369",
"P* 	c #C19568",
"Q* 	c #C29769",
"R* 	c #C59869",
"S* 	c #C69A6A",
"T* 	c #C99B6B",
"U* 	c #CFA97E",
"V* 	c #CBA174",
"W* 	c #E1BA8C",
"X* 	c #D39F6F",
"Y* 	c #D69F6F",
"Z* 	c #D89F6F",
"`* 	c #D9A06C",
" = 	c #DBA16D",
".= 	c #DDA16C",
"+= 	c #DFA16C",
"@= 	c #E0A26D",
"#= 	c #E3A774",
"$= 	c #EAAE7C",
"%= 	c #EAA470",
"&= 	c #ECA16D",
"*= 	c #F0A16D",
"== 	c #F1A36F",
"-= 	c #F8A672",
";= 	c #F7A06C",
">= 	c #FAA06C",
",= 	c #FBA06C",
"'= 	c #FB9F6C",
")= 	c #FC9E6B",
"!= 	c #FDA06E",
"~= 	c #FC9B69",
"{= 	c #FC9B6A",
"]= 	c #FE9968",
"^= 	c #FE9769",
"/= 	c #FF9568",
"(= 	c #FF9369",
"_= 	c #FF9368",
":= 	c #FE9266",
"<= 	c #FE9166",
"[= 	c #FD8E65",
"}= 	c #FD8D65",
"|= 	c #FF8A62",
"1= 	c #FD8862",
"2= 	c #FD8562",
"3= 	c #F98462",
"4= 	c #F78262",
"5= 	c #F67D5F",
"6= 	c #EF7E5D",
"7= 	c #EE7B5D",
"8= 	c #EC785D",
"9= 	c #E6765B",
"0= 	c #E0755B",
"a= 	c #D9735C",
"b= 	c #D4705A",
"c= 	c #D06F58",
"d= 	c #C96B56",
"e= 	c #C56855",
"f= 	c #BF6654",
"g= 	c #B86453",
"h= 	c #B46354",
"i= 	c #AD5E50",
"j= 	c #A85D52",
"k= 	c #A35952",
"l= 	c #9D574F",
"m= 	c #8F534E",
"n= 	c #8A524E",
"o= 	c #844F4D",
"p= 	c #7E4B4A",
"q= 	c #7A4A4B",
"r= 	c #734649",
"s= 	c #6D4347",
"t= 	c #674146",
"u= 	c #614045",
"v= 	c #5C3D43",
"w= 	c #563B43",
"x= 	c #523A45",
"y= 	c #56414C",
"z= 	c #463343",
"A= 	c #413242",
"B= 	c #392F3F",
"C= 	c #352F3F",
"D= 	c #302E3D",
"E= 	c #292B3D",
"F= 	c #24293B",
"G= 	c #1F2538",
"H= 	c #09313D",
"I= 	c #13363F",
"J= 	c #214046",
"K= 	c #2F4A4E",
"L= 	c #2F4547",
"M= 	c #405150",
"N= 	c #404E49",
"O= 	c #48534B",
"P= 	c #50554E",
"Q= 	c #57594F",
"R= 	c #5D5D50",
"S= 	c #636152",
"T= 	c #696554",
"U= 	c #706856",
"V= 	c #766A56",
"W= 	c #7B6D58",
"X= 	c #81715A",
"Y= 	c #84745B",
"Z= 	c #89765B",
"`= 	c #907A5D",
" - 	c #91795A",
".- 	c #B39A79",
"+- 	c #987E5D",
"@- 	c #B39A7C",
"#- 	c #9E8564",
"$- 	c #A58864",
"%- 	c #A78964",
"&- 	c #AB8C66",
"*- 	c #AE8D67",
"=- 	c #B18F67",
"-- 	c #B49167",
";- 	c #B69268",
">- 	c #BA9268",
",- 	c #BD9569",
"'- 	c #C0976B",
")- 	c #C1986B",
"!- 	c #C3996C",
"~- 	c #C4996D",
"{- 	c #C6996E",
"]- 	c #C89C6E",
"^- 	c #CB9D6D",
"/- 	c #CC9E6E",
"(- 	c #CE9E6E",
"_- 	c #D09E6D",
":- 	c #D29E6D",
"<- 	c #D49F6D",
"[- 	c #D69F6E",
"}- 	c #D8A06E",
"|- 	c #D8A06F",
"1- 	c #DCA16F",
"2- 	c #E1A16E",
"3- 	c #E59F6D",
"4- 	c #EAA16F",
"5- 	c #F0A271",
"6- 	c #F2A574",
"7- 	c #F1A472",
"8- 	c #F2A06E",
"9- 	c #F19D6A",
"0- 	c #EF9C69",
"a- 	c #F29A69",
"b- 	c #F59A6A",
"c- 	c #F69A6A",
"d- 	c #F7986A",
"e- 	c #F79768",
"f- 	c #F99669",
"g- 	c #F99569",
"h- 	c #FA9369",
"i- 	c #FA9269",
"j- 	c #FA9069",
"k- 	c #FA8F66",
"l- 	c #FA8D65",
"m- 	c #FA8C65",
"n- 	c #FA8B65",
"o- 	c #F98964",
"p- 	c #F78762",
"q- 	c #F78560",
"r- 	c #F28460",
"s- 	c #EF8262",
"t- 	c #F39F81",
"u- 	c #EB9375",
"v- 	c #E37B5D",
"w- 	c #E2785C",
"x- 	c #DE785B",
"y- 	c #DA755B",
"z- 	c #D77359",
"A- 	c #D1715B",
"B- 	c #CC6F5C",
"C- 	c #C86D5A",
"D- 	c #C36A56",
"E- 	c #BD6753",
"F- 	c #BB6555",
"G- 	c #B46355",
"H- 	c #AF6156",
"I- 	c #AA5F54",
"J- 	c #A55C52",
"K- 	c #9F5951",
"L- 	c #99574E",
"M- 	c #95544D",
"N- 	c #89514E",
"O- 	c #834F4C",
"P- 	c #7D4C4C",
"Q- 	c #784A4B",
"R- 	c #73474A",
"S- 	c #6C4449",
"T- 	c #78565B",
"U- 	c #74545A",
"V- 	c #5D3F45",
"W- 	c #583D45",
"X- 	c #513A43",
"Y- 	c #4E3945",
"Z- 	c #483642",
"`- 	c #423344",
" ; 	c #3E3142",
".; 	c #4D4454",
"+; 	c #312D3F",
"@; 	c #2C2B3D",
"#; 	c #27293C",
"$; 	c #22273B",
"%; 	c #1D2538",
"&; 	c #062F3A",
"*; 	c #1E3D42",
"=; 	c #284448",
"-; 	c #2D4345",
";; 	c #354645",
">; 	c #3E4C48",
",; 	c #455049",
"'; 	c #4F554D",
"); 	c #56584E",
"!; 	c #5B5C4F",
"~; 	c #606051",
"{; 	c #676453",
"]; 	c #6D6754",
"^; 	c #736956",
"/; 	c #786C58",
"(; 	c #7E705A",
"_; 	c #82735A",
":; 	c #86755B",
"<; 	c #8A775A",
"[; 	c #8F795B",
"}; 	c #D0C3A6",
"|; 	c #8D7C5C",
"1; 	c #9F8768",
"2; 	c #9D8361",
"3; 	c #9F8462",
"4; 	c #A38865",
"5; 	c #A68965",
"6; 	c #A88B65",
"7; 	c #AB8D66",
"8; 	c #AD8F66",
"9; 	c #AF9066",
"0; 	c #B29067",
"a; 	c #B49267",
"b; 	c #B79368",
"c; 	c #B99569",
"d; 	c #BA9669",
"e; 	c #BF976C",
"f; 	c #C1986C",
"g; 	c #C2996B",
"h; 	c #C4996B",
"i; 	c #C59A6C",
"j; 	c #C79A6D",
"k; 	c #C99A6C",
"l; 	c #CB9B6C",
"m; 	c #CD9B6D",
"n; 	c #CF9B6C",
"o; 	c #D29D6B",
"p; 	c #D59D6C",
"q; 	c #D79C6B",
"r; 	c #DD9E6D",
"s; 	c #E6A474",
"t; 	c #ECA577",
"u; 	c #EDA87A",
"v; 	c #F2B283",
"w; 	c #ECA072",
"x; 	c #E99B6C",
"y; 	c #E59869",
"z; 	c #E69668",
"A; 	c #E99669",
"B; 	c #EB9569",
"C; 	c #EC9368",
"D; 	c #EC9167",
"E; 	c #ED9267",
"F; 	c #ED9167",
"G; 	c #EE8F66",
"H; 	c #EE8D67",
"I; 	c #EE8C66",
"J; 	c #EE8A64",
"K; 	c #ED8963",
"L; 	c #ED8764",
"M; 	c #EC8563",
"N; 	c #EB8362",
"O; 	c #EA8261",
"P; 	c #E98060",
"Q; 	c #E58060",
"R; 	c #E27D62",
"S; 	c #DC7E63",
"T; 	c #D87B60",
"U; 	c #D6785D",
"V; 	c #D8745C",
"W; 	c #D2745B",
"X; 	c #CE715A",
"Y; 	c #CA6F59",
"Z; 	c #C36E58",
"`; 	c #C06B59",
" > 	c #BB6958",
".> 	c #B66755",
"+> 	c #B26656",
"@> 	c #AE6355",
"#> 	c #A96055",
"$> 	c #A45E55",
"%> 	c #A05D53",
"&> 	c #9D5A51",
"*> 	c #965751",
"=> 	c #90554E",
"-> 	c #8C534D",
";> 	c #87524D",
">> 	c #82504E",
",> 	c #7D4D4C",
"'> 	c #774A4B",
")> 	c #724749",
"!> 	c #6C4547",
"~> 	c #674348",
"{> 	c #624248",
"]> 	c #5E4047",
"^> 	c #583D44",
"/> 	c #523A43",
"(> 	c #4F3B45",
"_> 	c #594853",
":> 	c #443542",
"<> 	c #403343",
"[> 	c #3C3141",
"}> 	c #342D3E",
"|> 	c #302C3E",
"1> 	c #2B2A3C",
"2> 	c #25283B",
"3> 	c #20273A",
"4> 	c #1C2437",
"5> 	c #0A313C",
"6> 	c #12353D",
"7> 	c #1C3B41",
"8> 	c #243F44",
"9> 	c #2E4445",
"0> 	c #354746",
"a> 	c #3E4C49",
"b> 	c #445049",
"c> 	c #4D534C",
"d> 	c #54574E",
"e> 	c #595B4E",
"f> 	c #5E5E50",
"g> 	c #656253",
"h> 	c #6B6554",
"i> 	c #716855",
"j> 	c #7B6F59",
"k> 	c #7E7058",
"l> 	c #88795F",
"m> 	c #A4947B",
"n> 	c #BBAF99",
"o> 	c #E7E1CC",
"p> 	c #BCB59D",
"q> 	c #B8A484",
"r> 	c #A38A67",
"s> 	c #9C8462",
"t> 	c #9D8765",
"u> 	c #A08765",
"v> 	c #A38965",
"w> 	c #A48A65",
"x> 	c #A68C64",
"y> 	c #A88E66",
"z> 	c #AB8F66",
"A> 	c #AC8F66",
"B> 	c #AE9067",
"C> 	c #B19368",
"D> 	c #B39369",
"E> 	c #B5946A",
"F> 	c #B79569",
"G> 	c #B9966A",
"H> 	c #BD966B",
"I> 	c #BF966C",
"J> 	c #C0976C",
"K> 	c #C1976B",
"L> 	c #C4976C",
"M> 	c #C5976A",
"N> 	c #C7976A",
"O> 	c #C9986A",
"P> 	c #CB9969",
"Q> 	c #CB9868",
"R> 	c #D09B6C",
"S> 	c #D69E70",
"T> 	c #DEA477",
"U> 	c #E2A97B",
"V> 	c #E2B88E",
"W> 	c #F2D2AB",
"X> 	c #E5AC84",
"Y> 	c #E09C72",
"Z> 	c #DA956B",
"`> 	c #DC936A",
" , 	c #DB9269",
"., 	c #E0926B",
"+, 	c #E19069",
"@, 	c #E28E68",
"#, 	c #E18E66",
"$, 	c #E18D65",
"%, 	c #E18B65",
"&, 	c #E18A65",
"*, 	c #E08864",
"=, 	c #E08664",
"-, 	c #E08564",
";, 	c #E18363",
">, 	c #DF8363",
",, 	c #DE8062",
"', 	c #DC7E61",
"), 	c #DC7C60",
"!, 	c #D97A5F",
"~, 	c #D8785F",
"{, 	c #D4775E",
"], 	c #D2765D",
"^, 	c #CA745B",
"/, 	c #C9715A",
"(, 	c #C4725B",
"_, 	c #C26D5A",
":, 	c #BE6B5A",
"<, 	c #B86B57",
"[, 	c #B66958",
"}, 	c #AE6555",
"|, 	c #AA6354",
"1, 	c #A76355",
"2, 	c #A36054",
"3, 	c #9F5D54",
"4, 	c #9A5B52",
"5, 	c #975A51",
"6, 	c #935750",
"7, 	c #8E554F",
"8, 	c #89544F",
"9, 	c #83514E",
"0, 	c #804F4E",
"a, 	c #7B4D4E",
"b, 	c #754A4C",
"c, 	c #71474A",
"d, 	c #6C4548",
"e, 	c #634248",
"f, 	c #593D44",
"g, 	c #675057",
"h, 	c #4F3942",
"i, 	c #4C3A44",
"j, 	c #443540",
"k, 	c #423441",
"l, 	c #3D3241",
"m, 	c #38303F",
"n, 	c #332E3E",
"o, 	c #2E2C3D",
"p, 	c #2A2A3D",
"q, 	c #24283B",
"r, 	c #1F273A",
"s, 	c #1A2437",
"t, 	c #0B2F3C",
"u, 	c #13353E",
"v, 	c #1C3A40",
"w, 	c #243E43",
"x, 	c #2E4345",
"y, 	c #364847",
"z, 	c #3C4A49",
"A, 	c #434F4A",
"B, 	c #4B534B",
"C, 	c #52554D",
"D, 	c #585A4E",
"E, 	c #5E5D50",
"F, 	c #646153",
"G, 	c #696454",
"H, 	c #6E6754",
"I, 	c #736957",
"J, 	c #7A6F55",
"K, 	c #807358",
"L, 	c #8A7C63",
"M, 	c #948572",
"N, 	c #E1DCCA",
"O, 	c #938B73",
"P, 	c #988666",
"Q, 	c #958161",
"R, 	c #968363",
"S, 	c #958362",
"T, 	c #9A8565",
"U, 	c #9D8766",
"V, 	c #9F8865",
"W, 	c #A18A65",
"X, 	c #A38C65",
"Y, 	c #A48C66",
"Z, 	c #A58D66",
"`, 	c #A68E65",
" ' 	c #A98F67",
".' 	c #AA9067",
"+' 	c #AE9269",
"@' 	c #B1936A",
"#' 	c #B2936A",
"$' 	c #B4946A",
"%' 	c #B5956A",
"&' 	c #B6956A",
"*' 	c #B79469",
"=' 	c #BA9469",
"-' 	c #BC9569",
";' 	c #BE956A",
">' 	c #C0966A",
",' 	c #C1966B",
"'' 	c #C39469",
")' 	c #CD9C70",
"!' 	c #D5A277",
"~' 	c #DBA97B",
"{' 	c #DBB791",
"]' 	c #EDD1AF",
"^' 	c #DEAD88",
"/' 	c #DE9F77",
"(' 	c #D3946F",
"_' 	c #CE8F67",
":' 	c #DBA37C",
"<' 	c #CE8D66",
"[' 	c #D38C67",
"}' 	c #D48A66",
"|' 	c #D68A65",
"1' 	c #D68964",
"2' 	c #D58864",
"3' 	c #D58664",
"4' 	c #D38462",
"5' 	c #D48262",
"6' 	c #D68062",
"7' 	c #D57F62",
"8' 	c #D27E62",
"9' 	c #D17D61",
"0' 	c #D07A5F",
"a' 	c #CE785F",
"b' 	c #CB765E",
"c' 	c #CB765F",
"d' 	c #CC7863",
"e' 	c #CB7863",
"f' 	c #CE8473",
"g' 	c #BF6E5E",
"h' 	c #B86B59",
"i' 	c #B66B5A",
"j' 	c #B4695B",
"k' 	c #AF6859",
"l' 	c #A86455",
"m' 	c #C18174",
"n' 	c #A15F53",
"o' 	c #9E5F53",
"p' 	c #9B5D53",
"q' 	c #975B51",
"r' 	c #935950",
"s' 	c #905750",
"t' 	c #8C554F",
"u' 	c #875956",
"v' 	c #7D4F4E",
"w' 	c #7A4E4E",
"x' 	c #744A4C",
"y' 	c #704749",
"z' 	c #6C4649",
"A' 	c #684449",
"B' 	c #5A3E45",
"C' 	c #553C43",
"D' 	c #4F3A41",
"E' 	c #4D3944",
"F' 	c #473641",
"G' 	c #433540",
"H' 	c #403342",
"I' 	c #393240",
"J' 	c #342F3E",
"K' 	c #2F2C3D",
"L' 	c #2E2F41",
"M' 	c #25273C",
"N' 	c #22263B",
"O' 	c #1D263A",
"P' 	c #182437",
"Q' 	c #0A2E3B",
"R' 	c #12343D",
"S' 	c #1B393F",
"T' 	c #233D42",
"U' 	c #2D4244",
"V' 	c #3B4948",
"W' 	c #424E49",
"X' 	c #49524A",
"Y' 	c #4F554C",
"Z' 	c #56594D",
"`' 	c #5B5B4F",
" ) 	c #616052",
".) 	c #676353",
"+) 	c #6C6553",
"@) 	c #706855",
"#) 	c #746A56",
"$) 	c #776D58",
"%) 	c #7D715B",
"&) 	c #7E735B",
"*) 	c #7F7359",
"=) 	c #BCB498",
"-) 	c #847858",
";) 	c #8A7B5E",
">) 	c #AC9C83",
",) 	c #918063",
"') 	c #948262",
")) 	c #948363",
"!) 	c #968464",
"~) 	c #988664",
"{) 	c #9A8764",
"]) 	c #9C8965",
"^) 	c #9F8B66",
"/) 	c #A08B66",
"() 	c #A18C65",
"_) 	c #A48E66",
":) 	c #A58F66",
"<) 	c #A89068",
"[) 	c #AA9069",
"}) 	c #AB9168",
"|) 	c #AC9168",
"1) 	c #AD9168",
"2) 	c #AF9168",
"3) 	c #B09269",
"4) 	c #B39269",
"5) 	c #B49269",
"6) 	c #B79268",
"7) 	c #B8926B",
"8) 	c #BC956D",
"9) 	c #C29C75",
"0) 	c #C2966E",
"a) 	c #C99D74",
"b) 	c #D1A078",
"c) 	c #D09E77",
"d) 	c #E0AD85",
"e) 	c #D39B71",
"f) 	c #CC936A",
"g) 	c #C58D67",
"h) 	c #C78E6A",
"i) 	c #C38B67",
"j) 	c #C78B67",
"k) 	c #C98866",
"l) 	c #C98765",
"m) 	c #CC8563",
"n) 	c #CB8462",
"o) 	c #CB8362",
"p) 	c #CB8262",
"q) 	c #C98061",
"r) 	c #C97F60",
"s) 	c #CA7D60",
"t) 	c #C97C60",
"u) 	c #C5795E",
"v) 	c #C5775E",
"w) 	c #C2765D",
"x) 	c #BF745C",
"y) 	c #C07561",
"z) 	c #C57B6A",
"A) 	c #D09182",
"B) 	c #E2BEB2",
"C) 	c #BF8277",
"D) 	c #AD6958",
"E) 	c #AB6857",
"F) 	c #A96558",
"G) 	c #A46356",
"H) 	c #A36357",
"I) 	c #9F6155",
"J) 	c #9A5D54",
"K) 	c #965C52",
"L) 	c #935951",
"M) 	c #8F5850",
"N) 	c #8B554F",
"O) 	c #88534F",
"P) 	c #84524E",
"Q) 	c #80504D",
"R) 	c #7A4F4E",
"S) 	c #774C4D",
"T) 	c #72494B",
"U) 	c #70484C",
"V) 	c #6B4549",
"W) 	c #674449",
"X) 	c #5F4046",
"Y) 	c #563C44",
"Z) 	c #523B43",
"`) 	c #4E3A44",
" ! 	c #4A3745",
".! 	c #443442",
"+! 	c #403341",
"@! 	c #3B2F41",
"#! 	c #363041",
"$! 	c #312D40",
"%! 	c #2D2B3F",
"&! 	c #3B3C4F",
"*! 	c #24273E",
"=! 	c #20253B",
"-! 	c #1B2539",
";! 	c #162336",
">! 	c #1B383F",
",! 	c #233C42",
"'! 	c #2C4144",
")! 	c #334645",
"!! 	c #3A4A48",
"~! 	c #404E48",
"{! 	c #55584D",
"]! 	c #5A5B4F",
"^! 	c #5E5E51",
"/! 	c #646152",
"(! 	c #6E6957",
"_! 	c #6F6855",
":! 	c #716A56",
"<! 	c #756D5B",
"[! 	c #776D5B",
"}! 	c #7B725C",
"|! 	c #81775C",
"1! 	c #93876B",
"2! 	c #85775B",
"3! 	c #867A5E",
"4! 	c #887E60",
"5! 	c #8B7F5F",
"6! 	c #8E8061",
"7! 	c #8E8262",
"8! 	c #908363",
"9! 	c #928464",
"0! 	c #948564",
"a! 	c #958665",
"b! 	c #978764",
"c! 	c #988865",
"d! 	c #9B8A66",
"e! 	c #9D8B66",
"f! 	c #9E8C67",
"g! 	c #A08C67",
"h! 	c #A28D67",
"i! 	c #A38E67",
"j! 	c #A48E67",
"k! 	c #A58F67",
"l! 	c #A68F68",
"m! 	c #A78E68",
"n! 	c #A98F69",
"o! 	c #AB8F68",
"p! 	c #AD8F68",
"q! 	c #AF8F69",
"r! 	c #AF8E68",
"s! 	c #B18E68",
"t! 	c #B5916B",
"u! 	c #B8916B",
"v! 	c #BE966F",
"w! 	c #C19A76",
"x! 	c #C69B74",
"y! 	c #C59970",
"z! 	c #C39470",
"A! 	c #BE8E6B",
"B! 	c #BD8B67",
"C! 	c #BB8965",
"D! 	c #BC8966",
"E! 	c #BD8664",
"F! 	c #C08565",
"G! 	c #BF8464",
"H! 	c #C18363",
"I! 	c #BF8061",
"J! 	c #C88B6E",
"K! 	c #B07B66",
"L! 	c #BB7D64",
"M! 	c #BD7C61",
"N! 	c #BD7A60",
"O! 	c #BB785E",
"P! 	c #C98D75",
"Q! 	c #BB7A62",
"R! 	c #B8745C",
"S! 	c #B6735A",
"T! 	c #B3715B",
"U! 	c #B57361",
"V! 	c #B87666",
"W! 	c #B07264",
"X! 	c #C99A90",
"Y! 	c #A96B61",
"Z! 	c #A36657",
"`! 	c #9F6556",
" ~ 	c #A06258",
".~ 	c #9D6157",
"+~ 	c #975E54",
"@~ 	c #945C53",
"#~ 	c #915B53",
"$~ 	c #8E5953",
"%~ 	c #7E5F5F",
"&~ 	c #817270",
"*~ 	c #835450",
"=~ 	c #7F514F",
"-~ 	c #7B4F4E",
";~ 	c #774D4D",
">~ 	c #734C4E",
",~ 	c #704A4C",
"'~ 	c #6D4C50",
")~ 	c #675359",
"!~ 	c #716468",
"~~ 	c #6E595C",
"{~ 	c #62464B",
"]~ 	c #593E45",
"^~ 	c #553D45",
"/~ 	c #513C44",
"(~ 	c #4E3B44",
"_~ 	c #483743",
":~ 	c #453444",
"<~ 	c #3E3444",
"[~ 	c #746E7A",
"}~ 	c #4D4958",
"|~ 	c #2E2C3F",
"1~ 	c #2A2A3E",
"2~ 	c #272A3E",
"3~ 	c #22283C",
"4~ 	c #1E243B",
"5~ 	c #1A243A",
"6~ 	c #152337",
"7~ 	c #12333D",
"8~ 	c #1A383E",
"9~ 	c #223C41",
"0~ 	c #2B4143",
"a~ 	c #324644",
"b~ 	c #394947",
"c~ 	c #404D48",
"d~ 	c #465148",
"e~ 	c #4C554B",
"f~ 	c #52574C",
"g~ 	c #575A4F",
"h~ 	c #5B5D50",
"i~ 	c #676351",
"j~ 	c #6C6754",
"k~ 	c #6E6A56",
"l~ 	c #868270",
"m~ 	c #736D5A",
"n~ 	c #766F5B",
"o~ 	c #79715B",
"p~ 	c #7E775E",
"q~ 	c #7F765F",
"r~ 	c #81785D",
"s~ 	c #837C5C",
"t~ 	c #857D5E",
"u~ 	c #887E61",
"v~ 	c #888061",
"w~ 	c #898162",
"x~ 	c #8C8264",
"y~ 	c #8E8365",
"z~ 	c #8F8466",
"A~ 	c #918565",
"B~ 	c #928664",
"C~ 	c #948766",
"D~ 	c #968866",
"E~ 	c #978967",
"F~ 	c #988A67",
"G~ 	c #9A8B68",
"H~ 	c #9B8B68",
"I~ 	c #9C8B67",
"J~ 	c #9D8C67",
"K~ 	c #9E8C69",
"L~ 	c #A18C69",
"M~ 	c #A28C68",
"N~ 	c #A38C68",
"O~ 	c #A68C67",
"P~ 	c #A88C68",
"Q~ 	c #A98C67",
"R~ 	c #AB8B67",
"S~ 	c #AB8B65",
"T~ 	c #AE8D6B",
"U~ 	c #AF8E6A",
"V~ 	c #B5936A",
"W~ 	c #B4906A",
"X~ 	c #B38A69",
"Y~ 	c #B28865",
"Z~ 	c #B28763",
"`~ 	c #B58A6A",
" { 	c #BE9577",
".{ 	c #B58264",
"+{ 	c #B68063",
"@{ 	c #B48062",
"#{ 	c #B68062",
"${ 	c #B47D60",
"%{ 	c #BB8469",
"&{ 	c #AE7C65",
"*{ 	c #B27B64",
"={ 	c #B27960",
"-{ 	c #B37760",
";{ 	c #B1755F",
">{ 	c #AD735E",
",{ 	c #AD725D",
"'{ 	c #AC6F5C",
"){ 	c #AB6E5A",
"!{ 	c #A86C5A",
"~{ 	c #A76C5B",
"{{ 	c #A86D5F",
"]{ 	c #A96F61",
"^{ 	c #A76F62",
"/{ 	c #9C665A",
"({ 	c #AC7F73",
"_{ 	c #976157",
":{ 	c #975E56",
"<{ 	c #925D55",
"[{ 	c #8F5C54",
"}{ 	c #8C5954",
"|{ 	c #885954",
"1{ 	c #895E5C",
"2{ 	c #4D4A52",
"3{ 	c #817E7C",
"4{ 	c #846462",
"5{ 	c #774F50",
"6{ 	c #744D4F",
"7{ 	c #704B4E",
"8{ 	c #6C4A4E",
"9{ 	c #6C5056",
"0{ 	c #57545E",
"a{ 	c #434953",
"b{ 	c #5C5E61",
"c{ 	c #999592",
"d{ 	c #888282",
"e{ 	c #543D44",
"f{ 	c #503C45",
"g{ 	c #4C3B45",
"h{ 	c #4A3944",
"i{ 	c #453742",
"j{ 	c #423544",
"k{ 	c #403545",
"l{ 	c #393242",
"m{ 	c #352F42",
"n{ 	c #2F2D40",
"o{ 	c #2C2B40",
"p{ 	c #27293D",
"q{ 	c #23283C",
"r{ 	c #21283C",
"s{ 	c #1D253B",
"t{ 	c #18243A",
"u{ 	c #142237",
"v{ 	c #092D3A",
"w{ 	c #11333C",
"x{ 	c #19373D",
"y{ 	c #223B40",
"z{ 	c #2A4042",
"A{ 	c #314543",
"B{ 	c #374947",
"C{ 	c #3D4C47",
"D{ 	c #444F47",
"E{ 	c #4B5349",
"F{ 	c #50564A",
"G{ 	c #55594D",
"H{ 	c #595C4E",
"I{ 	c #5F5F50",
"J{ 	c #656352",
"K{ 	c #676451",
"L{ 	c #6A6853",
"M{ 	c #8D8A77",
"N{ 	c #706D58",
"O{ 	c #716C58",
"P{ 	c #8D8775",
"Q{ 	c #75735A",
"R{ 	c #7A765E",
"S{ 	c #7D7660",
"T{ 	c #7E785D",
"U{ 	c #807A5E",
"V{ 	c #827C61",
"W{ 	c #837D5F",
"X{ 	c #847E60",
"Y{ 	c #868062",
"Z{ 	c #888164",
"`{ 	c #898164",
" ] 	c #8C8364",
".] 	c #8C8363",
"+] 	c #8D8463",
"@] 	c #8F8564",
"#] 	c #908664",
"$] 	c #918664",
"%] 	c #948765",
"&] 	c #958865",
"*] 	c #968865",
"=] 	c #978965",
"-] 	c #978867",
";] 	c #998A67",
">] 	c #9B8967",
",] 	c #9C8966",
"'] 	c #9E8A67",
")] 	c #A08968",
"!] 	c #A18968",
"~] 	c #A28867",
"{] 	c #A28765",
"]] 	c #B59877",
"^] 	c #A68764",
"/] 	c #A88664",
"(] 	c #A98463",
"_] 	c #A48972",
":] 	c #A99583",
"<] 	c #AA907E",
"[] 	c #A38774",
"}] 	c #AB8874",
"|] 	c #AD7E65",
"1] 	c #AB7E63",
"2] 	c #AB7B60",
"3] 	c #AD7C61",
"4] 	c #AB7960",
"5] 	c #AC7860",
"6] 	c #AB7760",
"7] 	c #AA765F",
"8] 	c #AA735E",
"9] 	c #A9715D",
"0] 	c #A7715D",
"a] 	c #A46D5B",
"b] 	c #A66E5D",
"c] 	c #A26B5C",
"d] 	c #A0695B",
"e] 	c #9D685B",
"f] 	c #9C675A",
"g] 	c #996558",
"h] 	c #986257",
"i] 	c #916057",
"j] 	c #9F736B",
"k] 	c #915D57",
"l] 	c #8C5D52",
"m] 	c #8A5C53",
"n] 	c #885953",
"o] 	c #845652",
"p] 	c #805451",
"q] 	c #856160",
"r] 	c #635356",
"s] 	c #6B5558",
"t] 	c #765253",
"u] 	c #714E4F",
"v] 	c #6E4C4F",
"w] 	c #6A494E",
"x] 	c #685055",
"y] 	c #53525B",
"z] 	c #3C434E",
"A] 	c #3F4550",
"B] 	c #484C52",
"C] 	c #A6A3A0",
"D] 	c #AEAAA8",
"E] 	c #7F7576",
"F] 	c #4C3A43",
"G] 	c #483943",
"H] 	c #41353F",
"I] 	c #3F3442",
"J] 	c #3C3442",
"K] 	c #3A3442",
"L] 	c #322E41",
"M] 	c #3A384D",
"N] 	c #2B2B41",
"O] 	c #25283E",
"P] 	c #242940",
"Q] 	c #272E44",
"R] 	c #1A2339",
"S] 	c #162238",
"T] 	c #112135",
"U] 	c #0B2D39",
"V] 	c #12333C",
"W] 	c #1A373E",
"X] 	c #223C40",
"Y] 	c #283F41",
"Z] 	c #2F4343",
"`] 	c #374745",
" ^ 	c #3C4B46",
".^ 	c #434F48",
"+^ 	c #48524A",
"@^ 	c #4E564C",
"#^ 	c #51574C",
"$^ 	c #565B4F",
"%^ 	c #5B5E51",
"&^ 	c #606153",
"*^ 	c #626353",
"=^ 	c #656553",
"-^ 	c #696956",
";^ 	c #6B6A57",
">^ 	c #7F7F6C",
",^ 	c #858571",
"'^ 	c #73725C",
")^ 	c #898771",
"!^ 	c #77745D",
"~^ 	c #7A775E",
"{^ 	c #7A785E",
"]^ 	c #7C795F",
"^^ 	c #7F7A60",
"/^ 	c #817C61",
"(^ 	c #827D61",
"_^ 	c #837E61",
":^ 	c #847F62",
"<^ 	c #868063",
"[^ 	c #868163",
"}^ 	c #888365",
"|^ 	c #8A8567",
"1^ 	c #8B8566",
"2^ 	c #8C8565",
"3^ 	c #8D8666",
"4^ 	c #8F8665",
"5^ 	c #8F8664",
"6^ 	c #928865",
"7^ 	c #948665",
"8^ 	c #968766",
"9^ 	c #978766",
"0^ 	c #998665",
"a^ 	c #9A8766",
"b^ 	c #9A8666",
"c^ 	c #9C8566",
"d^ 	c #9E8466",
"e^ 	c #9D8365",
"f^ 	c #9C8264",
"g^ 	c #9D8063",
"h^ 	c #847264",
"i^ 	c #57595E",
"j^ 	c #686666",
"k^ 	c #5D5A5C",
"l^ 	c #7B7572",
"m^ 	c #8F8782",
"n^ 	c #AD9381",
"o^ 	c #A27A61",
"p^ 	c #A37860",
"q^ 	c #A3775F",
"r^ 	c #A3765E",
"s^ 	c #A2745D",
"t^ 	c #A1735C",
"u^ 	c #A2735D",
"v^ 	c #A0715D",
"w^ 	c #9E6F5C",
"x^ 	c #9D6E5B",
"y^ 	c #9C6C5B",
"z^ 	c #9B6B5B",
"A^ 	c #9A685A",
"B^ 	c #976759",
"C^ 	c #956658",
"D^ 	c #926457",
"E^ 	c #906256",
"F^ 	c #8C6A64",
"G^ 	c #8F6560",
"H^ 	c #8B5D57",
"I^ 	c #885B56",
"J^ 	c #865A54",
"K^ 	c #815853",
"L^ 	c #7E5653",
"M^ 	c #7A5553",
"N^ 	c #775352",
"O^ 	c #9A807F",
"P^ 	c #7C5D5E",
"Q^ 	c #6F4E50",
"R^ 	c #6D4D4F",
"S^ 	c #6A4B4E",
"T^ 	c #67494D",
"U^ 	c #66484C",
"V^ 	c #5D5B64",
"W^ 	c #424C59",
"X^ 	c #383F4A",
"Y^ 	c #393E49",
"Z^ 	c #3A3F48",
"`^ 	c #606062",
" / 	c #B3B0AC",
"./ 	c #ADA9A5",
"+/ 	c #4E424C",
"@/ 	c #443744",
"#/ 	c #413544",
"$/ 	c #3F3443",
"%/ 	c #3B3342",
"&/ 	c #393241",
"*/ 	c #312E3E",
"=/ 	c #2C2C3F",
"-/ 	c #282A3E",
";/ 	c #22293E",
">/ 	c #1C253B",
",/ 	c #18253D",
"'/ 	c #17273F",
")/ 	c #12243B",
"!/ 	c #092B37",
"~/ 	c #10313A",
"{/ 	c #18363C",
"]/ 	c #213B3F",
"^/ 	c #273F41",
"// 	c #2E4242",
"(/ 	c #354644",
"_/ 	c #3B4A47",
":/ 	c #414D48",
"</ 	c #465049",
"[/ 	c #4A534A",
"}/ 	c #51594E",
"|/ 	c #53594D",
"1/ 	c #575C4E",
"2/ 	c #5D6052",
"3/ 	c #606254",
"4/ 	c #767768",
"5/ 	c #676857",
"6/ 	c #6A6B59",
"7/ 	c #6C6E5A",
"8/ 	c #6E705B",
"9/ 	c #6F6F5A",
"0/ 	c #71705B",
"a/ 	c #72705B",
"b/ 	c #76755E",
"c/ 	c #77765E",
"d/ 	c #78775E",
"e/ 	c #79775E",
"f/ 	c #7B795F",
"g/ 	c #7D7B60",
"h/ 	c #7E7D60",
"i/ 	c #7F7D61",
"j/ 	c #807E60",
"k/ 	c #817F62",
"l/ 	c #818062",
"m/ 	c #828063",
"n/ 	c #828163",
"o/ 	c #868466",
"p/ 	c #898667",
"q/ 	c #8B8868",
"r/ 	c #8D8868",
"s/ 	c #8B8665",
"t/ 	c #8A8463",
"u/ 	c #8E8463",
"v/ 	c #8F8463",
"w/ 	c #918364",
"x/ 	c #908364",
"y/ 	c #928667",
"z/ 	c #9A8C6E",
"A/ 	c #938264",
"B/ 	c #968266",
"C/ 	c #978265",
"D/ 	c #988164",
"E/ 	c #907C68",
"F/ 	c #444A52",
"G/ 	c #3D4149",
"H/ 	c #383A41",
"I/ 	c #515151",
"J/ 	c #968D88",
"K/ 	c #B0AAA2",
"L/ 	c #BFB4AB",
"M/ 	c #A48877",
"N/ 	c #9B755F",
"O/ 	c #9A745E",
"P/ 	c #9A735D",
"Q/ 	c #99715B",
"R/ 	c #98705B",
"S/ 	c #9A6F5C",
"T/ 	c #996D5C",
"U/ 	c #976B59",
"V/ 	c #966A5A",
"W/ 	c #956959",
"X/ 	c #946759",
"Y/ 	c #916557",
"Z/ 	c #8F6356",
"`/ 	c #8C6256",
" ( 	c #8B6155",
".( 	c #885F55",
"+( 	c #84645F",
"@( 	c #845E57",
"#( 	c #825A54",
"$( 	c #805954",
"%( 	c #7F5953",
"&( 	c #7B5753",
"*( 	c #785553",
"=( 	c #755452",
"-( 	c #705150",
";( 	c #6D4E4F",
">( 	c #6B4D4F",
",( 	c #6A4C4F",
"'( 	c #684B4E",
")( 	c #66494D",
"!( 	c #63474C",
"~( 	c #69595E",
"{( 	c #58616E",
"]( 	c #343B45",
"^( 	c #353C46",
"/( 	c #31363F",
"(( 	c #373C44",
"_( 	c #33363E",
":( 	c #7C7A79",
"<( 	c #9F9C98",
"[( 	c #5A5158",
"}( 	c #413644",
"|( 	c #3F3444",
"1( 	c #3C3343",
"2( 	c #383241",
"3( 	c #373443",
"4( 	c #343242",
"5( 	c #1F263B",
"6( 	c #1A243B",
"7( 	c #17233C",
"8( 	c #13213B",
"9( 	c #10213A",
"0( 	c #0A2C37",
"a( 	c #11323B",
"b( 	c #19363D",
"c( 	c #203A3E",
"d( 	c #263E40",
"e( 	c #2D4142",
"f( 	c #334444",
"g( 	c #394946",
"h( 	c #3F4C47",
"i( 	c #454F48",
"j( 	c #49534B",
"k( 	c #646D65",
"l( 	c #525A4F",
"m( 	c #545A4D",
"n( 	c #5A5E50",
"o( 	c #5E6153",
"p( 	c #616454",
"q( 	c #626555",
"r( 	c #646756",
"s( 	c #656856",
"t( 	c #696C59",
"u( 	c #6A6D59",
"v( 	c #6E705C",
"w( 	c #70725D",
"x( 	c #71735D",
"y( 	c #71745E",
"z( 	c #73755E",
"A( 	c #75775F",
"B( 	c #75785F",
"C( 	c #76795F",
"D( 	c #777A5F",
"E( 	c #787A5F",
"F( 	c #797C60",
"G( 	c #7B7D61",
"H( 	c #7B7E62",
"I( 	c #7C7F63",
"J( 	c #818468",
"K( 	c #85886B",
"L( 	c #87896B",
"M( 	c #898A6C",
"N( 	c #8A8A6C",
"O( 	c #888667",
"P( 	c #868264",
"Q( 	c #8A8366",
"R( 	c #A59F83",
"S( 	c #C3BEA2",
"T( 	c #8A8063",
"U( 	c #8E8065",
"V( 	c #8F7F64",
"W( 	c #8C7C67",
"X( 	c #4F5054",
"Y( 	c #4B525A",
"Z( 	c #393E46",
"`( 	c #5B5B5D",
" _ 	c #7C746E",
"._ 	c #938C86",
"+_ 	c #5A5655",
"@_ 	c #B5AEA8",
"#_ 	c #BBAFA7",
"$_ 	c #987C6B",
"%_ 	c #92725E",
"&_ 	c #92705D",
"*_ 	c #917160",
"=_ 	c #927161",
"-_ 	c #906B5A",
";_ 	c #8F6A5A",
">_ 	c #8F695A",
",_ 	c #8E685A",
"'_ 	c #8D675A",
")_ 	c #8C655A",
"!_ 	c #8A6359",
"~_ 	c #876258",
"{_ 	c #856157",
"]_ 	c #87635B",
"^_ 	c #7F5C54",
"/_ 	c #7E5B55",
"(_ 	c #7C5A55",
"__ 	c #7A5854",
":_ 	c #785B57",
"<_ 	c #636166",
"[_ 	c #7C6160",
"}_ 	c #705250",
"|_ 	c #6E5050",
"1_ 	c #6A4E4F",
"2_ 	c #684E51",
"3_ 	c #644B4E",
"4_ 	c #62494C",
"5_ 	c #62484D",
"6_ 	c #5F464B",
"7_ 	c #5B444A",
"8_ 	c #5E545C",
"9_ 	c #555D69",
"0_ 	c #343A45",
"a_ 	c #343943",
"b_ 	c #32363F",
"c_ 	c #32353C",
"d_ 	c #727070",
"e_ 	c #918B89",
"f_ 	c #575058",
"g_ 	c #3D3544",
"h_ 	c #3B3343",
"i_ 	c #393243",
"j_ 	c #363141",
"k_ 	c #322E3F",
"l_ 	c #2F2C3E",
"m_ 	c #2D2B3E",
"n_ 	c #292A3E",
"o_ 	c #25283D",
"p_ 	c #21273C",
"q_ 	c #1B263D",
"r_ 	c #16233A",
"s_ 	c #132239",
"t_ 	c #102238",
"u_ 	c #10323B",
"v_ 	c #1F393D",
"w_ 	c #2C4142",
"x_ 	c #304343",
"y_ 	c #374846",
"z_ 	c #3C4A46",
"A_ 	c #424E48",
"B_ 	c #465149",
"C_ 	c #515C53",
"D_ 	c #4D574C",
"E_ 	c #51594D",
"F_ 	c #565C4F",
"G_ 	c #5B6052",
"H_ 	c #606355",
"I_ 	c #7E8175",
"J_ 	c #616555",
"K_ 	c #646757",
"L_ 	c #666A58",
"M_ 	c #666A59",
"N_ 	c #696C5B",
"O_ 	c #6A6E5C",
"P_ 	c #6C715D",
"Q_ 	c #6D725D",
"R_ 	c #6E735E",
"S_ 	c #6E755E",
"T_ 	c #6F755F",
"U_ 	c #70765F",
"V_ 	c #71775F",
"W_ 	c #727960",
"X_ 	c #737A5F",
"Y_ 	c #737B60",
"Z_ 	c #747B60",
"`_ 	c #7A8166",
" : 	c #7F876D",
".: 	c #7E8473",
"+: 	c #9A9B8D",
"@: 	c #BEC1AB",
"#: 	c #858B6E",
"$: 	c #84876B",
"%: 	c #818265",
"&: 	c #7E7F62",
"*: 	c #807F62",
"=: 	c #817F63",
"-: 	c #827F63",
";: 	c #827F62",
">: 	c #838062",
",: 	c #827E61",
"': 	c #857F65",
"): 	c #867C61",
"!: 	c #877C63",
"~: 	c #716D67",
"{: 	c #3C434C",
"]: 	c #484E56",
"^: 	c #3B414A",
"/: 	c #414146",
"(: 	c #6C6764",
"_: 	c #AAA29B",
":: 	c #807A76",
"<: 	c #8C8580",
"[: 	c #C2BCB6",
"}: 	c #948276",
"|: 	c #8D7363",
"1: 	c #8A6D5D",
"2: 	c #76655E",
"3: 	c #5E5958",
"4: 	c #896C5D",
"5: 	c #87685B",
"6: 	c #85665A",
"7: 	c #84645A",
"8: 	c #836459",
"9: 	c #826359",
"0: 	c #816159",
"a: 	c #7F5F58",
"b: 	c #7D5F58",
"c: 	c #856761",
"d: 	c #785B56",
"e: 	c #765854",
"f: 	c #755654",
"g: 	c #725553",
"h: 	c #715756",
"i: 	c #685C5E",
"j: 	c #6D5352",
"k: 	c #6A5050",
"l: 	c #674E50",
"m: 	c #654E50",
"n: 	c #614C50",
"o: 	c #7F6C6F",
"p: 	c #5D494D",
"q: 	c #5B474D",
"r: 	c #56434B",
"s: 	c #5B525B",
"t: 	c #535A67",
"u: 	c #3A424D",
"v: 	c #333842",
"w: 	c #353A42",
"x: 	c #5E6064",
"y: 	c #565759",
"z: 	c #727170",
"A: 	c #7F7B7B",
"B: 	c #3E3646",
"C: 	c #393343",
"D: 	c #383344",
"E: 	c #363142",
"F: 	c #403E4F",
"G: 	c #323144",
"H: 	c #23273B",
"I: 	c #1F263C",
"J: 	c #1C263C",
"K: 	c #19243D",
"L: 	c #15233C",
"M: 	c #12223C",
"N: 	c #142640",
"O: 	c #0A2C38",
"P: 	c #0F303A",
"Q: 	c #17343B",
"R: 	c #1E383C",
"S: 	c #253D3F",
"T: 	c #2B4041",
"U: 	c #2F4243",
"V: 	c #364746",
"W: 	c #3B4946",
"X: 	c #414D47",
"Y: 	c #48544B",
"Z: 	c #4B574C",
"`: 	c #4F5A4D",
" < 	c #535B4E",
".< 	c #575D4F",
"+< 	c #5B5F51",
"@< 	c #65695C",
"#< 	c #5E6354",
"$< 	c #5F6455",
"%< 	c #616656",
"&< 	c #646A5A",
"*< 	c #656C5B",
"=< 	c #686F5D",
"-< 	c #69715D",
";< 	c #6A725E",
">< 	c #69725D",
",< 	c #69735E",
"'< 	c #6B755E",
")< 	c #6C765E",
"!< 	c #6C775F",
"~< 	c #6D785F",
"{< 	c #6E7960",
"]< 	c #6F7A61",
"^< 	c #7A846C",
"/< 	c #5D635E",
"(< 	c #696566",
"_< 	c #918A87",
":< 	c #B8B1A9",
"<< 	c #8C927B",
"[< 	c #82896E",
"}< 	c #7E8368",
"|< 	c #787D62",
"1< 	c #787C62",
"2< 	c #797C62",
"3< 	c #7A7C62",
"4< 	c #7B7B62",
"5< 	c #7C7C62",
"6< 	c #7E7A62",
"7< 	c #7F7962",
"8< 	c #807962",
"9< 	c #5F6161",
"0< 	c #2E333A",
"a< 	c #454D54",
"b< 	c #353B43",
"c< 	c #292A31",
"d< 	c #333338",
"e< 	c #765B53",
"f< 	c #A49C96",
"g< 	c #BCB4AD",
"h< 	c #CCC3BA",
"i< 	c #A99F97",
"j< 	c #907F74",
"k< 	c #826B5D",
"l< 	c #836C5F",
"m< 	c #826D63",
"n< 	c #80665A",
"o< 	c #7F6459",
"p< 	c #7F6961",
"q< 	c #7C6259",
"r< 	c #7D625B",
"s< 	c #7A6763",
"t< 	c #82706C",
"u< 	c #795F5A",
"v< 	c #745A55",
"w< 	c #745A56",
"x< 	c #725955",
"y< 	c #705756",
"z< 	c #6D5553",
"A< 	c #6A5452",
"B< 	c #685352",
"C< 	c #665151",
"D< 	c #654F4F",
"E< 	c #644D4E",
"F< 	c #614C4E",
"G< 	c #5D4A4D",
"H< 	c #5A484C",
"I< 	c #68585D",
"J< 	c #58474D",
"K< 	c #56464D",
"L< 	c #54444C",
"M< 	c #52434B",
"N< 	c #53454E",
"O< 	c #5B5C67",
"P< 	c #3B404B",
"Q< 	c #3C424B",
"R< 	c #31343C",
"S< 	c #32353D",
"T< 	c #3D3F46",
"U< 	c #505053",
"V< 	c #838282",
"W< 	c #423C4C",
"X< 	c #383444",
"Y< 	c #332F41",
"Z< 	c #332F42",
"`< 	c #2F2C40",
" [ 	c #2B2C3F",
".[ 	c #292B3E",
"+[ 	c #24273C",
"@[ 	c #22273C",
"#[ 	c #1B253D",
"$[ 	c #18243C",
"%[ 	c #15223B",
"&[ 	c #102038",
"*[ 	c #0F1F39",
"=[ 	c #0B2B36",
"-[ 	c #10303A",
";[ 	c #18343C",
">[ 	c #1E383D",
",[ 	c #243C40",
"'[ 	c #2A3F40",
")[ 	c #5A6765",
"![ 	c #4F5C59",
"~[ 	c #43504B",
"{[ 	c #465249",
"][ 	c #48544A",
"^[ 	c #4D594E",
"/[ 	c #505B50",
"([ 	c #535D50",
"_[ 	c #566052",
":[ 	c #586153",
"<[ 	c #596254",
"[[ 	c #5F695A",
"}[ 	c #8D9588",
"|[ 	c #606859",
"1[ 	c #606A59",
"2[ 	c #626C5B",
"3[ 	c #636E5C",
"4[ 	c #64705D",
"5[ 	c #64705C",
"6[ 	c #65715D",
"7[ 	c #65725D",
"8[ 	c #66735E",
"9[ 	c #67745E",
"0[ 	c #68755E",
"a[ 	c #68755F",
"b[ 	c #697660",
"c[ 	c #6A7761",
"d[ 	c #727C6C",
"e[ 	c #3F4047",
"f[ 	c #6A6766",
"g[ 	c #A29C95",
"h[ 	c #B1ABA2",
"i[ 	c #838178",
"j[ 	c #7F8A73",
"k[ 	c #778169",
"l[ 	c #737A64",
"m[ 	c #747A67",
"n[ 	c #727767",
"o[ 	c #737963",
"p[ 	c #767A63",
"q[ 	c #757961",
"r[ 	c #757861",
"s[ 	c #777862",
"t[ 	c #797862",
"u[ 	c #7A7762",
"v[ 	c #696B66",
"w[ 	c #3F464F",
"x[ 	c #4C535B",
"y[ 	c #2F323A",
"z[ 	c #24252B",
"A[ 	c #422C2B",
"B[ 	c #625E5E",
"C[ 	c #918A86",
"D[ 	c #CFC9C3",
"E[ 	c #ABA198",
"F[ 	c #7D6D60",
"G[ 	c #7A695B",
"H[ 	c #79685B",
"I[ 	c #79675A",
"J[ 	c #79645A",
"K[ 	c #78635A",
"L[ 	c #77615A",
"M[ 	c #76605A",
"N[ 	c #75686A",
"O[ 	c #484F59",
"P[ 	c #68696D",
"Q[ 	c #948E8B",
"R[ 	c #7E6F6C",
"S[ 	c #6E5A58",
"T[ 	c #6D5B59",
"U[ 	c #6C5A59",
"V[ 	c #695857",
"W[ 	c #665454",
"X[ 	c #635251",
"Y[ 	c #604F4F",
"Z[ 	c #5E4D4E",
"`[ 	c #5C4B4D",
" } 	c #5A494D",
".} 	c #59494E",
"+} 	c #57474D",
"@} 	c #54454C",
"#} 	c #53454D",
"$} 	c #52444C",
"%} 	c #4F424B",
"&} 	c #4C404A",
"*} 	c #4A3E48",
"=} 	c #4C434D",
"-} 	c #50515B",
";} 	c #3E424A",
">} 	c #373B44",
",} 	c #363A43",
"'} 	c #373A43",
")} 	c #48494F",
"!} 	c #494650",
"~} 	c #353242",
"{} 	c #343142",
"]} 	c #312F41",
"^} 	c #303040",
"/} 	c #2D2D40",
"(} 	c #2B2C40",
"_} 	c #292B3F",
":} 	c #25293D",
"<} 	c #20273F",
"[} 	c #1D253F",
"}} 	c #19253D",
"|} 	c #16233D",
"1} 	c #12213A",
"2} 	c #112139",
"3} 	c #0D1E37",
"4} 	c #102F39",
"5} 	c #17333B",
"6} 	c #1E373D",
"7} 	c #233A40",
"8} 	c #283E40",
"9} 	c #314443",
"0} 	c #6B7877",
"a} 	c #596764",
"b} 	c #445048",
"c} 	c #47534A",
"d} 	c #49554B",
"e} 	c #4C594F",
"f} 	c #5C685D",
"g} 	c #515D4F",
"h} 	c #546052",
"i} 	c #566153",
"j} 	c #626C5F",
"k} 	c #6C766A",
"l} 	c #596555",
"m} 	c #5D6858",
"n} 	c #616D5D",
"o} 	c #727F6F",
"p} 	c #616F5E",
"q} 	c #5F6D5B",
"r} 	c #606E5C",
"s} 	c #616F5D",
"t} 	c #63705E",
"u} 	c #64715F",
"v} 	c #647260",
"w} 	c #63735F",
"x} 	c #64745F",
"y} 	c #657561",
"z} 	c #667661",
"A} 	c #6B766D",
"B} 	c #42444E",
"C} 	c #746F6C",
"D} 	c #98918A",
"E} 	c #B4ADA5",
"F} 	c #ADA89F",
"G} 	c #7D8976",
"H} 	c #6F7E67",
"I} 	c #6A7862",
"J} 	c #7D8776",
"K} 	c #6D6F6A",
"L} 	c #6D7762",
"M} 	c #6E7761",
"N} 	c #6F7660",
"O} 	c #727963",
"P} 	c #777D67",
"Q} 	c #797D68",
"R} 	c #777A65",
"S} 	c #737464",
"T} 	c #586169",
"U} 	c #464D57",
"V} 	c #25292F",
"W} 	c #22252B",
"X} 	c #24262D",
"Y} 	c #27282E",
"Z} 	c #363335",
"`} 	c #454449",
" | 	c #695B58",
".| 	c #958B85",
"+| 	c #786C63",
"@| 	c #73655B",
"#| 	c #786960",
"$| 	c #86776F",
"%| 	c #716059",
"&| 	c #715F58",
"*| 	c #705E58",
"=| 	c #6E5C57",
"-| 	c #6A6368",
";| 	c #565C66",
">| 	c #50535B",
",| 	c #767274",
"'| 	c #A39B95",
")| 	c #736565",
"!| 	c #6A5A5C",
"~| 	c #68595D",
"{| 	c #66585C",
"]| 	c #625458",
"^| 	c #5F5154",
"/| 	c #5B4D51",
"(| 	c #584B4E",
"_| 	c #554A4E",
":| 	c #54484C",
"<| 	c #53474C",
"[| 	c #51444C",
"}| 	c #4F434B",
"|| 	c #4D424B",
"1| 	c #4B404A",
"2| 	c #493F49",
"3| 	c #463D48",
"4| 	c #463D46",
"5| 	c #413947",
"6| 	c #595561",
"7| 	c #4E5058",
"8| 	c #50525A",
"9| 	c #494952",
"0| 	c #3F3C4A",
"a| 	c #363243",
"b| 	c #333142",
"c| 	c #322F42",
"d| 	c #2F2F40",
"e| 	c #2D2F3F",
"f| 	c #2B2D3E",
"g| 	c #282C3E",
"h| 	c #262A3E",
"i| 	c #23283E",
"j| 	c #20273D",
"k| 	c #343B53",
"l| 	c #1C2540",
"m| 	c #17243C",
"n| 	c #11203A",
"o| 	c #10213B",
"p| 	c #0D1E38",
"q| 	c #0F2E38",
"r| 	c #153239",
"s| 	c #1D363C",
"t| 	c #223A3F",
"u| 	c #273D40",
"v| 	c #2C4041",
"w| 	c #3F4D49",
"x| 	c #414F48",
"y| 	c #43524A",
"z| 	c #47564D",
"A| 	c #48574D",
"B| 	c #56645A",
"C| 	c #4D5B4E",
"D| 	c #515E51",
"E| 	c #525F52",
"F| 	c #9DA89D",
"G| 	c #838F83",
"H| 	c #687467",
"I| 	c #586656",
"J| 	c #596757",
"K| 	c #5A6A5A",
"L| 	c #5B6B5B",
"M| 	c #5D6D5C",
"N| 	c #5C6C5A",
"O| 	c #5D6E5C",
"P| 	c #5E6E5D",
"Q| 	c #5F6F5E",
"R| 	c #5E705D",
"S| 	c #5F715E",
"T| 	c #5F725F",
"U| 	c #60725F",
"V| 	c #627069",
"W| 	c #353841",
"X| 	c #716B68",
"Y| 	c #8A817A",
"Z| 	c #B5B1AA",
"`| 	c #B6AFA9",
" 1 	c #718470",
".1 	c #677965",
"+1 	c #657562",
"@1 	c #697966",
"#1 	c #6B7866",
"$1 	c #677562",
"%1 	c #687460",
"&1 	c #6C7663",
"*1 	c #6D7469",
"=1 	c #747F6B",
"-1 	c #767F6B",
";1 	c #757C69",
">1 	c #767B69",
",1 	c #6C7273",
"'1 	c #3D454E",
")1 	c #24272E",
"!1 	c #242830",
"~1 	c #25282F",
"{1 	c #323337",
"]1 	c #534946",
"^1 	c #685955",
"/1 	c #65453B",
"(1 	c #837169",
"_1 	c #9C948C",
":1 	c #6D635A",
"<1 	c #6C6259",
"[1 	c #6A5F56",
"}1 	c #6C5F58",
"|1 	c #6B5D57",
"11 	c #6A5C58",
"21 	c #695B57",
"31 	c #837C7F",
"41 	c #535863",
"51 	c #3C3E47",
"61 	c #484A4F",
"71 	c #ACA59E",
"81 	c #7A7171",
"91 	c #65595E",
"01 	c #62565E",
"a1 	c #5F535B",
"b1 	c #5A4F57",
"c1 	c #574C53",
"d1 	c #53494F",
"e1 	c #51484D",
"f1 	c #4F464C",
"g1 	c #4E444B",
"h1 	c #4C424B",
"i1 	c #4A414A",
"j1 	c #493F4A",
"k1 	c #473F49",
"l1 	c #453E49",
"m1 	c #433D48",
"n1 	c #423C47",
"o1 	c #413A46",
"p1 	c #3F3848",
"q1 	c #413C4C",
"r1 	c #3A3645",
"s1 	c #373442",
"t1 	c #373444",
"u1 	c #343344",
"v1 	c #333244",
"w1 	c #303042",
"x1 	c #2E2E41",
"y1 	c #2C2D40",
"z1 	c #2A2D3E",
"A1 	c #272B3E",
"B1 	c #252A3E",
"C1 	c #21273D",
"D1 	c #1F273C",
"E1 	c #1D263F",
"F1 	c #18233E",
"G1 	c #16243C",
"H1 	c #13223B",
"I1 	c #0F2039",
"J1 	c #0E1F39",
"K1 	c #0B1D37",
"L1 	c #092934",
"M1 	c #16333A",
"N1 	c #1B353B",
"O1 	c #21383D",
"P1 	c #263D40",
"Q1 	c #2A3F41",
"R1 	c #2E4243",
"S1 	c #324544",
"T1 	c #3B4B49",
"U1 	c #3E4E49",
"V1 	c #40504A",
"W1 	c #43524C",
"X1 	c #45554D",
"Y1 	c #48584E",
"Z1 	c #4B5B50",
"`1 	c #4C5C51",
" 2 	c #4D5D52",
".2 	c #4F5F54",
"+2 	c #506055",
"@2 	c #526254",
"#2 	c #536455",
"$2 	c #536556",
"%2 	c #566859",
"&2 	c #56695A",
"*2 	c #566A5A",
"=2 	c #556B5B",
"-2 	c #566B5C",
";2 	c #566C5C",
">2 	c #576C5D",
",2 	c #586D5E",
"'2 	c #586E5D",
")2 	c #596F5E",
"!2 	c #596F5F",
"~2 	c #5F7167",
"{2 	c #36383E",
"]2 	c #32333A",
"^2 	c #666260",
"/2 	c #AAA49E",
"(2 	c #A9A69E",
"_2 	c #627964",
":2 	c #607461",
"<2 	c #5F7260",
"[2 	c #617260",
"}2 	c #617160",
"|2 	c #627160",
"12 	c #637260",
"22 	c #737F6F",
"32 	c #707C6B",
"42 	c #717C6B",
"52 	c #707A6A",
"62 	c #6A7262",
"72 	c #686D66",
"82 	c #363B44",
"92 	c #252930",
"02 	c #262A31",
"a2 	c #272C33",
"b2 	c #524E4E",
"c2 	c #A39A93",
"d2 	c #7D7A7B",
"e2 	c #777772",
"f2 	c #666358",
"g2 	c #959188",
"h2 	c #656056",
"i2 	c #655E55",
"j2 	c #665D57",
"k2 	c #665B58",
"l2 	c #645957",
"m2 	c #635856",
"n2 	c #655C5C",
"o2 	c #575A65",
"p2 	c #3A3D45",
"q2 	c #3D3F47",
"r2 	c #8B8684",
"s2 	c #6F686B",
"t2 	c #837E84",
"u2 	c #5D565D",
"v2 	c #5B555C",
"w2 	c #595259",
"x2 	c #565057",
"y2 	c #524C52",
"z2 	c #4C474E",
"A2 	c #4B464D",
"B2 	c #49444C",
"C2 	c #48434B",
"D2 	c #47414B",
"E2 	c #47424D",
"F2 	c #45404C",
"G2 	c #423E4A",
"H2 	c #403C4A",
"I2 	c #3E3B49",
"J2 	c #3D3B48",
"K2 	c #3D3A47",
"L2 	c #3B3747",
"M2 	c #393646",
"N2 	c #363543",
"O2 	c #353444",
"P2 	c #333445",
"Q2 	c #313345",
"R2 	c #343648",
"S2 	c #2B2F42",
"T2 	c #2B2E42",
"U2 	c #2A2D41",
"V2 	c #272C3F",
"W2 	c #282E41",
"X2 	c #252B41",
"Y2 	c #222840",
"Z2 	c #1F263E",
"`2 	c #1C263B",
" 3 	c #1B253E",
".3 	c #18243F",
"+3 	c #14233B",
"@3 	c #12223B",
"#3 	c #0B1E37",
"$3 	c #0B1F38",
"%3 	c #16323A",
"&3 	c #1B343A",
"*3 	c #20373C",
"=3 	c #283E41",
"-3 	c #2D4143",
";3 	c #304344",
">3 	c #3B4C48",
",3 	c #3F504B",
"'3 	c #41524C",
")3 	c #43544D",
"!3 	c #46574F",
"~3 	c #4B5C52",
"{3 	c #4B5C51",
"]3 	c #7C8A82",
"^3 	c #495B50",
"/3 	c #4E5F54",
"(3 	c #506255",
"_3 	c #506354",
":3 	c #506455",
"<3 	c #506657",
"[3 	c #516758",
"}3 	c #526859",
"|3 	c #526A5B",
"13 	c #536B5C",
"23 	c #546C5D",
"33 	c #556D5E",
"43 	c #566D5F",
"53 	c #546D5E",
"63 	c #556F5F",
"73 	c #556F60",
"83 	c #5B7062",
"93 	c #4A5251",
"03 	c #34353C",
"a3 	c #656060",
"b3 	c #868D82",
"c3 	c #58715E",
"d3 	c #586F5D",
"e3 	c #5A705F",
"f3 	c #5B705F",
"g3 	c #5B6F5E",
"h3 	c #5C6F5E",
"i3 	c #5C6E5D",
"j3 	c #637364",
"k3 	c #6E7B6C",
"l3 	c #697969",
"m3 	c #677566",
"n3 	c #626E5F",
"o3 	c #636D60",
"p3 	c #555B57",
"q3 	c #272B32",
"r3 	c #2A2E35",
"s3 	c #2D3139",
"t3 	c #2C2F36",
"u3 	c #827F7B",
"v3 	c #696B61",
"w3 	c #606258",
"x3 	c #5E5F56",
"y3 	c #5F6058",
"z3 	c #5F5E56",
"A3 	c #5E5D55",
"B3 	c #5F5C55",
"C3 	c #5F5A57",
"D3 	c #635C5A",
"E3 	c #5C5653",
"F3 	c #5C5454",
"G3 	c #5D5656",
"H3 	c #605B5C",
"I3 	c #5B5A5E",
"J3 	c #515156",
"K3 	c #5D5B5E",
"L3 	c #5C5A5E",
"M3 	c #626065",
"N3 	c #55545A",
"O3 	c #545258",
"P3 	c #535258",
"Q3 	c #504E54",
"R3 	c #4B4A50",
"S3 	c #48464D",
"T3 	c #49474F",
"U3 	c #5B595F",
"V3 	c #4E4C54",
"W3 	c #423F4A",
"X3 	c #423F4C",
"Y3 	c #413E4B",
"Z3 	c #3E3D4A",
"`3 	c #3D3C4A",
" 4 	c #3B3B4A",
".4 	c #3A3B49",
"+4 	c #3A3847",
"@4 	c #383647",
"#4 	c #353545",
"$4 	c #333443",
"%4 	c #313244",
"&4 	c #303245",
"*4 	c #2E3144",
"=4 	c #2C3044",
"-4 	c #2A2F43",
";4 	c #272C41",
">4 	c #242A3F",
",4 	c #262C3F",
"'4 	c #232A3F",
")4 	c #20283F",
"!4 	c #202841",
"~4 	c #1F2840",
"{4 	c #1A253A",
"]4 	c #18243D",
"^4 	c #16233E",
"/4 	c #13223A",
"(4 	c #0E2039",
"_4 	c #0C1F38",
":4 	c #0A1E37",
"<4 	c #0A2934",
"[4 	c #102E38",
"}4 	c #1A3339",
"|4 	c #1F373C",
"14 	c #2C4143",
"24 	c #364946",
"34 	c #384B48",
"44 	c #3A4D49",
"54 	c #3D504B",
"64 	c #3F534D",
"74 	c #41554E",
"84 	c #4E6158",
"94 	c #485B51",
"04 	c #44584E",
"a4 	c #475C51",
"b4 	c #4B6155",
"c4 	c #4B6054",
"d4 	c #4C6155",
"e4 	c #4D6256",
"f4 	c #4E6458",
"g4 	c #4E6559",
"h4 	c #4F665A",
"i4 	c #4E675A",
"j4 	c #4E685B",
"k4 	c #4F695C",
"l4 	c #4F6A5C",
"m4 	c #506A5D",
"n4 	c #4F6B5C",
"o4 	c #506C5D",
"p4 	c #516D5E",
"q4 	c #506E5D",
"r4 	c #5D7566",
"s4 	c #5C7666",
"t4 	c #52705F",
"u4 	c #53705F",
"v4 	c #546F5F",
"w4 	c #566F5F",
"x4 	c #576E5F",
"y4 	c #586F60",
"z4 	c #545B5E",
"A4 	c #96928E",
"B4 	c #6B796D",
"C4 	c #5B6D60",
"D4 	c #58695C",
"E4 	c #59685C",
"F4 	c #5B685C",
"G4 	c #88918A",
"H4 	c #666E67",
"I4 	c #646A64",
"J4 	c #60685F",
"K4 	c #5F685E",
"L4 	c #656D64",
"M4 	c #5B6158",
"N4 	c #61645F",
"O4 	c #5C5F5A",
"P4 	c #5B5D58",
"Q4 	c #5A5B57",
"R4 	c #5A5956",
"S4 	c #5A5A59",
"T4 	c #636360",
"U4 	c #787876",
"V4 	c #595756",
"W4 	c #555354",
"X4 	c #545354",
"Y4 	c #515052",
"Z4 	c #59585C",
"`4 	c #535358",
" 5 	c #535259",
".5 	c #51525A",
"+5 	c #505159",
"@5 	c #4C4D55",
"#5 	c #494A52",
"$5 	c #474850",
"%5 	c #45464E",
"&5 	c #4F4F58",
"*5 	c #4E4F56",
"=5 	c #5A585E",
"-5 	c #3E3E4B",
";5 	c #3E3D4B",
">5 	c #3C3C4A",
",5 	c #393947",
"'5 	c #393A49",
")5 	c #383A49",
"!5 	c #353746",
"~5 	c #363747",
"{5 	c #343547",
"]5 	c #323445",
"^5 	c #303343",
"/5 	c #2E3244",
"(5 	c #2D3145",
"_5 	c #2B3045",
":5 	c #2A2F44",
"<5 	c #272D41",
"[5 	c #252B40",
"}5 	c #242B3F",
"|5 	c #232B40",
"15 	c #212A40",
"25 	c #1E273F",
"35 	c #1C2841",
"45 	c #222D47",
"55 	c #1A253C",
"65 	c #15223C",
"75 	c #0D2039",
"85 	c #0C2039",
"95 	c #091E37",
"05 	c #0B2934",
"a5 	c #102C37",
"b5 	c #153139",
"c5 	c #193339",
"d5 	c #1E373B",
"e5 	c #253C41",
"f5 	c #6D8083",
"g5 	c #273E41",
"h5 	c #2D4242",
"i5 	c #344845",
"j5 	c #364A48",
"k5 	c #384C49",
"l5 	c #3A4F4A",
"m5 	c #60726D",
"n5 	c #495D56",
"o5 	c #41564F",
"p5 	c #58605F",
"q5 	c #85948D",
"r5 	c #475E53",
"s5 	c #445D51",
"t5 	c #465E53",
"u5 	c #485F55",
"v5 	c #496056",
"w5 	c #496257",
"x5 	c #496358",
"y5 	c #4A6459",
"z5 	c #4A6557",
"A5 	c #4A6658",
"B5 	c #4B6759",
"C5 	c #4A695A",
"D5 	c #4B695B",
"E5 	c #4A6A5B",
"F5 	c #4B6B5B",
"G5 	c #4C6C5C",
"H5 	c #4C6C5D",
"I5 	c #4D6C5D",
"J5 	c #4E6D5E",
"K5 	c #506D5F",
"L5 	c #506C5E",
"M5 	c #506B5D",
"N5 	c #516B5D",
"O5 	c #516A5D",
"P5 	c #5B6E64",
"Q5 	c #373D40",
"R5 	c #636263",
"S5 	c #77817A",
"T5 	c #54685D",
"U5 	c #56675D",
"V5 	c #55665C",
"W5 	c #54655A",
"X5 	c #6B7970",
"Y5 	c #5B685E",
"Z5 	c #566159",
"`5 	c #546158",
" 6 	c #66736C",
".6 	c #7E8883",
"+6 	c #555F5A",
"@6 	c #545758",
"#6 	c #757573",
"$6 	c #555857",
"%6 	c #555856",
"&6 	c #555755",
"*6 	c #535655",
"=6 	c #515554",
"-6 	c #505354",
";6 	c #515254",
">6 	c #505154",
",6 	c #4F4F53",
"'6 	c #4D4E52",
")6 	c #4C4D52",
"!6 	c #53535A",
"~6 	c #4D4D57",
"{6 	c #4A4D56",
"]6 	c #494C55",
"^6 	c #474A53",
"/6 	c #454851",
"(6 	c #42454E",
"_6 	c #40434E",
":6 	c #3E414C",
"<6 	c #4C4D56",
"[6 	c #3C3E4B",
"}6 	c #3B3D4A",
"|6 	c #3A3C4A",
"16 	c #373C4A",
"26 	c #383C4B",
"36 	c #343848",
"46 	c #323647",
"56 	c #333749",
"66 	c #2F3448",
"76 	c #2E3347",
"86 	c #2D3246",
"96 	c #2C3145",
"06 	c #2B3044",
"a6 	c #292F43",
"b6 	c #272E42",
"c6 	c #252C3F",
"d6 	c #232B3E",
"e6 	c #222A3E",
"f6 	c #212940",
"g6 	c #1E2940",
"h6 	c #1B2740",
"i6 	c #192842",
"j6 	c #23324B",
"k6 	c #16243D",
"l6 	c #17243F",
"m6 	c #14223B",
"n6 	c #11223A",
"o6 	c #0E203B",
"p6 	c #0C203A",
"q6 	c #091D38",
"r6 	c #0A2833",
"s6 	c #0F2C37",
"t6 	c #143038",
"u6 	c #193338",
"v6 	c #1C353A",
"w6 	c #223B3F",
"x6 	c #3B5054",
"y6 	c #2C4141",
"z6 	c #2F4442",
"A6 	c #334745",
"B6 	c #344846",
"C6 	c #384D49",
"D6 	c #425652",
"E6 	c #3D524D",
"F6 	c #3E554E",
"G6 	c #4F5E5B",
"H6 	c #50615B",
"I6 	c #3F594F",
"J6 	c #445E53",
"K6 	c #425B52",
"L6 	c #435D54",
"M6 	c #445E55",
"N6 	c #456056",
"O6 	c #456157",
"P6 	c #456257",
"Q6 	c #446357",
"R6 	c #456458",
"S6 	c #456559",
"T6 	c #45665A",
"U6 	c #46675B",
"V6 	c #45685A",
"W6 	c #46695B",
"X6 	c #476A5C",
"Y6 	c #486B5D",
"Z6 	c #496B5D",
"`6 	c #4A6A5D",
" 7 	c #4A695C",
".7 	c #4B695C",
"+7 	c #4C695D",
"@7 	c #4D685D",
"#7 	c #556B61",
"$7 	c #607069",
"%7 	c #50685E",
"&7 	c #4F655B",
"*7 	c #52655D",
"=7 	c #56675F",
"-7 	c #50625A",
";7 	c #52635B",
">7 	c #55655D",
",7 	c #586963",
"'7 	c #71837E",
")7 	c #A1B2AE",
"!7 	c #B2C2BF",
"~7 	c #788785",
"{7 	c #606768",
"]7 	c #636767",
"^7 	c #505758",
"/7 	c #4F5657",
"(7 	c #5A5E60",
"_7 	c #505556",
":7 	c #4C5254",
"<7 	c #4A5053",
"[7 	c #4A4F53",
"}7 	c #4A4D53",
"|7 	c #484C51",
"17 	c #474C51",
"27 	c #474B50",
"37 	c #464A51",
"47 	c #464A53",
"57 	c #464A54",
"67 	c #444954",
"77 	c #424752",
"87 	c #404550",
"97 	c #3E424D",
"07 	c #3D414C",
"a7 	c #3B414C",
"b7 	c #39404B",
"c7 	c #383E4B",
"d7 	c #363C49",
"e7 	c #353B49",
"f7 	c #333949",
"g7 	c #464D5C",
"h7 	c #343B4D",
"i7 	c #3F4658",
"j7 	c #31384B",
"k7 	c #2D3448",
"l7 	c #2C3346",
"m7 	c #2B3245",
"n7 	c #2A3245",
"o7 	c #293043",
"p7 	c #282F42",
"q7 	c #272E40",
"r7 	c #262D40",
"s7 	c #252D40",
"t7 	c #222C3F",
"u7 	c #202C3E",
"v7 	c #1F2B3E",
"w7 	c #1E293F",
"x7 	c #1D2940",
"y7 	c #1A2740",
"z7 	c #17253F",
"A7 	c #16253E",
"B7 	c #152540",
"C7 	c #26354F",
"D7 	c #10213C",
"E7 	c #12253F",
"F7 	c #1E334F",
"G7 	c #0A203B",
"H7 	c #081E37",
"I7 	c #071C36",
"J7 	c #0F2C36",
"K7 	c #193238",
"L7 	c #20393D",
"M7 	c #233B40",
"N7 	c #263E41",
"O7 	c #294041",
"P7 	c #506363",
"Q7 	c #5E6F6F",
"R7 	c #324745",
"S7 	c #354A48",
"T7 	c #374C4A",
"U7 	c #374D49",
"V7 	c #3B524C",
"W7 	c #3A524E",
"X7 	c #3D5650",
"Y7 	c #3D5850",
"Z7 	c #3E5B51",
"`7 	c #405B53",
" 8 	c #3F5C54",
".8 	c #405D55",
"+8 	c #415F56",
"@8 	c #416057",
"#8 	c #426158",
"$8 	c #436259",
"%8 	c #426259",
"&8 	c #42635A",
"*8 	c #43655B",
"=8 	c #42675B",
"-8 	c #566C65",
";8 	c #797D7A",
">8 	c #587268",
",8 	c #4E6C62",
"'8 	c #43685C",
")8 	c #43695D",
"!8 	c #45695E",
"~8 	c #46695D",
"{8 	c #46685D",
"]8 	c #46675C",
"^8 	c #46665C",
"/8 	c #47665C",
"(8 	c #4E6961",
"_8 	c #48655C",
":8 	c #48645B",
"<8 	c #49635B",
"[8 	c #49645C",
"}8 	c #4A645C",
"|8 	c #50645E",
"18 	c #576561",
"28 	c #4A615A",
"38 	c #495E57",
"48 	c #5A6662",
"58 	c #4B605C",
"68 	c #546A65",
"78 	c #7C918E",
"88 	c #9CAFAD",
"98 	c #546765",
"08 	c #4D5B5B",
"a8 	c #4A5757",
"b8 	c #495556",
"c8 	c #495555",
"d8 	c #56585B",
"e8 	c #5E6364",
"f8 	c #475253",
"g8 	c #465052",
"h8 	c #454E51",
"i8 	c #454C51",
"j8 	c #54585D",
"k8 	c #585D62",
"l8 	c #414A50",
"m8 	c #404850",
"n8 	c #3F4750",
"o8 	c #3E464F",
"p8 	c #3D4450",
"q8 	c #39404C",
"r8 	c #383F4B",
"s8 	c #363F4A",
"t8 	c #36404B",
"u8 	c #343D49",
"v8 	c #333C4A",
"w8 	c #323A49",
"x8 	c #313949",
"y8 	c #323B4B",
"z8 	c #2D3648",
"A8 	c #2C3446",
"B8 	c #2C3448",
"C8 	c #2A3246",
"D8 	c #293245",
"E8 	c #283244",
"F8 	c #273143",
"G8 	c #252F42",
"H8 	c #242E41",
"I8 	c #232D40",
"J8 	c #232D41",
"K8 	c #212C41",
"L8 	c #202C42",
"M8 	c #1D2B41",
"N8 	c #1D2A41",
"O8 	c #1C2840",
"P8 	c #1A283F",
"Q8 	c #1E2C43",
"R8 	c #182640",
"S8 	c #18273F",
"T8 	c #13233E",
"U8 	c #13233F",
"V8 	c #0E223B",
"W8 	c #081F3B",
"X8 	c #0A203D",
"Y8 	c #081D38",
"Z8 	c #071C37",
"`8 	c #0B2833",
" 9 	c #0E2B36",
".9 	c #132F37",
"+9 	c #183137",
"@9 	c #1F383C",
"#9 	c #223A3E",
"$9 	c #253D41",
"%9 	c #334A4B",
"&9 	c #3D5151",
"*9 	c #304644",
"=9 	c #324846",
"-9 	c #344A48",
";9 	c #364C49",
">9 	c #374E4A",
",9 	c #38514D",
"'9 	c #3F5955",
")9 	c #395650",
"!9 	c #3A5750",
"~9 	c #3B5951",
"{9 	c #3B5953",
"]9 	c #3C5A54",
"^9 	c #3C5B55",
"/9 	c #3C5C55",
"(9 	c #3C5D56",
"_9 	c #3C5E57",
":9 	c #3E5E58",
"<9 	c #3E6059",
"[9 	c #3D615A",
"}9 	c #3E625B",
"|9 	c #3C645A",
"19 	c #4C6660",
"29 	c #4E4E52",
"39 	c #8F8C8A",
"49 	c #879088",
"59 	c #476A60",
"69 	c #3E665C",
"79 	c #3F675D",
"89 	c #3E675C",
"99 	c #3F675C",
"09 	c #40665C",
"a9 	c #41675D",
"b9 	c #41665D",
"c9 	c #44685F",
"d9 	c #476A61",
"e9 	c #44635C",
"f9 	c #43635B",
"g9 	c #43625B",
"h9 	c #44625B",
"i9 	c #45615A",
"j9 	c #44605A",
"k9 	c #445F59",
"l9 	c #455E59",
"m9 	c #465E5A",
"n9 	c #475E5B",
"o9 	c #6A807D",
"p9 	c #4E6663",
"q9 	c #647A7A",
"r9 	c #425858",
"s9 	c #465958",
"t9 	c #576867",
"u9 	c #435353",
"v9 	c #4F5B5C",
"w9 	c #465355",
"x9 	c #425152",
"y9 	c #414E52",
"z9 	c #404C51",
"A9 	c #404B51",
"B9 	c #3F4951",
"C9 	c #3E4952",
"D9 	c #39444D",
"E9 	c #3A454D",
"F9 	c #38434F",
"G9 	c #37424E",
"H9 	c #36414D",
"I9 	c #35404C",
"J9 	c #343F4B",
"K9 	c #4C525B",
"L9 	c #464E57",
"M9 	c #2F3B49",
"N9 	c #2E3A49",
"O9 	c #2D3949",
"P9 	c #2C3847",
"Q9 	c #2C3745",
"R9 	c #2B3645",
"S9 	c #2A3445",
"T9 	c #293344",
"U9 	c #253245",
"V9 	c #243144",
"W9 	c #233043",
"X9 	c #222F42",
"Y9 	c #212E42",
"Z9 	c #1D2A40",
"`9 	c #27354A",
" 0 	c #1B2A43",
".0 	c #2E3C54",
"+0 	c #2F394C",
"@0 	c #3A4250",
"#0 	c #17273E",
"$0 	c #19283F",
"%0 	c #15243B",
"&0 	c #15243D",
"*0 	c #11213B",
"=0 	c #0D2139",
"-0 	c #091F3A",
";0 	c #071F3B",
">0 	c #061E38",
",0 	c #041C36",
"'0 	c #0A2733",
")0 	c #0D2A35",
"!0 	c #122E36",
"~0 	c #173137",
"{0 	c #1B3439",
"]0 	c #1F373B",
"^0 	c #213A3E",
"/0 	c #233C40",
"(0 	c #274043",
"_0 	c #284143",
":0 	c #2C4445",
"<0 	c #2F4543",
"[0 	c #334947",
"}0 	c #344B48",
"|0 	c #364D4A",
"10 	c #3D5653",
"20 	c #34504C",
"30 	c #37544F",
"40 	c #375550",
"50 	c #395751",
"60 	c #385851",
"70 	c #375852",
"80 	c #385952",
"90 	c #375A53",
"00 	c #375B53",
"a0 	c #385C55",
"b0 	c #395E57",
"c0 	c #3A5F58",
"d0 	c #3A6159",
"e0 	c #386159",
"f0 	c #376259",
"g0 	c #4E6461",
"h0 	c #393A41",
"i0 	c #706E6D",
"j0 	c #90928B",
"k0 	c #40675E",
"l0 	c #3A645B",
"m0 	c #3B655C",
"n0 	c #3E655D",
"o0 	c #3A635B",
"p0 	c #547770",
"q0 	c #40665E",
"r0 	c #476A63",
"s0 	c #3F625B",
"t0 	c #3F605B",
"u0 	c #3F605A",
"v0 	c #405F5A",
"w0 	c #46635E",
"x0 	c #405E59",
"y0 	c #3F5D58",
"z0 	c #3E5C57",
"A0 	c #3F5B57",
"B0 	c #415A57",
"C0 	c #425855",
"D0 	c #425B58",
"E0 	c #435C59",
"F0 	c #475E5E",
"G0 	c #405556",
"H0 	c #3F5456",
"I0 	c #5A6B6E",
"J0 	c #415356",
"K0 	c #3E5053",
"L0 	c #3D4F52",
"M0 	c #3D4E53",
"N0 	c #3D4D54",
"O0 	c #435258",
"P0 	c #3B4951",
"Q0 	c #3A4750",
"R0 	c #394750",
"S0 	c #37454E",
"T0 	c #37454D",
"U0 	c #36444C",
"V0 	c #35434B",
"W0 	c #34414E",
"X0 	c #33404D",
"Y0 	c #333F4C",
"Z0 	c #424B56",
"`0 	c #414952",
" a 	c #45484F",
".a 	c #8D8B8C",
"+a 	c #8F8D8D",
"@a 	c #464C56",
"#a 	c #2C3849",
"$a 	c #2A3748",
"%a 	c #273645",
"&a 	c #263545",
"*a 	c #253445",
"=a 	c #243345",
"-a 	c #233145",
";a 	c #223044",
">a 	c #212F43",
",a 	c #1F2E41",
"'a 	c #1F2D40",
")a 	c #1D2C3F",
"!a 	c #1D2C40",
"~a 	c #2B3A4E",
"{a 	c #192A41",
"]a 	c #1A2A43",
"^a 	c #253145",
"/a 	c #2F3849",
"(a 	c #15253D",
"_a 	c #13233A",
":a 	c #11223B",
"<a 	c #10203A",
"[a 	c #0B2038",
"}a 	c #081F3A",
"|a 	c #061E3B",
"1a 	c #051D38",
"2a 	c #041C37",
"3a 	c #0E2A36",
"4a 	c #112D37",
"5a 	c #163138",
"6a 	c #19333A",
"7a 	c #1C383C",
"8a 	c #263E42",
"9a 	c #274042",
"0a 	c #2B4344",
"aa 	c #2D4546",
"ba 	c #2F4949",
"ca 	c #334C4C",
"da 	c #314C4B",
"ea 	c #3C5653",
"fa 	c #324F4B",
"ga 	c #34514E",
"ha 	c #35534F",
"ia 	c #355450",
"ja 	c #345651",
"ka 	c #3D5B56",
"la 	c #555F60",
"ma 	c #94928E",
"na 	c #546963",
"oa 	c #335B54",
"pa 	c #345C55",
"qa 	c #345D56",
"ra 	c #355E57",
"sa 	c #355F58",
"ta 	c #366158",
"ua 	c #36615A",
"va 	c #45645F",
"wa 	c #4A5356",
"xa 	c #404348",
"ya 	c #6E7773",
"za 	c #37635C",
"Aa 	c #37625B",
"Ba 	c #506764",
"Ca 	c #81817E",
"Da 	c #A59E99",
"Ea 	c #888E88",
"Fa 	c #607C76",
"Ga 	c #3C645E",
"Ha 	c #38615B",
"Ia 	c #39615C",
"Ja 	c #3A615C",
"Ka 	c #3A605B",
"La 	c #41625F",
"Ma 	c #43625F",
"Na 	c #3B5D58",
"Oa 	c #3C5C57",
"Pa 	c #3B5B56",
"Qa 	c #3B5A55",
"Ra 	c #3B5955",
"Sa 	c #3C5856",
"Ta 	c #3B5755",
"Ua 	c #3B5554",
"Va 	c #465B5B",
"Wa 	c #4C5D5D",
"Xa 	c #3B5156",
"Ya 	c #3B5055",
"Za 	c #3A4F54",
"`a 	c #3A4D53",
" b 	c #394D52",
".b 	c #384C52",
"+b 	c #374B51",
"@b 	c #364950",
"#b 	c #86979F",
"$b 	c #33464F",
"%b 	c #34454E",
"&b 	c #334450",
"*b 	c #33444F",
"=b 	c #31424C",
"-b 	c #30414E",
";b 	c #324150",
">b 	c #46505A",
",b 	c #474D56",
"'b 	c #383D46",
")b 	c #32373F",
"!b 	c #605C5D",
"~b 	c #9C9590",
"{b 	c #B2ADA9",
"]b 	c #404956",
"^b 	c #233547",
"/b 	c #233445",
"(b 	c #223344",
"_b 	c #213243",
":b 	c #203045",
"<b 	c #213147",
"[b 	c #1E2E44",
"}b 	c #1D2D43",
"|b 	c #1C2C42",
"1b 	c #1C2A43",
"2b 	c #1B2942",
"3b 	c #17283C",
"4b 	c #203148",
"5b 	c #5B6B81",
"6b 	c #15253F",
"7b 	c #14243E",
"8b 	c #13243E",
"9b 	c #13233D",
"0b 	c #0F223D",
"ab 	c #0D213C",
"bb 	c #0C203C",
"cb 	c #0B1F3C",
"db 	c #0A1F3C",
"eb 	c #0A1F3E",
"fb 	c #112643",
"gb 	c #051C37",
"hb 	c #0A2632",
"ib 	c #0F2B36",
"jb 	c #153038",
"kb 	c #173239",
"lb 	c #1A363B",
"mb 	c #1C393D",
"nb 	c #1F3B3F",
"ob 	c #344C4F",
"pb 	c #294245",
"qb 	c #284144",
"rb 	c #294244",
"sb 	c #2B4446",
"tb 	c #2F494A",
"ub 	c #2C4748",
"vb 	c #314C4D",
"wb 	c #314E4C",
"xb 	c #304D4B",
"yb 	c #314F4D",
"zb 	c #32514F",
"Ab 	c #335250",
"Bb 	c #2F524E",
"Cb 	c #5B6B6D",
"Db 	c #6C6869",
"Eb 	c #8A8A85",
"Fb 	c #6B7773",
"Gb 	c #325B55",
"Hb 	c #315A54",
"Ib 	c #325C55",
"Jb 	c #325D56",
"Kb 	c #315D56",
"Lb 	c #325E57",
"Mb 	c #335F59",
"Nb 	c #325F59",
"Ob 	c #39625C",
"Pb 	c #33605A",
"Qb 	c #34615B",
"Rb 	c #38645F",
"Sb 	c #57716F",
"Tb 	c #4C4C51",
"Ub 	c #ADA59E",
"Vb 	c #B1AAA4",
"Wb 	c #A29F99",
"Xb 	c #516D68",
"Yb 	c #37615C",
"Zb 	c #38615D",
"`b 	c #345E59",
" c 	c #4A6764",
".c 	c #416360",
"+c 	c #496662",
"@c 	c #365C58",
"#c 	c #375B57",
"$c 	c #385B56",
"%c 	c #385A55",
"&c 	c #385854",
"*c 	c #385754",
"=c 	c #385655",
"-c 	c #375554",
";c 	c #385354",
">c 	c #4E595B",
",c 	c #6D6F71",
"'c 	c #385055",
")c 	c #384F54",
"!c 	c #384E53",
"~c 	c #4C5A5F",
"{c 	c #384B52",
"]c 	c #364B50",
"^c 	c #354950",
"/c 	c #34474E",
"(c 	c #374A52",
"_c 	c #32454E",
":c 	c #31434F",
"<c 	c #2F414D",
"[c 	c #3E4C56",
"}c 	c #4D5762",
"|c 	c #414852",
"1c 	c #333841",
"2c 	c #32373E",
"3c 	c #3A4048",
"4c 	c #32353B",
"5c 	c #5F5C5A",
"6c 	c #787170",
"7c 	c #AEA7A2",
"8c 	c #BDB9B6",
"9c 	c #293849",
"0c 	c #233446",
"ac 	c #223345",
"bc 	c #213244",
"cc 	c #1E2F42",
"dc 	c #364358",
"ec 	c #1F2E45",
"fc 	c #1D2D44",
"gc 	c #1C2C43",
"hc 	c #1B2B42",
"ic 	c #1A2942",
"jc 	c #1A2A40",
"kc 	c #445269",
"lc 	c #162741",
"mc 	c #14253F",
"nc 	c #12233D",
"oc 	c #0E213C",
"pc 	c #0B203B",
"qc 	c #081E3B",
"rc 	c #081F3D",
"sc 	c #081E3C",
"tc 	c #0C2834",
"uc 	c #0D2935",
"vc 	c #3E5559",
"wc 	c #576B6D",
"xc 	c #1E3C40",
"yc 	c #354E51",
"zc 	c #284345",
"Ac 	c #254044",
"Bc 	c #264144",
"Cc 	c #274346",
"Dc 	c #485F62",
"Ec 	c #2E4A4C",
"Fc 	c #3E595B",
"Gc 	c #2C4B4A",
"Hc 	c #2B4C4B",
"Ic 	c #2E4F4E",
"Jc 	c #2D4F4E",
"Kc 	c #2F5250",
"Lc 	c #2D5350",
"Mc 	c #4E5A5F",
"Nc 	c #514F50",
"Oc 	c #97948E",
"Pc 	c #878A85",
"Qc 	c #506662",
"Rc 	c #2E5954",
"Sc 	c #2E5A55",
"Tc 	c #2D5B55",
"Uc 	c #2F5C57",
"Vc 	c #2D5D57",
"Wc 	c #2E5D58",
"Xc 	c #2E5E58",
"Yc 	c #2F5E59",
"Zc 	c #2F5F5A",
"`c 	c #34615C",
" d 	c #525F62",
".d 	c #3A3B41",
"+d 	c #7E7672",
"@d 	c #AAA19B",
"#d 	c #A19D98",
"$d 	c #526E69",
"%d 	c #315E5A",
"&d 	c #456E6A",
"*d 	c #505D5D",
"=d 	c #536463",
"-d 	c #325C58",
";d 	c #355D59",
">d 	c #335957",
",d 	c #3A5C5A",
"'d 	c #516766",
")d 	c #375857",
"!d 	c #335655",
"~d 	c #475F5F",
"{d 	c #345456",
"]d 	c #335355",
"^d 	c #335254",
"/d 	c #46595B",
"(d 	c #47595C",
"_d 	c #354F54",
":d 	c #344D53",
"<d 	c #344B52",
"[d 	c #324A50",
"}d 	c #32484F",
"|d 	c #32474E",
"1d 	c #31464D",
"2d 	c #31454F",
"3d 	c #30454F",
"4d 	c #48535B",
"5d 	c #4B565D",
"6d 	c #2D414F",
"7d 	c #364753",
"8d 	c #474E57",
"9d 	c #2A2E37",
"0d 	c #2D313A",
"ad 	c #353B44",
"bd 	c #363C44",
"cd 	c #2C3037",
"dd 	c #43444A",
"ed 	c #4A4748",
"fd 	c #6F6866",
"gd 	c #615D5D",
"hd 	c #78716F",
"id 	c #CBC5BF",
"jd 	c #A3A09D",
"kd 	c #203347",
"ld 	c #1F3246",
"md 	c #1F3145",
"nd 	c #1E3144",
"od 	c #1F2F46",
"pd 	c #1E2E45",
"qd 	c #1B2C43",
"rd 	c #1A2B42",
"sd 	c #1A2A42",
"td 	c #192942",
"ud 	c #172941",
"vd 	c #182A42",
"wd 	c #172A43",
"xd 	c #11223C",
"yd 	c #0C203B",
"zd 	c #0A1F3B",
"Ad 	c #061E3A",
"Bd 	c #061D3A",
"Cd 	c #051D39",
"Dd 	c #041C38",
"Ed 	c #0B2733",
"Fd 	c #0E2A35",
"Gd 	c #112C37",
"Hd 	c #153037",
"Id 	c #253F44",
"Jd 	c #385155",
"Kd 	c #1B393E",
"Ld 	c #1F3C40",
"Md 	c #213E41",
"Nd 	c #233F42",
"Od 	c #254244",
"Pd 	c #264346",
"Qd 	c #284648",
"Rd 	c #284649",
"Sd 	c #3D595B",
"Td 	c #274949",
"Ud 	c #274A4A",
"Vd 	c #4C6A69",
"Wd 	c #3C5E5C",
"Xd 	c #294F4E",
"Yd 	c #2A5150",
"Zd 	c #3F5B5A",
"`d 	c #3F444B",
" e 	c #6D6967",
".e 	c #A9A49D",
"+e 	c #677570",
"@e 	c #2A5754",
"#e 	c #2A5955",
"$e 	c #2A5B56",
"%e 	c #295A56",
"&e 	c #275A54",
"*e 	c #295B57",
"=e 	c #295B58",
"-e 	c #2A5B58",
";e 	c #2B5C59",
">e 	c #2A5C59",
",e 	c #506364",
"'e 	c #3F4046",
")e 	c #3E3D42",
"!e 	c #7C7571",
"~e 	c #A19992",
"{e 	c #607470",
"]e 	c #2D5D5A",
"^e 	c #315E5B",
"/e 	c #305E5B",
"(e 	c #2F5C5A",
"_e 	c #2E5C59",
":e 	c #355E5C",
"<e 	c #385D5C",
"[e 	c #3A5D5C",
"}e 	c #425F5F",
"|e 	c #375959",
"1e 	c #305556",
"2e 	c #325556",
"3e 	c #2E5354",
"4e 	c #305256",
"5e 	c #2F5155",
"6e 	c #2F5054",
"7e 	c #2F4F53",
"8e 	c #2F4E52",
"9e 	c #314E54",
"0e 	c #3A565C",
"ae 	c #2D494F",
"be 	c #48575C",
"ce 	c #2D484F",
"de 	c #2D474F",
"ee 	c #2D464F",
"fe 	c #2B454F",
"ge 	c #2D4550",
"he 	c #2A434F",
"ie 	c #2E4450",
"je 	c #29404C",
"ke 	c #4D616E",
"le 	c #4B5762",
"me 	c #3C434D",
"ne 	c #363D46",
"oe 	c #323841",
"pe 	c #333A43",
"qe 	c #696869",
"re 	c #A29B95",
"se 	c #ADA49E",
"te 	c #8A817E",
"ue 	c #7A7471",
"ve 	c #ACA49D",
"we 	c #DED8D1",
"xe 	c #A2A09E",
"ye 	c #1C3145",
"ze 	c #1B3045",
"Ae 	c #22374B",
"Be 	c #1B3044",
"Ce 	c #1B2D45",
"De 	c #1A2C44",
"Ee 	c #192B43",
"Fe 	c #152841",
"Ge 	c #253751",
"He 	c #172A44",
"Ie 	c #14263F",
"Je 	c #12253E",
"Ke 	c #11243D",
"Le 	c #10233C",
"Me 	c #0F223B",
"Ne 	c #0E213B",
"Oe 	c #0C213C",
"Pe 	c #031B37",
"Qe 	c #0D2934",
"Re 	c #102B36",
"Se 	c #142F36",
"Te 	c #143036",
"Ue 	c #385257",
"Ve 	c #233E44",
"We 	c #1E3B3F",
"Xe 	c #213D41",
"Ye 	c #223E42",
"Ze 	c #224042",
"`e 	c #234244",
" f 	c #264547",
".f 	c #264648",
"+f 	c #254748",
"@f 	c #264A4A",
"#f 	c #254B4A",
"$f 	c #385A59",
"%f 	c #305655",
"&f 	c #254D4D",
"*f 	c #264F4E",
"=f 	c #24514E",
"-f 	c #415A5A",
";f 	c #4E5152",
">f 	c #6F7473",
",f 	c #456360",
"'f 	c #265753",
")f 	c #265854",
"!f 	c #265954",
"~f 	c #275A55",
"{f 	c #275B56",
"]f 	c #265956",
"^f 	c #275956",
"/f 	c #275A56",
"(f 	c #285B57",
"_f 	c #275B57",
":f 	c #325F5C",
"<f 	c #495557",
"[f 	c #3B3D42",
"}f 	c #343539",
"|f 	c #6B6E6C",
"1f 	c #35605C",
"2f 	c #2F5C59",
"3f 	c #2B5A58",
"4f 	c #295A57",
"5f 	c #41615F",
"6f 	c #406260",
"7f 	c #2F5A58",
"8f 	c #305758",
"9f 	c #466061",
"0f 	c #2A5355",
"af 	c #2B5456",
"bf 	c #2B5355",
"cf 	c #636C6D",
"df 	c #315256",
"ef 	c #2A4D52",
"ff 	c #41595C",
"gf 	c #586266",
"hf 	c #2A4B51",
"if 	c #2B4A52",
"jf 	c #2B4951",
"kf 	c #44555A",
"lf 	c #5B6062",
"mf 	c #2A464E",
"nf 	c #29454F",
"of 	c #3B5059",
"pf 	c #274350",
"qf 	c #425B68",
"rf 	c #25404F",
"sf 	c #25404E",
"tf 	c #26404D",
"uf 	c #263E4D",
"vf 	c #48555F",
"wf 	c #313841",
"xf 	c #363C45",
"yf 	c #373D48",
"zf 	c #363E47",
"Af 	c #353C45",
"Bf 	c #30363E",
"Cf 	c #4E4D50",
"Df 	c #98918D",
"Ef 	c #B8AFA9",
"Ff 	c #9C938E",
"Gf 	c #AFA7A1",
"Hf 	c #C1B9B4",
"If 	c #D5D0C9",
"Jf 	c #60646C",
"Kf 	c #1A3046",
"Lf 	c #1C3148",
"Mf 	c #1A3047",
"Nf 	c #182942",
"Of 	c #172B43",
"Pf 	c #142A42",
"Qf 	c #1C2F4C",
"Rf 	c #132541",
"Sf 	c #12243D",
"Tf 	c #10243D",
"Uf 	c #0F233C",
"Vf 	c #0D213A",
"Wf 	c #0A1F3A",
"Xf 	c #071F3A",
"Yf 	c #041E39",
"Zf 	c #041D37",
"`f 	c #122E37",
" g 	c #16343A",
".g 	c #153439",
"+g 	c #19373C",
"@g 	c #1B383E",
"#g 	c #1F3B40",
"$g 	c #2A454B",
"%g 	c #203E43",
"&g 	c #214143",
"*g 	c #224244",
"=g 	c #234547",
"-g 	c #224647",
";g 	c #234648",
">g 	c #224848",
",g 	c #214B49",
"'g 	c #224A4A",
")g 	c #244C4D",
"!g 	c #254F4F",
"~g 	c #244F4E",
"{g 	c #245150",
"]g 	c #23504F",
"^g 	c #23514F",
"/g 	c #245351",
"(g 	c #235452",
"_g 	c #215653",
":g 	c #235654",
"<g 	c #235754",
"[g 	c #225754",
"}g 	c #235957",
"|g 	c #225957",
"1g 	c #406361",
"2g 	c #416663",
"3g 	c #245958",
"4g 	c #245957",
"5g 	c #3F6E6D",
"6g 	c #245A59",
"7g 	c #245A58",
"8g 	c #2C5D5B",
"9g 	c #5B706D",
"0g 	c #315F5B",
"ag 	c #2E5D5A",
"bg 	c #496865",
"cg 	c #466361",
"dg 	c #4A5A5D",
"eg 	c #65686A",
"fg 	c #807D7C",
"gg 	c #7E7C79",
"hg 	c #657170",
"ig 	c #3D5D5F",
"jg 	c #405D60",
"kg 	c #2A5257",
"lg 	c #285055",
"mg 	c #325458",
"ng 	c #315257",
"og 	c #284E53",
"pg 	c #2B4D53",
"qg 	c #2F4F55",
"rg 	c #324F55",
"sg 	c #294A51",
"tg 	c #2A4A52",
"ug 	c #27474F",
"vg 	c #28464E",
"wg 	c #364D53",
"xg 	c #696968",
"yg 	c #918682",
"zg 	c #9C9591",
"Ag 	c #43525A",
"Bg 	c #2B4450",
"Cg 	c #23404D",
"Dg 	c #243F4D",
"Eg 	c #223D4B",
"Fg 	c #41505D",
"Gg 	c #394049",
"Hg 	c #3F4752",
"Ig 	c #39414C",
"Jg 	c #383E48",
"Kg 	c #585557",
"Lg 	c #736E6D",
"Mg 	c #9D9591",
"Ng 	c #BDB7B1",
"Og 	c #A59D98",
"Pg 	c #B0A9A2",
"Qg 	c #C3BCB6",
"Rg 	c #CAC2BB",
"Sg 	c #B4B1AC",
"Tg 	c #303E50",
"Ug 	c #192E45",
"Vg 	c #162C43",
"Wg 	c #152B42",
"Xg 	c #142941",
"Yg 	c #132942",
"Zg 	c #132840",
"`g 	c #122840",
" h 	c #24364F",
".h 	c #11253E",
"+h 	c #0F243E",
"@h 	c #0E233D",
"#h 	c #0A203C",
"$h 	c #09213C",
"%h 	c #051E3A",
"&h 	c #041D38",
"*h 	c #031C37",
"=h 	c #011B36",
"-h 	c #092531",
";h 	c #0C2833",
">h 	c #102D37",
",h 	c #133038",
"'h 	c #153338",
")h 	c #4F686C",
"!h 	c #1A373D",
"~h 	c #1C393F",
"{h 	c #213E44",
"]h 	c #1C3D43",
"^h 	c #1E4042",
"/h 	c #204142",
"(h 	c #224445",
"_h 	c #1F4546",
":h 	c #245151",
"<h 	c #224749",
"[h 	c #1F4847",
"}h 	c #1F4B49",
"|h 	c #204C4D",
"1h 	c #214C4D",
"2h 	c #3D5959",
"3h 	c #224E4E",
"4h 	c #224F4E",
"5h 	c #22504F",
"6h 	c #235150",
"7h 	c #225252",
"8h 	c #215553",
"9h 	c #225453",
"0h 	c #225654",
"ah 	c #205656",
"bh 	c #527070",
"ch 	c #605D5E",
"dh 	c #9E9790",
"eh 	c #486665",
"fh 	c #225858",
"gh 	c #215758",
"hh 	c #295D5D",
"ih 	c #215858",
"jh 	c #205757",
"kh 	c #215656",
"lh 	c #315A5B",
"mh 	c #455254",
"nh 	c #363940",
"oh 	c #575557",
"ph 	c #807A77",
"qh 	c #9B938E",
"rh 	c #A29F9A",
"sh 	c #5F6F70",
"th 	c #3C5A5F",
"uh 	c #275056",
"vh 	c #315358",
"wh 	c #274F54",
"xh 	c #395659",
"yh 	c #4E5E60",
"zh 	c #244950",
"Ah 	c #234851",
"Bh 	c #3B535A",
"Ch 	c #254751",
"Dh 	c #344D55",
"Eh 	c #676362",
"Fh 	c #6E605D",
"Gh 	c #655553",
"Hh 	c #8E817A",
"Ih 	c #ACA49E",
"Jh 	c #656B6D",
"Kh 	c #25404D",
"Lh 	c #203D4B",
"Mh 	c #203C4B",
"Nh 	c #48545F",
"Oh 	c #3E454F",
"Ph 	c #373E48",
"Qh 	c #2F363F",
"Rh 	c #746F6D",
"Sh 	c #6F6B69",
"Th 	c #8C8886",
"Uh 	c #C6C1BC",
"Vh 	c #AEA6A1",
"Wh 	c #AAA19C",
"Xh 	c #CEC7C1",
"Yh 	c #C4BCB6",
"Zh 	c #C9C2BB",
"`h 	c #565A62",
" i 	c #182E45",
".i 	c #172D44",
"+i 	c #142D43",
"@i 	c #132C42",
"#i 	c #112940",
"$i 	c #102840",
"%i 	c #112941",
"&i 	c #263C56",
"*i 	c #102841",
"=i 	c #12273F",
"-i 	c #10253E",
";i 	c #0F243D",
">i 	c #0F243F",
",i 	c #0D223D",
"'i 	c #102742",
")i 	c #021C37",
"!i 	c #0B2732",
"~i 	c #122F37",
"{i 	c #143139",
"]i 	c #1C373E",
"^i 	c #16343B",
"/i 	c #19373E",
"(i 	c #1E3B42",
"_i 	c #1D3C42",
":i 	c #1F3F42",
"<i 	c #1F3F41",
"[i 	c #224346",
"}i 	c #204A4B",
"|i 	c #3E6D6E",
"1i 	c #1F474B",
"2i 	c #20474A",
"3i 	c #1F494A",
"4i 	c #1E494C",
"5i 	c #1E4B4C",
"6i 	c #1F4C4D",
"7i 	c #204E4E",
"8i 	c #1E4D4E",
"9i 	c #1F4E4E",
"0i 	c #1F4F50",
"ai 	c #1F5051",
"bi 	c #1D5252",
"ci 	c #1E5352",
"di 	c #1F5353",
"ei 	c #345C5C",
"fi 	c #1E5555",
"gi 	c #445C5C",
"hi 	c #403F42",
"ii 	c #A59991",
"ji 	c #586D6C",
"ki 	c #1F5757",
"li 	c #205758",
"mi 	c #205859",
"ni 	c #1F5758",
"oi 	c #1E5657",
"pi 	c #1E5757",
"qi 	c #1E5656",
"ri 	c #466262",
"si 	c #3D4345",
"ti 	c #2F3035",
"ui 	c #35363B",
"vi 	c #2C2F35",
"wi 	c #282B31",
"xi 	c #474545",
"yi 	c #716A67",
"zi 	c #CBC4BE",
"Ai 	c #BFB7B0",
"Bi 	c #667373",
"Ci 	c #475F62",
"Di 	c #244E53",
"Ei 	c #2E5157",
"Fi 	c #3A595E",
"Gi 	c #3C595E",
"Hi 	c #305055",
"Ii 	c #314F55",
"Ji 	c #47636C",
"Ki 	c #2D4C56",
"Li 	c #395159",
"Mi 	c #756A67",
"Ni 	c #635654",
"Oi 	c #584C4C",
"Pi 	c #8A7B74",
"Qi 	c #AAA099",
"Ri 	c #928C87",
"Si 	c #2B434F",
"Ti 	c #214050",
"Ui 	c #1B3A4A",
"Vi 	c #525D67",
"Wi 	c #3A414A",
"Xi 	c #424A55",
"Yi 	c #3D4550",
"Zi 	c #3D414A",
"`i 	c #37383E",
" j 	c #2F3137",
".j 	c #666261",
"+j 	c #8B8682",
"@j 	c #6C6A6A",
"#j 	c #C8C3BE",
"$j 	c #ACA5A1",
"%j 	c #B2AAA4",
"&j 	c #C5BFB9",
"*j 	c #BFB8B2",
"=j 	c #C1B9B3",
"-j 	c #7D7D7F",
";j 	c #142C43",
">j 	c #142C42",
",j 	c #122A41",
"'j 	c #0F2740",
")j 	c #102740",
"!j 	c #0E2641",
"~j 	c #0F2842",
"{j 	c #0E273F",
"]j 	c #0E253D",
"^j 	c #0C233B",
"/j 	c #142A44",
"(j 	c #0B223C",
"_j 	c #0A213B",
":j 	c #09203A",
"<j 	c #09203B",
"[j 	c #0A223E",
"}j 	c #051E39",
"|j 	c #041D39",
"1j 	c #112E36",
"2j 	c #15323A",
"3j 	c #16343C",
"4j 	c #17353D",
"5j 	c #19373F",
"6j 	c #1A3941",
"7j 	c #1A3A43",
"8j 	c #1B3E45",
"9j 	c #1E4449",
"0j 	c #31585D",
"aj 	c #66888A",
"bj 	c #87B3B6",
"cj 	c #396669",
"dj 	c #205153",
"ej 	c #1D484C",
"fj 	c #1C494D",
"gj 	c #1B4A4D",
"hj 	c #2A4F52",
"ij 	c #1B4C4F",
"jj 	c #1C4E50",
"kj 	c #1D4F51",
"lj 	c #2B5557",
"mj 	c #3F6E6F",
"nj 	c #185152",
"oj 	c #205455",
"pj 	c #546768",
"qj 	c #566A6A",
"rj 	c #225757",
"sj 	c #3B4849",
"tj 	c #847D78",
"uj 	c #355C5C",
"vj 	c #1B5455",
"wj 	c #2D5B5B",
"xj 	c #1A5556",
"yj 	c #1A5455",
"zj 	c #2D595A",
"Aj 	c #435C5E",
"Bj 	c #394E50",
"Cj 	c #3D484A",
"Dj 	c #2D3036",
"Ej 	c #2C3036",
"Fj 	c #323136",
"Gj 	c #2E3136",
"Hj 	c #2C2F33",
"Ij 	c #393A3D",
"Jj 	c #736D69",
"Kj 	c #BEB8B3",
"Lj 	c #D3CDC6",
"Mj 	c #D3CCC6",
"Nj 	c #AFA8A1",
"Oj 	c #566868",
"Pj 	c #435C5F",
"Qj 	c #345256",
"Rj 	c #3D585C",
"Sj 	c #2A5057",
"Tj 	c #385458",
"Uj 	c #40575B",
"Vj 	c #566164",
"Wj 	c #42575D",
"Xj 	c #3B5159",
"Yj 	c #4D5A5F",
"Zj 	c #726561",
"`j 	c #5D5050",
" k 	c #534746",
".k 	c #463D3E",
"+k 	c #6E6461",
"@k 	c #A49E98",
"#k 	c #686B6F",
"$k 	c #1A394C",
"%k 	c #18384A",
"&k 	c #4B545D",
"*k 	c #3A414B",
"=k 	c #46505C",
"-k 	c #424A54",
";k 	c #534449",
">k 	c #4C3434",
",k 	c #25272C",
"'k 	c #585655",
")k 	c #918C89",
"!k 	c #8C8784",
"~k 	c #C8C4C0",
"{k 	c #AFA9A4",
"]k 	c #847B76",
"^k 	c #C3BBB5",
"/k 	c #B8B0AA",
"(k 	c #858383",
"_k 	c #122C43",
":k 	c #112B42",
"<k 	c #102A41",
"[k 	c #162F47",
"}k 	c #394251",
"|k 	c #525761",
"1k 	c #434857",
"2k 	c #3A4352",
"3k 	c #0B253D",
"4k 	c #0C253D",
"5k 	c #0B243D",
"6k 	c #0C243E",
"7k 	c #0B233F",
"8k 	c #09213D",
"9k 	c #08203C",
"0k 	c #031D38",
"ak 	c #082430",
"bk 	c #122F38",
"ck 	c #16333B",
"dk 	c #18363E",
"ek 	c #173A41",
"fk 	c #163C43",
"gk 	c #183D43",
"hk 	c #1B4047",
"ik 	c #224C53",
"jk 	c #537D80",
"kk 	c #7EABB0",
"lk 	c #2E5B61",
"mk 	c #1B4B50",
"nk 	c #17464B",
"ok 	c #215256",
"pk 	c #17484C",
"qk 	c #18494D",
"rk 	c #2F5256",
"sk 	c #184A4D",
"tk 	c #194B4E",
"uk 	c #41575A",
"vk 	c #888582",
"wk 	c #6F8E8E",
"xk 	c #1C5253",
"yk 	c #48585D",
"zk 	c #737071",
"Ak 	c #8E8985",
"Bk 	c #6A7876",
"Ck 	c #225555",
"Dk 	c #375C5B",
"Ek 	c #195253",
"Fk 	c #185354",
"Gk 	c #185454",
"Hk 	c #365D5F",
"Ik 	c #3D494D",
"Jk 	c #1F2228",
"Kk 	c #1E2126",
"Lk 	c #252931",
"Mk 	c #24272D",
"Nk 	c #313034",
"Ok 	c #292C33",
"Pk 	c #303235",
"Qk 	c #504F50",
"Rk 	c #736C69",
"Sk 	c #D0CAC4",
"Tk 	c #D1C9C3",
"Uk 	c #C8C1BA",
"Vk 	c #BAB4AE",
"Wk 	c #766F69",
"Xk 	c #9A8A80",
"Yk 	c #5B6B6A",
"Zk 	c #3A5458",
"`k 	c #3B5459",
" l 	c #646C6B",
".l 	c #6A7070",
"+l 	c #676F71",
"@l 	c #334E58",
"#l 	c #6E6563",
"$l 	c #625350",
"%l 	c #554442",
"&l 	c #4B3D3D",
"*l 	c #5E5554",
"=l 	c #A8A39E",
"-l 	c #686A6D",
";l 	c #183A4D",
">l 	c #18394C",
",l 	c #48515B",
"'l 	c #49535F",
")l 	c #495360",
"!l 	c #21232A",
"~l 	c #1F2128",
"{l 	c #1D1E23",
"]l 	c #262628",
"^l 	c #6B6665",
"/l 	c #9A9693",
"(l 	c #CAC6C2",
"_l 	c #A09891",
":l 	c #C5BEB7",
"<l 	c #C0B9B3",
"[l 	c #ABA49E",
"}l 	c #626468",
"|l 	c #112C43",
"1l 	c #0F2A41",
"2l 	c #0F2940",
"3l 	c #102940",
"4l 	c #666B74",
"5l 	c #6B6C70",
"6l 	c #9C9694",
"7l 	c #8E8784",
"8l 	c #A8A19D",
"9l 	c #868382",
"0l 	c #243244",
"al 	c #0A243D",
"bl 	c #0A233E",
"cl 	c #0A2531",
"dl 	c #1E3540",
"el 	c #1C333E",
"fl 	c #102C36",
"gl 	c #122E39",
"hl 	c #13303B",
"il 	c #14323C",
"jl 	c #15343E",
"kl 	c #15363F",
"ll 	c #143740",
"ml 	c #163A40",
"nl 	c #193942",
"ol 	c #1B3A43",
"pl 	c #183C44",
"ql 	c #19444C",
"rl 	c #336269",
"sl 	c #18404B",
"tl 	c #234A51",
"ul 	c #17454A",
"vl 	c #16474B",
"wl 	c #16484C",
"xl 	c #174A4D",
"yl 	c #174B4E",
"zl 	c #385356",
"Al 	c #676565",
"Bl 	c #405D5E",
"Cl 	c #3E5E61",
"Dl 	c #434750",
"El 	c #535254",
"Fl 	c #8F8882",
"Gl 	c #82837F",
"Hl 	c #155152",
"Il 	c #155151",
"Jl 	c #1B5354",
"Kl 	c #2A5758",
"Ll 	c #345254",
"Ml 	c #3C494E",
"Nl 	c #282C34",
"Ol 	c #1B1E24",
"Pl 	c #1C1E25",
"Ql 	c #21252D",
"Rl 	c #22262E",
"Sl 	c #2C3139",
"Tl 	c #292E35",
"Ul 	c #2D3037",
"Vl 	c #504C4C",
"Wl 	c #686360",
"Xl 	c #6A6664",
"Yl 	c #C8C1BC",
"Zl 	c #CFC8C2",
"`l 	c #CCC6BF",
" m 	c #D2C9C2",
".m 	c #DAD2C9",
"+m 	c #C5AF9F",
"@m 	c #B1927B",
"#m 	c #99917F",
"$m 	c #8A8373",
"%m 	c #CDB899",
"&m 	c #E2C19C",
"*m 	c #BFAC98",
"=m 	c #556369",
"-m 	c #4A5D65",
";m 	c #2E4E59",
">m 	c #5E6367",
",m 	c #5E5353",
"'m 	c #4A4449",
")m 	c #444146",
"!m 	c #625C5E",
"~m 	c #898784",
"{m 	c #233F4E",
"]m 	c #15384B",
"^m 	c #133649",
"/m 	c #404F5B",
"(m 	c #49535E",
"_m 	c #4D5A66",
":m 	c #313740",
"<m 	c #1E2127",
"[m 	c #1D2027",
"}m 	c #1D2026",
"|m 	c #1B1C21",
"1m 	c #242225",
"2m 	c #3C3A3A",
"3m 	c #B3B0AE",
"4m 	c #BBB5AF",
"5m 	c #D7D2CB",
"6m 	c #C0B8B2",
"7m 	c #888584",
"8m 	c #0E2B42",
"9m 	c #122D44",
"0m 	c #0D2841",
"am 	c #5D626A",
"bm 	c #7C7878",
"cm 	c #9A938F",
"dm 	c #9F9592",
"em 	c #A19892",
"fm 	c #AEA5A0",
"gm 	c #A69F9B",
"hm 	c #494D57",
"im 	c #09233E",
"jm 	c #08223D",
"km 	c #07213C",
"lm 	c #06213C",
"mm 	c #06203B",
"nm 	c #061F3B",
"om 	c #051D3A",
"pm 	c #041C39",
"qm 	c #031B38",
"rm 	c #021B37",
"sm 	c #011B37",
"tm 	c #082330",
"um 	c #0E2733",
"vm 	c #0E2834",
"wm 	c #0F2B37",
"xm 	c #0F2E39",
"ym 	c #0F2F3A",
"zm 	c #11313C",
"Am 	c #11333D",
"Bm 	c #12343E",
"Cm 	c #163941",
"Dm 	c #35575E",
"Em 	c #153842",
"Fm 	c #163A44",
"Gm 	c #163D45",
"Hm 	c #144147",
"Im 	c #1D494F",
"Jm 	c #154248",
"Km 	c #174449",
"Lm 	c #134248",
"Mm 	c #25494E",
"Nm 	c #1E474B",
"Om 	c #16474C",
"Pm 	c #14474B",
"Qm 	c #15484C",
"Rm 	c #13484C",
"Sm 	c #13494D",
"Tm 	c #305357",
"Um 	c #154C51",
"Vm 	c #2B5558",
"Wm 	c #41474E",
"Xm 	c #817C78",
"Ym 	c #9D9A94",
"Zm 	c #195052",
"`m 	c #135052",
" n 	c #3B595C",
".n 	c #2C3338",
"+n 	c #1A1D23",
"@n 	c #1C1F24",
"#n 	c #21242B",
"$n 	c #232830",
"%n 	c #282D35",
"&n 	c #2C323C",
"*n 	c #2A3038",
"=n 	c #4A484B",
"-n 	c #7A7572",
";n 	c #A29892",
">n 	c #88807D",
",n 	c #BCB5AE",
"'n 	c #C7BFB9",
")n 	c #D4CEC9",
"!n 	c #C3BAB2",
"~n 	c #D5CCC5",
"{n 	c #D1BEB0",
"]n 	c #C8A28C",
"^n 	c #B79074",
"/n 	c #546161",
"(n 	c #AD9D84",
"_n 	c #E9C79F",
":n 	c #C7B096",
"<n 	c #656C6D",
"[n 	c #4A5E67",
"}n 	c #334F5C",
"|n 	c #405561",
"1n 	c #696465",
"2n 	c #5F595D",
"3n 	c #56555A",
"4n 	c #474B54",
"5n 	c #434F5A",
"6n 	c #14394B",
"7n 	c #123549",
"8n 	c #113448",
"9n 	c #314555",
"0n 	c #57626C",
"an 	c #414A54",
"bn 	c #1F222A",
"cn 	c #1C1F25",
"dn 	c #1E2027",
"en 	c #282023",
"fn 	c #1F1F24",
"gn 	c #212025",
"hn 	c #3C3A3B",
"in 	c #6A6565",
"jn 	c #CCC6C0",
"kn 	c #BDB6B0",
"ln 	c #464D5A",
"mn 	c #0C2A43",
"nn 	c #0D2B45",
"on 	c #122E47",
"pn 	c #0D2B44",
"qn 	c #4C5665",
"rn 	c #51565F",
"sn 	c #736F6F",
"tn 	c #9F9792",
"un 	c #A89E9B",
"vn 	c #A29893",
"wn 	c #807773",
"xn 	c #ACA4A0",
"yn 	c #939091",
"zn 	c #05223C",
"An 	c #07223D",
"Bn 	c #05203B",
"Cn 	c #041D3B",
"Dn 	c #011A38",
"En 	c #021B39",
"Fn 	c #011937",
"Gn 	c #0A2330",
"Hn 	c #0B2532",
"In 	c #0C2733",
"Jn 	c #0E2D38",
"Kn 	c #0E2E39",
"Ln 	c #10303B",
"Mn 	c #10313C",
"Nn 	c #12363F",
"On 	c #123941",
"Pn 	c #143942",
"Qn 	c #143A43",
"Rn 	c #133B44",
"Sn 	c #113D43",
"Tn 	c #134046",
"Un 	c #113F45",
"Vn 	c #164349",
"Wn 	c #19454A",
"Xn 	c #124348",
"Yn 	c #124449",
"Zn 	c #3A5558",
"`n 	c #375457",
" o 	c #11464B",
".o 	c #11474C",
"+o 	c #12494E",
"@o 	c #124A4F",
"#o 	c #184D50",
"$o 	c #355358",
"%o 	c #354147",
"&o 	c #5A5D5C",
"*o 	c #697372",
"=o 	c #104D51",
"-o 	c #114E52",
";o 	c #104E52",
">o 	c #4B565C",
",o 	c #252830",
"'o 	c #191B1F",
")o 	c #1A1A1E",
"!o 	c #1F2025",
"~o 	c #262A32",
"{o 	c #292F39",
"]o 	c #292F38",
"^o 	c #2D3640",
"/o 	c #303740",
"(o 	c #35373D",
"_o 	c #5E5959",
":o 	c #716B6A",
"<o 	c #857D79",
"[o 	c #A29A94",
"}o 	c #ACA69F",
"|o 	c #C6BEB7",
"1o 	c #C3BEBA",
"2o 	c #CDC4BE",
"3o 	c #CFC7C0",
"4o 	c #CFC3BA",
"5o 	c #BE9D89",
"6o 	c #DD9962",
"7o 	c #B79970",
"8o 	c #B58B6B",
"9o 	c #CCA383",
"0o 	c #BDAA93",
"ao 	c #91897E",
"bo 	c #505E66",
"co 	c #415662",
"do 	c #405663",
"eo 	c #264756",
"fo 	c #274554",
"go 	c #284453",
"ho 	c #224051",
"io 	c #103749",
"jo 	c #27495A",
"ko 	c #103549",
"lo 	c #103448",
"mo 	c #0F3448",
"no 	c #4F565F",
"oo 	c #1F2229",
"po 	c #20232A",
"qo 	c #22252D",
"ro 	c #202228",
"so 	c #1E2025",
"to 	c #222025",
"uo 	c #202026",
"vo 	c #201F26",
"wo 	c #26272B",
"xo 	c #4E4D4F",
"yo 	c #837E7C",
"zo 	c #6F7074",
"Ao 	c #0B2B44",
"Bo 	c #0A2A43",
"Co 	c #0C2C45",
"Do 	c #25374C",
"Eo 	c #5E6975",
"Fo 	c #444851",
"Go 	c #5A5658",
"Ho 	c #6C6565",
"Io 	c #948A87",
"Jo 	c #ABA19C",
"Ko 	c #A9A09B",
"Lo 	c #B4B0AC",
"Mo 	c #192B42",
"No 	c #041F3A",
"Oo 	c #031C3A",
"Po 	c #092330",
"Qo 	c #0B2633",
"Ro 	c #0F313B",
"So 	c #11353E",
"To 	c #113740",
"Uo 	c #10363F",
"Vo 	c #123841",
"Wo 	c #113A42",
"Xo 	c #103B42",
"Yo 	c #103E44",
"Zo 	c #0E3D43",
"`o 	c #124046",
" p 	c #2F585D",
".p 	c #334F53",
"+p 	c #475257",
"@p 	c #646568",
"#p 	c #A19A98",
"$p 	c #BEB9B4",
"%p 	c #9B9A98",
"&p 	c #234B50",
"*p 	c #0E474D",
"=p 	c #0F484E",
"-p 	c #0F494F",
";p 	c #0F4A4F",
">p 	c #104B50",
",p 	c #104C51",
"'p 	c #1F5155",
")p 	c #275357",
"!p 	c #34585B",
"~p 	c #363A42",
"{p 	c #30353E",
"]p 	c #191618",
"^p 	c #491E16",
"/p 	c #3E2223",
"(p 	c #2F333A",
"_p 	c #2A2F36",
":p 	c #2E3641",
"<p 	c #282E36",
"[p 	c #343B44",
"}p 	c #282A31",
"|p 	c #434142",
"1p 	c #7F7773",
"2p 	c #605B5A",
"3p 	c #817976",
"4p 	c #ACA39D",
"5p 	c #CAC3BB",
"6p 	c #CFC8C4",
"7p 	c #CDC6C1",
"8p 	c #CCC4BD",
"9p 	c #CCC2BA",
"0p 	c #B8A69A",
"ap 	c #DBB794",
"bp 	c #F6DDB0",
"cp 	c #F7CE8D",
"dp 	c #CC7B44",
"ep 	c #8C7D72",
"fp 	c #7E7973",
"gp 	c #53626B",
"hp 	c #3D5664",
"ip 	c #4D5D68",
"jp 	c #1A4354",
"kp 	c #2D4855",
"lp 	c #14394A",
"mp 	c #27414F",
"np 	c #193C4C",
"op 	c #0D3648",
"pp 	c #10354A",
"qp 	c #0E3449",
"rp 	c #0D3348",
"sp 	c #46505B",
"tp 	c #353942",
"up 	c #282A33",
"vp 	c #272A32",
"wp 	c #23262E",
"xp 	c #22242B",
"yp 	c #23242B",
"zp 	c #25262D",
"Ap 	c #23252C",
"Bp 	c #22242A",
"Cp 	c #282A2F",
"Dp 	c #323236",
"Ep 	c #575655",
"Fp 	c #5D5E62",
"Gp 	c #092942",
"Hp 	c #082942",
"Ip 	c #464F5D",
"Jp 	c #59606D",
"Kp 	c #40444C",
"Lp 	c #444247",
"Mp 	c #6F6867",
"Np 	c #696261",
"Op 	c #8C817D",
"Pp 	c #877E79",
"Qp 	c #8C898A",
"Rp 	c #05223D",
"Sp 	c #011938",
"Tp 	c #021A38",
"Up 	c #08222F",
"Vp 	c #0A2431",
"Wp 	c #0D2C37",
"Xp 	c #0D2D38",
"Yp 	c #10323C",
"Zp 	c #10333C",
"`p 	c #0E343D",
" q 	c #0F353E",
".q 	c #10373F",
"+q 	c #113941",
"@q 	c #103A41",
"#q 	c #0E3C44",
"$q 	c #0E3D45",
"%q 	c #535457",
"&q 	c #474A51",
"*q 	c #3F4149",
"=q 	c #8A8483",
"-q 	c #C4B9B3",
";q 	c #BEB5B0",
">q 	c #CEC7C2",
",q 	c #8F8E8A",
"'q 	c #2C4F55",
")q 	c #0D474E",
"!q 	c #0E494F",
"~q 	c #0E4A4F",
"{q 	c #0E4B50",
"]q 	c #195058",
"^q 	c #1D4E56",
"/q 	c #0C4B53",
"(q 	c #215057",
"_q 	c #3D5257",
":q 	c #2A2E36",
"<q 	c #2A2F37",
"[q 	c #312426",
"}q 	c #994D2B",
"|q 	c #70362A",
"1q 	c #32363E",
"2q 	c #2B313A",
"3q 	c #2D353E",
"4q 	c #323B46",
"5q 	c #23262C",
"6q 	c #1A1B1F",
"7q 	c #6D6866",
"8q 	c #444141",
"9q 	c #2F2D2F",
"0q 	c #686362",
"aq 	c #B7B0AB",
"bq 	c #D4CEC8",
"cq 	c #D2CBC6",
"dq 	c #CAC2BC",
"eq 	c #CDC5BE",
"fq 	c #BBAEA5",
"gq 	c #B6A59A",
"hq 	c #E1C8B1",
"iq 	c #EED6B2",
"jq 	c #D2966B",
"kq 	c #AF988D",
"lq 	c #8F857F",
"mq 	c #707173",
"nq 	c #3C5361",
"oq 	c #4B5C68",
"pq 	c #52636D",
"qq 	c #405C6A",
"rq 	c #49555E",
"sq 	c #1D3D4E",
"tq 	c #0C3649",
"uq 	c #17394B",
"vq 	c #0C354A",
"wq 	c #0B3449",
"xq 	c #0A3347",
"yq 	c #3C4B57",
"zq 	c #3B4048",
"Aq 	c #34373E",
"Bq 	c #23262D",
"Cq 	c #26282F",
"Dq 	c #272930",
"Eq 	c #35373E",
"Fq 	c #2F3A49",
"Gq 	c #1D344A",
"Hq 	c #072942",
"Iq 	c #062841",
"Jq 	c #193046",
"Kq 	c #565E69",
"Lq 	c #37383F",
"Mq 	c #3A393F",
"Nq 	c #48474A",
"Oq 	c #524E4F",
"Pq 	c #6F6A69",
"Qq 	c #444854",
"Rq 	c #031E39",
"Sq 	c #031C39",
"Tq 	c #09213E",
"Uq 	c #021B38",
"Vq 	c #07212E",
"Wq 	c #0C2B36",
"Xq 	c #0C2C37",
"Yq 	c #0E303A",
"Zq 	c #0F323C",
"`q 	c #0F373F",
" r 	c #0F3840",
".r 	c #0F3941",
"+r 	c #0C3A43",
"@r 	c #2D454C",
"#r 	c #3D3F44",
"$r 	c #3F4249",
"%r 	c #3D3E44",
"&r 	c #48484B",
"*r 	c #B6AEA8",
"=r 	c #B5ACA5",
"-r 	c #BFB5AE",
";r 	c #AAA09B",
">r 	c #BDB5AD",
",r 	c #A09E9B",
"'r 	c #284F54",
")r 	c #0B474D",
"!r 	c #204D52",
"~r 	c #0C484E",
"{r 	c #22535D",
"]r 	c #0F4953",
"^r 	c #134B54",
"/r 	c #315258",
"(r 	c #2C2F37",
"_r 	c #2A2C33",
":r 	c #553030",
"<r 	c #3F383D",
"[r 	c #33383F",
"}r 	c #323942",
"|r 	c #2E343E",
"1r 	c #2F353E",
"2r 	c #31363E",
"3r 	c #403E40",
"4r 	c #393738",
"5r 	c #817B77",
"6r 	c #1B1B1F",
"7r 	c #131318",
"8r 	c #403E3F",
"9r 	c #C4BCB8",
"0r 	c #B4ABA4",
"ar 	c #C0B6B1",
"br 	c #B3A59E",
"cr 	c #B8AAA1",
"dr 	c #C2AEA2",
"er 	c #B59D8E",
"fr 	c #B19F94",
"gr 	c #96837A",
"hr 	c #A09893",
"ir 	c #95918F",
"jr 	c #818384",
"kr 	c #59646B",
"lr 	c #4B5962",
"mr 	c #495660",
"nr 	c #3D4E5A",
"or 	c #294150",
"pr 	c #294151",
"qr 	c #0B344A",
"rr 	c #3D4C59",
"sr 	c #0D364B",
"tr 	c #0E364B",
"ur 	c #083147",
"vr 	c #3D4A56",
"wr 	c #3A3D44",
"xr 	c #23252B",
"yr 	c #24262C",
"zr 	c #292C32",
"Ar 	c #393C43",
"Br 	c #2B394B",
"Cr 	c #062842",
"Dr 	c #052640",
"Er 	c #424B58",
"Fr 	c #40444E",
"Gr 	c #373A41",
"Hr 	c #3A3C44",
"Ir 	c #3A3B42",
"Jr 	c #646266",
"Kr 	c #02203A",
"Lr 	c #04213B",
"Mr 	c #021D38",
"Nr 	c #041D3A",
"Or 	c #102643",
"Pr 	c #021A39",
"Qr 	c #021C38",
"Rr 	c #09202E",
"Sr 	c #0B2230",
"Tr 	c #092431",
"Ur 	c #0D2834",
"Vr 	c #0C2A35",
"Wr 	c #0D2B35",
"Xr 	c #0C2D36",
"Yr 	c #0C2E38",
"Zr 	c #0C2F39",
"`r 	c #0A2F3A",
" s 	c #0B303B",
".s 	c #0D333D",
"+s 	c #0E3640",
"@s 	c #0B353F",
"#s 	c #1A424D",
"$s 	c #0E3B45",
"%s 	c #0A3A46",
"&s 	c #414E56",
"*s 	c #3B4049",
"=s 	c #38393F",
"-s 	c #656161",
";s 	c #5D5758",
">s 	c #7A7472",
",s 	c #C2B8B2",
"'s 	c #A79C95",
")s 	c #B0A7A1",
"!s 	c #CFC6BF",
"~s 	c #C8BEB8",
"{s 	c #CECAC6",
"]s 	c #6F7879",
"^s 	c #224D54",
"/s 	c #114950",
"(s 	c #084750",
"_s 	c #0A4750",
":s 	c #255861",
"<s 	c #424E54",
"[s 	c #3B424C",
"}s 	c #131519",
"|s 	c #242932",
"1s 	c #363D47",
"2s 	c #2F353C",
"3s 	c #564344",
"4s 	c #2B3038",
"5s 	c #333A44",
"6s 	c #282D33",
"7s 	c #38373A",
"8s 	c #817874",
"9s 	c #BCB6B0",
"0s 	c #323133",
"as 	c #121318",
"bs 	c #121217",
"cs 	c #A59E9A",
"ds 	c #CDC5C0",
"es 	c #C8BFB9",
"fs 	c #ABA09C",
"gs 	c #B4AAA5",
"hs 	c #B9AEA8",
"is 	c #A79B95",
"js 	c #998D87",
"ks 	c #938580",
"ls 	c #9F948E",
"ms 	c #6D6F72",
"ns 	c #545C63",
"os 	c #45525B",
"ps 	c #304452",
"qs 	c #747374",
"rs 	c #575C63",
"ss 	c #083146",
"ts 	c #0A3146",
"us 	c #0A3045",
"vs 	c #0D3147",
"ws 	c #2B4155",
"xs 	c #383D45",
"ys 	c #3B434E",
"zs 	c #2E3C4D",
"As 	c #384455",
"Bs 	c #28394E",
"Cs 	c #062943",
"Ds 	c #173851",
"Es 	c #052840",
"Fs 	c #05283E",
"Gs 	c #0B2D47",
"Hs 	c #052741",
"Is 	c #052843",
"Js 	c #062643",
"Ks 	c #062542",
"Ls 	c #052540",
"Ms 	c #394151",
"Ns 	c #484D57",
"Os 	c #4C4E57",
"Ps 	c #4B4D54",
"Qs 	c #464952",
"Rs 	c #363E4E",
"Ss 	c #04223E",
"Ts 	c #0A2844",
"Us 	c #04213D",
"Vs 	c #051E3C",
"Ws 	c #1C304B",
"Xs 	c #041F3C",
"Ys 	c #011C39",
"Zs 	c #001B38",
"`s 	c #0A212F",
" t 	c #0B2C36",
".t 	c #0B2D37",
"+t 	c #0A2F3B",
"@t 	c #0B313C",
"#t 	c #0C323D",
"$t 	c #0A333D",
"%t 	c #355761",
"&t 	c #0A3540",
"*t 	c #0A3743",
"=t 	c #123C48",
"-t 	c #47525B",
";t 	c #827A78",
">t 	c #716967",
",t 	c #56504F",
"'t 	c #A39993",
")t 	c #857B75",
"!t 	c #8B7F7A",
"~t 	c #CEC4BF",
"{t 	c #D9D2CD",
"]t 	c #4A6064",
"^t 	c #08474F",
"/t 	c #114952",
"(t 	c #264F56",
"_t 	c #486C73",
":t 	c #474F58",
"<t 	c #343A42",
"[t 	c #252B33",
"}t 	c #323A45",
"|t 	c #2F343D",
"1t 	c #6A4747",
"2t 	c #803E21",
"3t 	c #2E333C",
"4t 	c #333A42",
"5t 	c #26292F",
"6t 	c #585555",
"7t 	c #958D89",
"8t 	c #ADA6A2",
"9t 	c #837D7B",
"0t 	c #4E4B4A",
"at 	c #4B4848",
"bt 	c #565351",
"ct 	c #B1A9A4",
"dt 	c #C2BBB5",
"et 	c #BEB7B1",
"ft 	c #AFA9A5",
"gt 	c #C9C1BD",
"ht 	c #B5ADA9",
"it 	c #807978",
"jt 	c #C4BEBB",
"kt 	c #BCB2AD",
"lt 	c #A39893",
"mt 	c #887D79",
"nt 	c #918683",
"ot 	c #86807C",
"pt 	c #595F64",
"qt 	c #7B7978",
"rt 	c #65686B",
"st 	c #595A5E",
"tt 	c #4E4545",
"ut 	c #827772",
"vt 	c #958E8B",
"wt 	c #5C6067",
"xt 	c #073046",
"yt 	c #082F45",
"zt 	c #082E44",
"At 	c #11354B",
"Bt 	c #092E45",
"Ct 	c #092E46",
"Dt 	c #092D45",
"Et 	c #072B43",
"Ft 	c #072B45",
"Gt 	c #062A44",
"Ht 	c #052943",
"It 	c #042840",
"Jt 	c #0B2B46",
"Kt 	c #102D48",
"Lt 	c #062744",
"Mt 	c #173452",
"Nt 	c #052440",
"Ot 	c #04233F",
"Pt 	c #13314C",
"Qt 	c #1C2E45",
"Rt 	c #03223E",
"St 	c #02213D",
"Tt 	c #03203D",
"Ut 	c #0D2441",
"Vt 	c #071E3B",
"Wt 	c #021D3A",
"Xt 	c #092430",
"Yt 	c #132A35",
"Zt 	c #3D535C",
"`t 	c #0A2A35",
" u 	c #0A2D39",
".u 	c #0B313D",
"+u 	c #0B343F",
"@u 	c #0A333E",
"#u 	c #083440",
"$u 	c #093643",
"%u 	c #41525B",
"&u 	c #2F343C",
"*u 	c #545153",
"=u 	c #988E8B",
"-u 	c #8B827F",
";u 	c #B6ADA7",
">u 	c #A99C97",
",u 	c #9D9089",
"'u 	c #B4A9A3",
")u 	c #CBC1BA",
"!u 	c #DBD4CF",
"~u 	c #D4CDC6",
"{u 	c #7D8180",
"]u 	c #06454E",
"^u 	c #06454F",
"/u 	c #174851",
"(u 	c #0E464F",
"_u 	c #4D5259",
":u 	c #2E343B",
"<u 	c #15161A",
"[u 	c #303843",
"}u 	c #333C45",
"|u 	c #30363D",
"1u 	c #3F4853",
"2u 	c #4B3A3F",
"3u 	c #33343E",
"4u 	c #31373E",
"5u 	c #212429",
"6u 	c #4C4A4A",
"7u 	c #9A918E",
"8u 	c #ABA49F",
"9u 	c #908986",
"0u 	c #8E8884",
"au 	c #8E8682",
"bu 	c #BCB4AF",
"cu 	c #C2BAB5",
"du 	c #BBB2AD",
"eu 	c #676361",
"fu 	c #8D8785",
"gu 	c #C7C0BC",
"hu 	c #5F5B59",
"iu 	c #656263",
"ju 	c #A0938D",
"ku 	c #8E807B",
"lu 	c #817774",
"mu 	c #A8A09C",
"nu 	c #A9A19D",
"ou 	c #777676",
"pu 	c #5D6264",
"qu 	c #5A5F64",
"ru 	c #675F5F",
"su 	c #463B3A",
"tu 	c #4D413F",
"uu 	c #AFA69E",
"vu 	c #707073",
"wu 	c #052E44",
"xu 	c #062D44",
"yu 	c #072C43",
"zu 	c #072D44",
"Au 	c #062C43",
"Bu 	c #072C44",
"Cu 	c #0A2D44",
"Du 	c #0B2E47",
"Eu 	c #032741",
"Fu 	c #1A3048",
"Gu 	c #4E535D",
"Hu 	c #767679",
"Iu 	c #032441",
"Ju 	c #032443",
"Ku 	c #052541",
"Lu 	c #031F3C",
"Mu 	c #06203E",
"Nu 	c #06203D",
"Ou 	c #051E3B",
"Pu 	c #041E3B",
"Qu 	c #011B38",
"Ru 	c #132C37",
"Su 	c #092936",
"Tu 	c #0A2C3A",
"Uu 	c #092E3C",
"Vu 	c #0A303C",
"Wu 	c #0A303D",
"Xu 	c #0A333F",
"Yu 	c #093340",
"Zu 	c #093542",
"`u 	c #083643",
" v 	c #45515A",
".v 	c #373F49",
"+v 	c #38383C",
"@v 	c #5D5858",
"#v 	c #8E8582",
"$v 	c #BAB1AB",
"%v 	c #BFB4AE",
"&v 	c #C0B6B0",
"*v 	c #9B8E89",
"=v 	c #B8AEA7",
"-v 	c #DBD5D0",
";v 	c #D9D1CC",
">v 	c #B2AEAA",
",v 	c #546568",
"'v 	c #144650",
")v 	c #305058",
"!v 	c #164650",
"~v 	c #4A545C",
"{v 	c #272D34",
"]v 	c #141518",
"^v 	c #2D353D",
"/v 	c #39414B",
"(v 	c #37404A",
"_v 	c #3C454F",
":v 	c #363E48",
"<v 	c #292D33",
"[v 	c #1C1E22",
"}v 	c #292A2D",
"|v 	c #6F6A68",
"1v 	c #A69F9A",
"2v 	c #928B89",
"3v 	c #9C9592",
"4v 	c #8B8683",
"5v 	c #B2ABA8",
"6v 	c #BFB7B2",
"7v 	c #C6BFBA",
"8v 	c #9A918D",
"9v 	c #7C7674",
"0v 	c #B3ABA6",
"av 	c #A9A19E",
"bv 	c #5C504E",
"cv 	c #6F6360",
"dv 	c #9F948F",
"ev 	c #A99D97",
"fv 	c #BCB3AE",
"gv 	c #A69E9A",
"hv 	c #6F7275",
"iv 	c #44505A",
"jv 	c #544F50",
"kv 	c #453B3B",
"lv 	c #473936",
"mv 	c #8B837C",
"nv 	c #48515C",
"ov 	c #063047",
"pv 	c #052D45",
"qv 	c #042C44",
"rv 	c #0A3047",
"sv 	c #203649",
"tv 	c #092D44",
"uv 	c #1B3349",
"vv 	c #545861",
"wv 	c #1A3148",
"xv 	c #0C2E48",
"yv 	c #404855",
"zv 	c #2C3A4C",
"Av 	c #44474F",
"Bv 	c #7B7776",
"Cv 	c #072945",
"Dv 	c #022442",
"Ev 	c #333C4C",
"Fv 	c #55585F",
"Gv 	c #01203C",
"Hv 	c #021F3B",
"Iv 	c #0F2743",
"Jv 	c #0E2642",
"Kv 	c #031E3B",
"Lv 	c #0A2835",
"Mv 	c #092A38",
"Nv 	c #092B3A",
"Ov 	c #082D3B",
"Pv 	c #092F3D",
"Qv 	c #08313E",
"Rv 	c #083240",
"Sv 	c #083442",
"Tv 	c #073444",
"Uv 	c #424B55",
"Vv 	c #262B33",
"Wv 	c #1B1E25",
"Xv 	c #191B21",
"Yv 	c #191B22",
"Zv 	c #454040",
"`v 	c #736B68",
" w 	c #988E89",
".w 	c #B2A7A2",
"+w 	c #D7D0CA",
"@w 	c #C1B7B1",
"#w 	c #B1A6A0",
"$w 	c #D9D2CC",
"%w 	c #C9C4BE",
"&w 	c #626E71",
"*w 	c #03414C",
"=w 	c #11434D",
"-w 	c #2D4D55",
";w 	c #465157",
">w 	c #3A444E",
",w 	c #38404A",
"'w 	c #3B444E",
")w 	c #17191D",
"!w 	c #3F3D3E",
"~w 	c #625F5E",
"{w 	c #8F8985",
"]w 	c #8E8783",
"^w 	c #98908D",
"/w 	c #B0AAA7",
"(w 	c #B6B1AD",
"_w 	c #B1ABA7",
":w 	c #C7BFBB",
"<w 	c #B9B2AD",
"[w 	c #9B938F",
"}w 	c #918C88",
"|w 	c #494241",
"1w 	c #302A2C",
"2w 	c #595351",
"3w 	c #867D79",
"4w 	c #B9AEAA",
"5w 	c #D3CBC6",
"6w 	c #B0ABA5",
"7w 	c #7A797A",
"8w 	c #585F66",
"9w 	c #45505A",
"0w 	c #514C4D",
"aw 	c #473B39",
"bw 	c #424952",
"cw 	c #022E45",
"dw 	c #0B324A",
"ew 	c #093149",
"fw 	c #052D46",
"gw 	c #052A42",
"hw 	c #062A42",
"iw 	c #052941",
"jw 	c #3D4652",
"kw 	c #696666",
"lw 	c #3F4855",
"mw 	c #12334C",
"nw 	c #29384A",
"ow 	c #042640",
"pw 	c #313C4D",
"qw 	c #4E525B",
"rw 	c #02243E",
"sw 	c #02233F",
"tw 	c #414753",
"uw 	c #6B6B6B",
"vw 	c #233045",
"ww 	c #021F3C",
"xw 	c #041E3A",
"yw 	c #0A202E",
"zw 	c #092230",
"Aw 	c #0C2934",
"Bw 	c #0A2734",
"Cw 	c #082A37",
"Dw 	c #082E3D",
"Ew 	c #092F3E",
"Fw 	c #072F3E",
"Gw 	c #07313F",
"Hw 	c #07323F",
"Iw 	c #073442",
"Jw 	c #445059",
"Kw 	c #1D2127",
"Lw 	c #191B20",
"Mw 	c #1A1C22",
"Nw 	c #2D2B2E",
"Ow 	c #595251",
"Pw 	c #786F6B",
"Qw 	c #B2A9A4",
"Rw 	c #D2CAC4",
"Sw 	c #BBB2AB",
"Tw 	c #DBD6D1",
"Uw 	c #DAD5CF",
"Vw 	c #D7D2CD",
"Ww 	c #4B5E63",
"Xw 	c #1C4651",
"Yw 	c #304C56",
"Zw 	c #244853",
"`w 	c #525F65",
" x 	c #3D4751",
".x 	c #404953",
"+x 	c #39424B",
"@x 	c #353D45",
"#x 	c #373E47",
"$x 	c #3D464E",
"%x 	c #191C22",
"&x 	c #141519",
"*x 	c #787372",
"=x 	c #847D7B",
"-x 	c #8B8581",
";x 	c #837D7A",
">x 	c #B1ACA8",
",x 	c #BBB5B0",
"'x 	c #BDB8B4",
")x 	c #BBB4B0",
"!x 	c #C8C1BD",
"~x 	c #BAB3AF",
"{x 	c #99918E",
"]x 	c #6F6966",
"^x 	c #372523",
"/x 	c #292022",
"(x 	c #1B1D22",
"_x 	c #585352",
":x 	c #847C79",
"<x 	c #7C7370",
"[x 	c #B8B0AC",
"}x 	c #DAD3CE",
"|x 	c #CFC7C2",
"1x 	c #B4AEA9",
"2x 	c #6A6D71",
"3x 	c #273D4F",
"4x 	c #354553",
"5x 	c #2E4051",
"6x 	c #344453",
"7x 	c #022D45",
"8x 	c #31485B",
"9x 	c #64686E",
"0x 	c #022A43",
"ax 	c #032B43",
"bx 	c #042941",
"cx 	c #042942",
"dx 	c #032942",
"ex 	c #26384B",
"fx 	c #333D4C",
"gx 	c #042741",
"hx 	c #032640",
"ix 	c #042641",
"jx 	c #2E3B4D",
"kx 	c #042541",
"lx 	c #03253F",
"mx 	c #03243F",
"nx 	c #01223E",
"ox 	c #02203C",
"px 	c #243246",
"qx 	c #2E3849",
"rx 	c #011F3B",
"sx 	c #011E3A",
"tx 	c #031D3B",
"ux 	c #031D3A",
"vx 	c #0B2340",
"wx 	c #0A223F",
"xx 	c #011B39",
"yx 	c #001B39",
"zx 	c #0A2230",
"Ax 	c #092633",
"Bx 	c #082936",
"Cx 	c #092B39",
"Dx 	c #082D3A",
"Ex 	c #082E3C",
"Fx 	c #082F3E",
"Gx 	c #063240",
"Hx 	c #374750",
"Ix 	c #1B1D23",
"Jx 	c #1A1D22",
"Kx 	c #2C2A2C",
"Lx 	c #69605C",
"Mx 	c #736A68",
"Nx 	c #67605C",
"Ox 	c #88807B",
"Px 	c #C9C0BA",
"Qx 	c #D0C8C2",
"Rx 	c #D1CBC5",
"Sx 	c #C8C4C1",
"Tx 	c #1B454F",
"Ux 	c #11414E",
"Vx 	c #1A4350",
"Wx 	c #204753",
"Xx 	c #3F565F",
"Yx 	c #48525A",
"Zx 	c #363D45",
"`x 	c #373C45",
" y 	c #48525C",
".y 	c #2C3138",
"+y 	c #39414A",
"@y 	c #333940",
"#y 	c #292F35",
"$y 	c #111317",
"%y 	c #18191D",
"&y 	c #484545",
"*y 	c #4E4C4B",
"=y 	c #837F7C",
"-y 	c #918B88",
";y 	c #ACA5A3",
">y 	c #BAB3AE",
",y 	c #C5C1BC",
"'y 	c #B0AAA6",
")y 	c #C6C0BB",
"!y 	c #A9A29F",
"~y 	c #8D7069",
"{y 	c #292223",
"]y 	c #241617",
"^y 	c #1A1A1F",
"/y 	c #1A1C21",
"(y 	c #4D4849",
"_y 	c #938B89",
":y 	c #8D8480",
"<y 	c #ADA49F",
"[y 	c #CCC5BE",
"}y 	c #CDC5BF",
"|y 	c #D6D0CA",
"1y 	c #949292",
"2y 	c #293E50",
"3y 	c #0E3349",
"4y 	c #20394F",
"5y 	c #22384C",
"6y 	c #0A2E45",
"7y 	c #3A4551",
"8y 	c #5A5C60",
"9y 	c #012A42",
"0y 	c #022B43",
"ay 	c #042940",
"by 	c #042841",
"cy 	c #022942",
"dy 	c #012940",
"ey 	c #042540",
"fy 	c #353E4B",
"gy 	c #343E4D",
"hy 	c #03233D",
"iy 	c #02243F",
"jy 	c #01233E",
"ky 	c #00223D",
"ly 	c #03213D",
"my 	c #001F3B",
"ny 	c #031B39",
"oy 	c #021C39",
"py 	c #0A222F",
"qy 	c #082A38",
"ry 	c #072C39",
"sy 	c #072E3B",
"ty 	c #06303E",
"uy 	c #434F56",
"vy 	c #5E6568",
"wy 	c #164250",
"xy 	c #40464C",
"yy 	c #1D1F26",
"zy 	c #1D1F25",
"Ay 	c #1C1D23",
"By 	c #3A3738",
"Cy 	c #8C827D",
"Dy 	c #928882",
"Ey 	c #635B58",
"Fy 	c #89807B",
"Gy 	c #A9A19B",
"Hy 	c #B8B2AC",
"Iy 	c #8B8986",
"Jy 	c #0C414B",
"Ky 	c #19424F",
"Ly 	c #093E4C",
"My 	c #344D57",
"Ny 	c #224753",
"Oy 	c #4C565B",
"Py 	c #5E4142",
"Qy 	c #555C66",
"Ry 	c #2F343B",
"Sy 	c #3A424A",
"Ty 	c #33393F",
"Uy 	c #1F2329",
"Vy 	c #171A1F",
"Wy 	c #101115",
"Xy 	c #101114",
"Yy 	c #0F1014",
"Zy 	c #323031",
"`y 	c #111216",
" z 	c #74706E",
".z 	c #999390",
"+z 	c #B9B3AD",
"@z 	c #CCC7C1",
"#z 	c #BBB6B2",
"$z 	c #BFB9B5",
"%z 	c #888381",
"&z 	c #58413D",
"*z 	c #1C181A",
"=z 	c #2A1715",
"-z 	c #1A1B20",
";z 	c #181A1F",
">z 	c #18181C",
",z 	c #5A5856",
"'z 	c #99938F",
")z 	c #9C928C",
"!z 	c #C7BFB7",
"~z 	c #B0A8A3",
"{z 	c #C7C1BB",
"]z 	c #B6ADA8",
"^z 	c #334453",
"/z 	c #14384F",
"(z 	c #28455A",
"_z 	c #012B43",
":z 	c #012942",
"<z 	c #032840",
"[z 	c #032841",
"}z 	c #012841",
"|z 	c #17364F",
"1z 	c #02223D",
"2z 	c #193750",
"3z 	c #00213C",
"4z 	c #363E4C",
"5z 	c #2B3548",
"6z 	c #021937",
"7z 	c #0E2744",
"8z 	c #041C3A",
"9z 	c #0B212F",
"0z 	c #09212F",
"az 	c #082532",
"bz 	c #072734",
"cz 	c #072935",
"dz 	c #072938",
"ez 	c #062C39",
"fz 	c #062D3A",
"gz 	c #062D3C",
"hz 	c #062E3D",
"iz 	c #233B47",
"jz 	c #4C4E51",
"kz 	c #646668",
"lz 	c #204A58",
"mz 	c #3E4B54",
"nz 	c #26282E",
"oz 	c #1D1F23",
"pz 	c #362E2D",
"qz 	c #49403D",
"rz 	c #6E6562",
"sz 	c #5E5754",
"tz 	c #908883",
"uz 	c #79706B",
"vz 	c #6B6D6D",
"wz 	c #043F4A",
"xz 	c #0A3E4C",
"yz 	c #1F4451",
"zz 	c #2E4C56",
"Az 	c #566063",
"Bz 	c #596064",
"Cz 	c #704540",
"Dz 	c #56616B",
"Ez 	c #3F464D",
"Fz 	c #394048",
"Gz 	c #15161B",
"Hz 	c #14161A",
"Iz 	c #101116",
"Jz 	c #0F1114",
"Kz 	c #131317",
"Lz 	c #9F9B99",
"Mz 	c #CEC9C4",
"Nz 	c #C5C0BC",
"Oz 	c #A9A39E",
"Pz 	c #6B6867",
"Qz 	c #28292C",
"Rz 	c #151419",
"Sz 	c #151316",
"Tz 	c #16171C",
"Uz 	c #15171C",
"Vz 	c #131319",
"Wz 	c #141419",
"Xz 	c #76716F",
"Yz 	c #A89E97",
"Zz 	c #998F88",
"`z 	c #978E88",
" A 	c #BDB7AF",
".A 	c #807B79",
"+A 	c #354B5E",
"@A 	c #0D3047",
"#A 	c #113047",
"$A 	c #0B2E45",
"%A 	c #243548",
"&A 	c #434F5D",
"*A 	c #042742",
"=A 	c #042844",
"-A 	c #012744",
";A 	c #012742",
">A 	c #0B2D48",
",A 	c #062843",
"'A 	c #032540",
")A 	c #172C44",
"!A 	c #0E2841",
"~A 	c #02233E",
"{A 	c #05233F",
"]A 	c #001E3A",
"^A 	c #011E3B",
"/A 	c #011A37",
"(A 	c #091F2D",
"_A 	c #062937",
":A 	c #052B38",
"<A 	c #052C39",
"[A 	c #052C3B",
"}A 	c #062E3C",
"|A 	c #052F3D",
"1A 	c #0F3340",
"2A 	c #1F3B46",
"3A 	c #093646",
"4A 	c #073545",
"5A 	c #434B50",
"6A 	c #1F2127",
"7A 	c #1C1E23",
"8A 	c #201D1F",
"9A 	c #633324",
"0A 	c #5D514B",
"aA 	c #807570",
"bA 	c #6A6564",
"cA 	c #46555B",
"dA 	c #023C48",
"eA 	c #033D49",
"fA 	c #093D4B",
"gA 	c #3A525B",
"hA 	c #214450",
"iA 	c #4A6F7A",
"jA 	c #414851",
"kA 	c #485059",
"lA 	c #515D66",
"mA 	c #111217",
"nA 	c #0F1115",
"oA 	c #101014",
"pA 	c #111215",
"qA 	c #252326",
"rA 	c #B2ADAA",
"sA 	c #CAC4BF",
"tA 	c #A8A29E",
"uA 	c #5D5A5A",
"vA 	c #202126",
"wA 	c #111116",
"xA 	c #131419",
"yA 	c #9E958E",
"zA 	c #5A5351",
"AA 	c #857C76",
"BA 	c #A59C96",
"CA 	c #4A525C",
"DA 	c #5B6066",
"EA 	c #474F5A",
"FA 	c #23384C",
"GA 	c #002A42",
"HA 	c #3D434D",
"IA 	c #6F7070",
"JA 	c #192F46",
"KA 	c #3D4653",
"LA 	c #61646A",
"MA 	c #6D6F73",
"NA 	c #01223D",
"OA 	c #091E2C",
"PA 	c #082431",
"QA 	c #082533",
"RA 	c #082835",
"SA 	c #072836",
"TA 	c #062837",
"UA 	c #052A38",
"VA 	c #052B3A",
"WA 	c #052D3C",
"XA 	c #223B47",
"YA 	c #05303E",
"ZA 	c #083644",
"`A 	c #3E7783",
" B 	c #205863",
".B 	c #063344",
"+B 	c #32454F",
"@B 	c #394249",
"#B 	c #2B2D32",
"$B 	c #1F2126",
"%B 	c #212228",
"&B 	c #572F25",
"*B 	c #8C7F76",
"=B 	c #9A928B",
"-B 	c #3A4F57",
";B 	c #2C4751",
">B 	c #013A47",
",B 	c #103E4A",
"'B 	c #17404E",
")B 	c #1C424F",
"!B 	c #2B4854",
"~B 	c #4D5D64",
"{B 	c #4E555F",
"]B 	c #414850",
"^B 	c #556168",
"/B 	c #3C4248",
"(B 	c #2C3239",
"_B 	c #1D2024",
":B 	c #1D1D20",
"<B 	c #282728",
"[B 	c #504B4B",
"}B 	c #908A87",
"|B 	c #948D8A",
"1B 	c #3C3B3C",
"2B 	c #141418",
"3B 	c #121216",
"4B 	c #3C3839",
"5B 	c #66605E",
"6B 	c #807872",
"7B 	c #908680",
"8B 	c #787879",
"9B 	c #022A42",
"0B 	c #384554",
"aB 	c #364D62",
"bB 	c #0C2D44",
"cB 	c #022841",
"dB 	c #0E324A",
"eB 	c #102E47",
"fB 	c #444E5A",
"gB 	c #32363D",
"hB 	c #878281",
"iB 	c #545459",
"jB 	c #55575C",
"kB 	c #01233F",
"lB 	c #01213D",
"mB 	c #02203D",
"nB 	c #03203E",
"oB 	c #001E3B",
"pB 	c #001D3A",
"qB 	c #0C223D",
"rB 	c #0A1E2C",
"sB 	c #082432",
"tB 	c #092535",
"uB 	c #082837",
"vB 	c #072838",
"wB 	c #062839",
"xB 	c #052A3A",
"yB 	c #052A3C",
"zB 	c #052C3D",
"AB 	c #052D3E",
"BB 	c #052D3D",
"CB 	c #0B3342",
"DB 	c #053040",
"EB 	c #4F8D98",
"FB 	c #37707C",
"GB 	c #053143",
"HB 	c #053443",
"IB 	c #033441",
"JB 	c #2F4550",
"KB 	c #3C434A",
"LB 	c #28292F",
"MB 	c #222329",
"NB 	c #47555C",
"OB 	c #013948",
"PB 	c #183E4C",
"QB 	c #2F4853",
"RB 	c #083A49",
"SB 	c #003849",
"TB 	c #123D4D",
"UB 	c #123E4E",
"VB 	c #64747C",
"WB 	c #4B5561",
"XB 	c #404952",
"YB 	c #505A62",
"ZB 	c #2A2D34",
"`B 	c #101216",
" C 	c #101215",
".C 	c #4E494A",
"+C 	c #45403F",
"@C 	c #4F4C4C",
"#C 	c #403E3E",
"$C 	c #111115",
"%C 	c #1F1E20",
"&C 	c #3C3939",
"*C 	c #4A4544",
"=C 	c #776F6E",
"-C 	c #A9A29C",
";C 	c #9C9794",
">C 	c #4D545D",
",C 	c #2A3D4E",
"'C 	c #1E354B",
")C 	c #313F50",
"!C 	c #193247",
"~C 	c #132E46",
"{C 	c #183047",
"]C 	c #183046",
"^C 	c #333E4C",
"/C 	c #292E36",
"(C 	c #6E6C6B",
"_C 	c #7B7573",
":C 	c #A19A95",
"<C 	c #A39D9A",
"[C 	c #938E8A",
"}C 	c #94908E",
"|C 	c #6D6C70",
"1C 	c #5E5F65",
"2C 	c #64656A",
"3C 	c #273447",
"4C 	c #00213D",
"5C 	c #02203B",
"6C 	c #03213C",
"7C 	c #011F3D",
"8C 	c #011D3B",
"9C 	c #001D3B",
"0C 	c #001D39",
"aC 	c #001937",
"bC 	c #021A36",
"cC 	c #0F233F",
"dC 	c #091D2B",
"eC 	c #092231",
"fC 	c #072434",
"gC 	c #072736",
"hC 	c #062737",
"iC 	c #042A3C",
"jC 	c #042B3C",
"kC 	c #042C3D",
"lC 	c #0E3343",
"mC 	c #224351",
"nC 	c #052F3F",
"oC 	c #20414F",
"pC 	c #1F404F",
"qC 	c #043042",
"rC 	c #073646",
"sC 	c #053140",
"tC 	c #023342",
"uC 	c #013344",
"vC 	c #29404E",
"wC 	c #263D4A",
"xC 	c #3A4C57",
"yC 	c #023546",
"zC 	c #003545",
"AC 	c #013646",
"BC 	c #123B4A",
"CC 	c #0B3948",
"DC 	c #183D4B",
"EC 	c #08394A",
"FC 	c #013849",
"GC 	c #224250",
"HC 	c #5B666E",
"IC 	c #454F5B",
"JC 	c #404A54",
"KC 	c #40484E",
"LC 	c #1C1E24",
"MC 	c #15171B",
"NC 	c #0F1015",
"OC 	c #202022",
"PC 	c #4A4646",
"QC 	c #292729",
"RC 	c #1E1D20",
"SC 	c #121316",
"TC 	c #1D1C1E",
"UC 	c #544E4B",
"VC 	c #5B5554",
"WC 	c #534F4E",
"XC 	c #595353",
"YC 	c #9A908B",
"ZC 	c #827976",
"`C 	c #A69F99",
" D 	c #7E7D7D",
".D 	c #263C4D",
"+D 	c #183147",
"@D 	c #112E45",
"#D 	c #0D2A43",
"$D 	c #182F46",
"%D 	c #32404F",
"&D 	c #32373D",
"*D 	c #23272F",
"=D 	c #4C4E52",
"-D 	c #5D5B5C",
";D 	c #AAA39F",
">D 	c #AFA8A4",
",D 	c #B5AFAC",
"'D 	c #A6A19D",
")D 	c #9C9692",
"!D 	c #5D5A58",
"~D 	c #979390",
"{D 	c #52555E",
"]D 	c #02203F",
"^D 	c #021F3E",
"/D 	c #02203E",
"(D 	c #01203D",
"_D 	c #323C4E",
":D 	c #494D59",
"<D 	c #0B213D",
"[D 	c #011D3A",
"}D 	c #102945",
"|D 	c #011A35",
"1D 	c #0E213D",
"2D 	c #081F2D",
"3D 	c #072433",
"4D 	c #052B3D",
"5D 	c #072E3F",
"6D 	c #042E3E",
"7D 	c #04303D",
"8D 	c #063040",
"9D 	c #0D394A",
"0D 	c #0C3848",
"aD 	c #043140",
"bD 	c #033343",
"cD 	c #023344",
"dD 	c #1B3B4A",
"eD 	c #033546",
"fD 	c #163948",
"gD 	c #013445",
"hD 	c #013545",
"iD 	c #013546",
"jD 	c #1D3D4C",
"kD 	c #264251",
"lD 	c #163C4D",
"mD 	c #354B56",
"nD 	c #515C67",
"oD 	c #464F5C",
"pD 	c #414A53",
"qD 	c #15171D",
"rD 	c #0F0F13",
"sD 	c #0F1013",
"tD 	c #111316",
"uD 	c #151519",
"vD 	c #1E1D21",
"wD 	c #111114",
"xD 	c #373435",
"yD 	c #454242",
"zD 	c #5B5654",
"AD 	c #625C5B",
"BD 	c #615958",
"CD 	c #7C7470",
"DD 	c #7C7570",
"ED 	c #79706A",
"FD 	c #3C4654",
"GD 	c #1D364A",
"HD 	c #545A63",
"ID 	c #2C3C4F",
"JD 	c #3F4957",
"KD 	c #15364F",
"LD 	c #29435A",
"MD 	c #203449",
"ND 	c #3B4551",
"OD 	c #2A3139",
"PD 	c #252A31",
"QD 	c #2D333D",
"RD 	c #2B313B",
"SD 	c #34363B",
"TD 	c #ABA5A1",
"UD 	c #C5BFBB",
"VD 	c #B6B0AC",
"WD 	c #ADA7A3",
"XD 	c #9F9995",
"YD 	c #8F8B88",
"ZD 	c #989490",
"`D 	c #938D8A",
" E 	c #9F9893",
".E 	c #A49B96",
"+E 	c #6C6A6F",
"@E 	c #0F2646",
"#E 	c #465C7A",
"$E 	c #021E3F",
"%E 	c #001F3E",
"&E 	c #475260",
"*E 	c #4F575F",
"=E 	c #5F6064",
"-E 	c #706F75",
";E 	c #021938",
">E 	c #021A37",
",E 	c #021935",
"'E 	c #0E203C",
")E 	c #072331",
"!E 	c #062635",
"~E 	c #062838",
"{E 	c #042939",
"]E 	c #062B3D",
"^E 	c #042D3D",
"/E 	c #052F3E",
"(E 	c #0C3645",
"_E 	c #063041",
":E 	c #063242",
"<E 	c #062F42",
"[E 	c #023343",
"}E 	c #023445",
"|E 	c #1F3D4B",
"1E 	c #183B4A",
"2E 	c #023749",
"3E 	c #153B4B",
"4E 	c #42525C",
"5E 	c #474E59",
"6E 	c #121417",
"7E 	c #131417",
"8E 	c #16161A",
"9E 	c #302D2E",
"0E 	c #4D4948",
"aE 	c #575352",
"bE 	c #5F5553",
"cE 	c #615957",
"dE 	c #6D6460",
"eE 	c #746B66",
"fE 	c #867C77",
"gE 	c #6D6765",
"hE 	c #3D4752",
"iE 	c #5C5F65",
"jE 	c #727173",
"kE 	c #47525D",
"lE 	c #223F54",
"mE 	c #19374F",
"nE 	c #3D4756",
"oE 	c #3D4857",
"pE 	c #28384B",
"qE 	c #3C444C",
"rE 	c #30363F",
"sE 	c #2C333B",
"tE 	c #2E353F",
"uE 	c #31353D",
"vE 	c #656364",
"wE 	c #A9A3A0",
"xE 	c #B3AFAA",
"yE 	c #BCB7B2",
"zE 	c #AAA4A1",
"AE 	c #A29C98",
"BE 	c #9E9894",
"CE 	c #928C89",
"DE 	c #8B8783",
"EE 	c #76706D",
"FE 	c #89817B",
"GE 	c #96918E",
"HE 	c #454956",
"IE 	c #04213E",
"JE 	c #5C636C",
"KE 	c #454D58",
"LE 	c #3E4249",
"ME 	c #6C6B6C",
"NE 	c #383F4E",
"OE 	c #001736",
"PE 	c #011733",
"QE 	c #11233F",
"RE 	c #072333",
"SE 	c #052534",
"TE 	c #052636",
"UE 	c #052737",
"VE 	c #042838",
"WE 	c #03283A",
"XE 	c #17394C",
"YE 	c #063141",
"ZE 	c #03303F",
"`E 	c #2A515D",
" F 	c #0E3245",
".F 	c #023143",
"+F 	c #193848",
"@F 	c #033244",
"#F 	c #023243",
"$F 	c #033445",
"%F 	c #163E50",
"&F 	c #06374A",
"*F 	c #0C384A",
"=F 	c #374C58",
"-F 	c #515964",
";F 	c #141619",
">F 	c #16191E",
",F 	c #16181D",
"'F 	c #16171B",
")F 	c #17161A",
"!F 	c #191518",
"~F 	c #1A1518",
"{F 	c #161518",
"]F 	c #19191C",
"^F 	c #373333",
"/F 	c #2A282A",
"(F 	c #4E4A49",
"_F 	c #766F6A",
":F 	c #544D4A",
"<F 	c #6D4D41",
"[F 	c #62554E",
"}F 	c #7E746C",
"|F 	c #918075",
"1F 	c #7C756F",
"2F 	c #575B63",
"3F 	c #575458",
"4F 	c #51545D",
"5F 	c #454F5A",
"6F 	c #436273",
"7F 	c #3D4956",
"8F 	c #454E5A",
"9F 	c #364352",
"0F 	c #022741",
"aF 	c #3F4854",
"bF 	c #4B3E43",
"cF 	c #333942",
"dF 	c #282C33",
"eF 	c #1C2126",
"fF 	c #2E343D",
"gF 	c #34373F",
"hF 	c #A09996",
"iF 	c #BCB6B2",
"jF 	c #B3ADAA",
"kF 	c #ABA6A2",
"lF 	c #A29C99",
"mF 	c #A59F9C",
"nF 	c #726D6A",
"oF 	c #212024",
"pF 	c #6B6664",
"qF 	c #838080",
"rF 	c #263144",
"sF 	c #021E3B",
"tF 	c #454C5A",
"uF 	c #47505C",
"vF 	c #383B44",
"wF 	c #6E6C6E",
"xF 	c #041F3D",
"yF 	c #021B3A",
"zF 	c #011736",
"AF 	c #051A39",
"BF 	c #031A37",
"CF 	c #031734",
"DF 	c #11223F",
"EF 	c #091F2F",
"FF 	c #0A2131",
"GF 	c #0A2233",
"HF 	c #082334",
"IF 	c #082434",
"JF 	c #062536",
"KF 	c #072738",
"LF 	c #072839",
"MF 	c #05293B",
"NF 	c #032838",
"OF 	c #04293B",
"PF 	c #022B3D",
"QF 	c #052E3F",
"RF 	c #022D3E",
"SF 	c #022E3E",
"TF 	c #022F3F",
"UF 	c #033040",
"VF 	c #033243",
"WF 	c #013042",
"XF 	c #013243",
"YF 	c #113646",
"ZF 	c #113747",
"`F 	c #163949",
" G 	c #113A4D",
".G 	c #11384B",
"+G 	c #334855",
"@G 	c #46545E",
"#G 	c #464B53",
"$G 	c #22252A",
"%G 	c #23272E",
"&G 	c #272B33",
"*G 	c #181B20",
"=G 	c #121317",
"-G 	c #181A20",
";G 	c #191A1F",
">G 	c #1A1B21",
",G 	c #151418",
"'G 	c #1D191D",
")G 	c #351C1B",
"!G 	c #855634",
"~G 	c #201618",
"{G 	c #282627",
"]G 	c #55504E",
"^G 	c #272628",
"/G 	c #776F69",
"(G 	c #86695D",
"_G 	c #6B4D43",
":G 	c #645953",
"<G 	c #A59487",
"[G 	c #7F756E",
"}G 	c #98897B",
"|G 	c #8F837A",
"1G 	c #998F89",
"2G 	c #7D797A",
"3G 	c #4C535C",
"4G 	c #142E45",
"5G 	c #334150",
"6G 	c #0B2A42",
"7G 	c #213348",
"8G 	c #012640",
"9G 	c #313E4E",
"0G 	c #383F48",
"aG 	c #3D3B42",
"bG 	c #22262C",
"cG 	c #15181D",
"dG 	c #2E343C",
"eG 	c #7E7877",
"fG 	c #BCB7B1",
"gG 	c #B2ACA8",
"hG 	c #A6A09D",
"iG 	c #A9A4A0",
"jG 	c #A49F9B",
"kG 	c #9B9390",
"lG 	c #A49F9A",
"mG 	c #63605C",
"nG 	c #18181B",
"oG 	c #222225",
"pG 	c #99928C",
"qG 	c #767576",
"rG 	c #283344",
"sG 	c #132440",
"tG 	c #464D5B",
"uG 	c #4A4F59",
"vG 	c #021C3A",
"wG 	c #18304D",
"xG 	c #406082",
"yG 	c #041F3F",
"zG 	c #011837",
"AG 	c #041936",
"BG 	c #031737",
"CG 	c #122340",
"DG 	c #091E2F",
"EG 	c #092030",
"FG 	c #0A2133",
"GG 	c #082233",
"HG 	c #072536",
"IG 	c #062637",
"JG 	c #062738",
"KG 	c #05283A",
"LG 	c #03293A",
"MG 	c #042A3B",
"NG 	c #062C3F",
"OG 	c #042C3E",
"PG 	c #032C3E",
"QG 	c #1B3E4E",
"RG 	c #0B3444",
"SG 	c #023042",
"TG 	c #012F41",
"UG 	c #2D424E",
"VG 	c #263F4C",
"WG 	c #0F3646",
"XG 	c #003344",
"YG 	c #033347",
"ZG 	c #13374A",
"`G 	c #43515A",
" H 	c #274150",
".H 	c #274251",
"+H 	c #5A6065",
"@H 	c #3D4148",
"#H 	c #21252C",
"$H 	c #111117",
"%H 	c #1C191C",
"&H 	c #1B1619",
"*H 	c #381B18",
"=H 	c #4E1E16",
"-H 	c #1C1416",
";H 	c #131216",
">H 	c #252224",
",H 	c #18171B",
"'H 	c #1C1B1D",
")H 	c #262426",
"!H 	c #716864",
"~H 	c #7B706B",
"{H 	c #554C4A",
"]H 	c #81746D",
"^H 	c #A79687",
"/H 	c #A18E7B",
"(H 	c #B7A58E",
"_H 	c #BBA895",
":H 	c #A8988C",
"<H 	c #867F7C",
"[H 	c #5E6065",
"}H 	c #4D525B",
"|H 	c #162E45",
"1H 	c #162F46",
"2H 	c #072A44",
"3H 	c #233447",
"4H 	c #3F4753",
"5H 	c #333B45",
"6H 	c #24292F",
"7H 	c #2B323A",
"8H 	c #232831",
"9H 	c #3F3E41",
"0H 	c #A8A19B",
"aH 	c #A69F9C",
"bH 	c #85807E",
"cH 	c #ACA7A4",
"dH 	c #938E8B",
"eH 	c #8A8581",
"fH 	c #918D8A",
"gH 	c #17171B",
"hH 	c #17171A",
"iH 	c #444243",
"jH 	c #B2AAA1",
"kH 	c #18253E",
"lH 	c #011E39",
"mH 	c #001E39",
"nH 	c #0B264B",
"oH 	c #03193A",
"pH 	c #031835",
"qH 	c #021736",
"rH 	c #051939",
"sH 	c #0F203D",
"tH 	c #081F2F",
"uH 	c #092032",
"vH 	c #052537",
"wH 	c #052637",
"xH 	c #04283A",
"yH 	c #052939",
"zH 	c #143648",
"AH 	c #0A3143",
"BH 	c #093142",
"CH 	c #042E3F",
"DH 	c #022E3F",
"EH 	c #012E40",
"FH 	c #002E40",
"GH 	c #022E41",
"HH 	c #113B4D",
"IH 	c #012F42",
"JH 	c #002F41",
"KH 	c #003142",
"LH 	c #003243",
"MH 	c #203C4A",
"NH 	c #023246",
"OH 	c #404D58",
"PH 	c #3A4853",
"QH 	c #414E59",
"RH 	c #474B53",
"SH 	c #18191F",
"TH 	c #121418",
"UH 	c #101015",
"VH 	c #181518",
"WH 	c #1D171A",
"XH 	c #2C1A19",
"YH 	c #221617",
"ZH 	c #171417",
"`H 	c #131316",
" I 	c #121115",
".I 	c #19181C",
"+I 	c #2D2B2C",
"@I 	c #807770",
"#I 	c #847871",
"$I 	c #8D827D",
"%I 	c #9B8C83",
"&I 	c #90867B",
"*I 	c #BBA588",
"=I 	c #AC9982",
"-I 	c #A89483",
";I 	c #B3A091",
">I 	c #827E7D",
",I 	c #787474",
"'I 	c #3D4755",
")I 	c #26364A",
"!I 	c #22374C",
"~I 	c #3D434C",
"{I 	c #323B44",
"]I 	c #2C323B",
"^I 	c #242831",
"/I 	c #3C3B3D",
"(I 	c #9C9693",
"_I 	c #9A9490",
":I 	c #A09A96",
"<I 	c #BDB7B2",
"[I 	c #A9A4A1",
"}I 	c #847F7C",
"|I 	c #97908C",
"1I 	c #837D78",
"2I 	c #A6A09A",
"3I 	c #AFA8A3",
"4I 	c #978F8A",
"5I 	c #878382",
"6I 	c #10274C",
"7I 	c #021735",
"8I 	c #011737",
"9I 	c #0A1E3E",
"0I 	c #071E2E",
"aI 	c #072132",
"bI 	c #062435",
"cI 	c #052436",
"dI 	c #042739",
"eI 	c #032639",
"fI 	c #05293C",
"gI 	c #042A3D",
"hI 	c #03293C",
"iI 	c #032B3D",
"jI 	c #042D3F",
"kI 	c #042E40",
"lI 	c #042F40",
"mI 	c #002D40",
"nI 	c #022F42",
"oI 	c #012E41",
"pI 	c #002E41",
"qI 	c #023145",
"rI 	c #163749",
"sI 	c #253E4E",
"tI 	c #374954",
"uI 	c #535A62",
"vI 	c #4D555B",
"wI 	c #141217",
"xI 	c #1B1518",
"yI 	c #20181A",
"zI 	c #271A19",
"AI 	c #291B19",
"BI 	c #291A19",
"CI 	c #241818",
"DI 	c #1E1617",
"EI 	c #181416",
"FI 	c #151215",
"GI 	c #131215",
"HI 	c #343032",
"II 	c #5E5755",
"JI 	c #685D59",
"KI 	c #8B827D",
"LI 	c #5A5B5F",
"MI 	c #646260",
"NI 	c #917B69",
"OI 	c #84543F",
"PI 	c #997766",
"QI 	c #776E6C",
"RI 	c #484C57",
"SI 	c #333E4F",
"TI 	c #25364A",
"UI 	c #364151",
"VI 	c #01253F",
"WI 	c #363F4B",
"XI 	c #30373F",
"YI 	c #2D333B",
"ZI 	c #2D343D",
"`I 	c #2D333C",
" J 	c #2A3039",
".J 	c #272A30",
"+J 	c #706C6A",
"@J 	c #A59F9B",
"#J 	c #958F8B",
"$J 	c #9B9591",
"%J 	c #C5BEBA",
"&J 	c #C7C1BD",
"*J 	c #B4AEAA",
"=J 	c #BCB5B0",
"-J 	c #86807E",
";J 	c #7F7B77",
">J 	c #68686C",
",J 	c #041A3B",
"'J 	c #031837",
")J 	c #021A3A",
"!J 	c #001936",
"~J 	c #011635",
"{J 	c #011838",
"]J 	c #021636",
"^J 	c #0F1F3C",
"/J 	c #081E2C",
"(J 	c #081E2E",
"_J 	c #062132",
":J 	c #062232",
"<J 	c #052335",
"[J 	c #052739",
"}J 	c #022538",
"|J 	c #203F50",
"1J 	c #0A2C3F",
"2J 	c #042C3F",
"3J 	c #043144",
"4J 	c #0C3244",
"5J 	c #003041",
"6J 	c #013142",
"7J 	c #3F4D58",
"8J 	c #47535C",
"9J 	c #435059",
"0J 	c #61666A",
"aJ 	c #5F656A",
"bJ 	c #717070",
"cJ 	c #232325",
"dJ 	c #171215",
"eJ 	c #101013",
"fJ 	c #0F0F12",
"gJ 	c #1D1516",
"hJ 	c #221716",
"iJ 	c #341B15",
"jJ 	c #3C1D17",
"kJ 	c #411E17",
"lJ 	c #3A1C16",
"mJ 	c #311A17",
"nJ 	c #2B1917",
"oJ 	c #401B17",
"pJ 	c #261515",
"qJ 	c #141011",
"rJ 	c #130F12",
"sJ 	c #141013",
"tJ 	c #171214",
"uJ 	c #3F312C",
"vJ 	c #665A55",
"wJ 	c #6B6767",
"xJ 	c #5C6570",
"yJ 	c #3F4955",
"zJ 	c #3D4654",
"AJ 	c #5B5052",
"BJ 	c #552F23",
"CJ 	c #4B2A22",
"DJ 	c #695753",
"EJ 	c #263749",
"FJ 	c #012741",
"GJ 	c #27374A",
"HJ 	c #132C43",
"IJ 	c #273648",
"JJ 	c #363B42",
"KJ 	c #423940",
"LJ 	c #33363F",
"MJ 	c #31373F",
"NJ 	c #575658",
"OJ 	c #97918D",
"PJ 	c #7E7977",
"QJ 	c #8D8985",
"RJ 	c #BDB5B1",
"SJ 	c #AEA7A3",
"TJ 	c #97938E",
"UJ 	c #A5A09B",
"VJ 	c #B8B2AD",
"WJ 	c #595859",
"XJ 	c #16181B",
"YJ 	c #7E7A7A",
"ZJ 	c #202D41",
"`J 	c #001C39",
" K 	c #01193A",
".K 	c #011836",
"+K 	c #001836",
"@K 	c #011839",
"#K 	c #0A1D2D",
"$K 	c #0A1E2E",
"%K 	c #091C2D",
"&K 	c #081D2E",
"*K 	c #091F30",
"=K 	c #072031",
"-K 	c #072233",
";K 	c #072335",
">K 	c #062436",
",K 	c #062537",
"'K 	c #06263A",
")K 	c #042539",
"!K 	c #05273B",
"~K 	c #05283B",
"{K 	c #06293C",
"]K 	c #04293C",
"^K 	c #032C3D",
"/K 	c #042D40",
"(K 	c #022D40",
"_K 	c #012D40",
":K 	c #032E41",
"<K 	c #2C3F4C",
"[K 	c #5D5C5D",
"}K 	c #858483",
"|K 	c #263D4B",
"1K 	c #1D3849",
"2K 	c #3A4A56",
"3K 	c #384855",
"4K 	c #6A6D70",
"5K 	c #4D565E",
"6K 	c #515A62",
"7K 	c #7A7A7B",
"8K 	c #737577",
"9K 	c #737475",
"0K 	c #5D5B5A",
"aK 	c #1A1316",
"bK 	c #221515",
"cK 	c #291815",
"dK 	c #341D17",
"eK 	c #3B1D15",
"fK 	c #652D19",
"gK 	c #B66329",
"hK 	c #CA6525",
"iK 	c #B44F1E",
"jK 	c #A7461A",
"kK 	c #8A3012",
"lK 	c #6D2813",
"mK 	c #482017",
"nK 	c #423430",
"oK 	c #846B60",
"pK 	c #957F74",
"qK 	c #937C72",
"rK 	c #4E545D",
"sK 	c #535861",
"tK 	c #585D65",
"uK 	c #49505B",
"vK 	c #3C4452",
"wK 	c #4E4344",
"xK 	c #36221F",
"yK 	c #3E3231",
"zK 	c #343F50",
"AK 	c #0F2E48",
"BK 	c #223950",
"CK 	c #393F49",
"DK 	c #3C363E",
"EK 	c #634240",
"FK 	c #383941",
"GK 	c #4B393A",
"HK 	c #30343D",
"IK 	c #312F33",
"JK 	c #2A2C32",
"KK 	c #625E5F",
"LK 	c #96908D",
"MK 	c #B3AEAA",
"NK 	c #A5A09C",
"OK 	c #C0BCB6",
"PK 	c #878583",
"QK 	c #BDB6B2",
"RK 	c #C1BAB6",
"SK 	c #B5AEAA",
"TK 	c #B3ACA8",
"UK 	c #B1AAA7",
"VK 	c #9F9894",
"WK 	c #76726F",
"XK 	c #98938F",
"YK 	c #646468",
"ZK 	c #011D39",
"`K 	c #021635",
" L 	c #0E1E3B",
".L 	c #0A1C2D",
"+L 	c #0A1D2E",
"@L 	c #082031",
"#L 	c #072235",
"$L 	c #062539",
"%L 	c #05253A",
"&L 	c #04253A",
"*L 	c #04273B",
"=L 	c #3D5666",
"-L 	c #112E40",
";L 	c #0F3042",
">L 	c #062A3C",
",L 	c #012C3D",
"'L 	c #022C3E",
")L 	c #022D3F",
"!L 	c #012C3F",
"~L 	c #002C3F",
"{L 	c #062E42",
"]L 	c #3B3B41",
"^L 	c #5A5F63",
"/L 	c #1D3748",
"(L 	c #283E4D",
"_L 	c #414F59",
":L 	c #46515A",
"<L 	c #273E4D",
"[L 	c #47535B",
"}L 	c #5C6268",
"|L 	c #807F7F",
"1L 	c #7A7775",
"2L 	c #A59689",
"3L 	c #CBA988",
"4L 	c #D9AD81",
"5L 	c #EDC594",
"6L 	c #EACB99",
"7L 	c #B16640",
"8L 	c #AE5128",
"9L 	c #8B391D",
"0L 	c #632716",
"aL 	c #4B1F14",
"bL 	c #80351B",
"cL 	c #904628",
"dL 	c #784B3B",
"eL 	c #7C6F6C",
"fL 	c #A3948F",
"gL 	c #897A74",
"hL 	c #716D6E",
"iL 	c #414B57",
"jL 	c #33404F",
"kL 	c #3F4A56",
"lL 	c #28394A",
"mL 	c #354454",
"nL 	c #152F44",
"oL 	c #2C3B4B",
"pL 	c #404853",
"qL 	c #323D4D",
"rL 	c #2F3B4B",
"sL 	c #03233E",
"tL 	c #292E37",
"uL 	c #323944",
"vL 	c #33373F",
"wL 	c #4C3538",
"xL 	c #703F34",
"yL 	c #25262C",
"zL 	c #202023",
"AL 	c #746F6E",
"BL 	c #B7B3AF",
"CL 	c #ADA8A5",
"DL 	c #C1BDB9",
"EL 	c #969492",
"FL 	c #2A2929",
"GL 	c #ACA5A2",
"HL 	c #B7AFAA",
"IL 	c #CCC5C1",
"JL 	c #BAB4AF",
"KL 	c #B0A9A5",
"LL 	c #BFB9B3",
"ML 	c #6F6D6B",
"NL 	c #A9A39F",
"OL 	c #9E9694",
"PL 	c #938E8C",
"QL 	c #4F505A",
"RL 	c #0B213F",
"SL 	c #021634",
"TL 	c #0E1F3B",
"UL 	c #0A1B2D",
"VL 	c #0B1E2F",
"WL 	c #071F30",
"XL 	c #062031",
"YL 	c #062134",
"ZL 	c #052439",
"`L 	c #032539",
" M 	c #274051",
".M 	c #092A3D",
"+M 	c #223F50",
"@M 	c #153445",
"#M 	c #394751",
"$M 	c #394551",
"%M 	c #002B3E",
"&M 	c #002D3F",
"*M 	c #1E3748",
"=M 	c #39434E",
"-M 	c #2B2C34",
";M 	c #8E8781",
">M 	c #444F58",
",M 	c #183547",
"'M 	c #344553",
")M 	c #1E394C",
"!M 	c #293F50",
"~M 	c #233C4D",
"{M 	c #3C4A56",
"]M 	c #646E76",
"^M 	c #63676C",
"/M 	c #747273",
"(M 	c #948881",
"_M 	c #C5AB93",
":M 	c #BD9173",
"<M 	c #E3B488",
"[M 	c #F2CC98",
"}M 	c #989077",
"|M 	c #35424C",
"1M 	c #8D624F",
"2M 	c #7F4B36",
"3M 	c #462117",
"4M 	c #311B16",
"5M 	c #251715",
"6M 	c #5E483F",
"7M 	c #655A55",
"8M 	c #534C4B",
"9M 	c #8F8280",
"0M 	c #7A7473",
"aM 	c #454D57",
"bM 	c #3B4450",
"cM 	c #323F4D",
"dM 	c #55575F",
"eM 	c #0E2D43",
"fM 	c #304252",
"gM 	c #243648",
"hM 	c #213649",
"iM 	c #163045",
"jM 	c #19374D",
"kM 	c #042740",
"lM 	c #092C44",
"mM 	c #02233D",
"nM 	c #3A3E44",
"oM 	c #343C45",
"pM 	c #3C393F",
"qM 	c #3C3537",
"rM 	c #36363C",
"sM 	c #513535",
"tM 	c #423537",
"uM 	c #4B4A4A",
"vM 	c #A6A09C",
"wM 	c #B7B1AD",
"xM 	c #AAA4A0",
"yM 	c #BBB6B4",
"zM 	c #656160",
"AM 	c #B1AAA6",
"BM 	c #C8C1BE",
"CM 	c #B7B0AC",
"DM 	c #C4BEBA",
"EM 	c #ABA4A1",
"FM 	c #A69E99",
"GM 	c #9E9592",
"HM 	c #646368",
"IM 	c #031A39",
"JM 	c #011534",
"KM 	c #091D2E",
"LM 	c #052234",
"MM 	c #042335",
"NM 	c #0A283C",
"OM 	c #203B4F",
"PM 	c #022539",
"QM 	c #012539",
"RM 	c #172F40",
"SM 	c #484F57",
"TM 	c #575D64",
"UM 	c #4D4D51",
"VM 	c #A9A09A",
"WM 	c #939596",
"XM 	c #032D3F",
"YM 	c #022B3F",
"ZM 	c #183444",
"`M 	c #3D454C",
" N 	c #153344",
".N 	c #012C44",
"+N 	c #022F46",
"@N 	c #294152",
"#N 	c #2F4353",
"$N 	c #434F59",
"%N 	c #2A3F4E",
"&N 	c #394955",
"*N 	c #4F5860",
"=N 	c #46535D",
"-N 	c #4B535C",
";N 	c #9D9289",
">N 	c #CBB09A",
",N 	c #D6AC87",
"'N 	c #EDC593",
")N 	c #DCC69B",
"!N 	c #535756",
"~N 	c #7D7569",
"{N 	c #D0B795",
"]N 	c #B49579",
"^N 	c #3D332E",
"/N 	c #1D1715",
"(N 	c #2A2422",
"_N 	c #383432",
":N 	c #4C4542",
"<N 	c #59595C",
"[N 	c #32414E",
"}N 	c #3A4754",
"|N 	c #2A3B4B",
"1N 	c #112F43",
"2N 	c #1B3345",
"3N 	c #1B3245",
"4N 	c #04293F",
"5N 	c #293748",
"6N 	c #625D5F",
"7N 	c #626165",
"8N 	c #04273F",
"9N 	c #01253D",
"0N 	c #052940",
"aN 	c #354150",
"bN 	c #2D353F",
"cN 	c #313942",
"dN 	c #3A3941",
"eN 	c #6C4036",
"fN 	c #523E3D",
"gN 	c #363539",
"hN 	c #33353B",
"iN 	c #2D3039",
"jN 	c #17181C",
"kN 	c #75726F",
"lN 	c #B4AEAB",
"mN 	c #B2AAA6",
"nN 	c #BEB6B1",
"oN 	c #AEA7A4",
"pN 	c #A29C97",
"qN 	c #A09B97",
"rN 	c #938F8D",
"sN 	c #D1CBC6",
"tN 	c #A59E9B",
"uN 	c #8F8987",
"vN 	c #001837",
"wN 	c #001635",
"xN 	c #0F1F3B",
"yN 	c #062335",
"zN 	c #06253A",
"AN 	c #04273C",
"BN 	c #3E5D6D",
"CN 	c #4B505A",
"DN 	c #7E7B7B",
"EN 	c #8D8580",
"FN 	c #C0B6AF",
"GN 	c #D0C8C0",
"HN 	c #6D7072",
"IN 	c #113142",
"JN 	c #1F3646",
"KN 	c #0A3148",
"LN 	c #033248",
"MN 	c #253E4F",
"NN 	c #16374B",
"ON 	c #163548",
"PN 	c #012E43",
"QN 	c #304351",
"RN 	c #3E4B57",
"SN 	c #3D4B57",
"TN 	c #364B59",
"UN 	c #AD9C8E",
"VN 	c #D6B99C",
"WN 	c #DDB892",
"XN 	c #DCC2A1",
"YN 	c #C3B097",
"ZN 	c #C0AA91",
"`N 	c #B7A28D",
" O 	c #AD9C86",
".O 	c #797571",
"+O 	c #474B4D",
"@O 	c #4B4C4F",
"#O 	c #4B4E53",
"$O 	c #61666C",
"%O 	c #303F4D",
"&O 	c #5E5C60",
"*O 	c #5B6067",
"=O 	c #112E43",
"-O 	c #183245",
";O 	c #243A4D",
">O 	c #44464C",
",O 	c #584D4B",
"'O 	c #8F8883",
")O 	c #02273E",
"!O 	c #02263C",
"~O 	c #02263D",
"{O 	c #333D4B",
"]O 	c #333B46",
"^O 	c #503E3E",
"/O 	c #39383F",
"(O 	c #37373C",
"_O 	c #403B41",
":O 	c #39373B",
"<O 	c #30353F",
"[O 	c #131418",
"}O 	c #252528",
"|O 	c #817D7C",
"1O 	c #AAA29E",
"2O 	c #A9A29D",
"3O 	c #BFB8B3",
"4O 	c #C0B9B5",
"5O 	c #AFA9A6",
"6O 	c #C0BBB8",
"7O 	c #CDC7C4",
"8O 	c #CAC5C1",
"9O 	c #746D6C",
"0O 	c #9B9592",
"aO 	c #A19995",
"bO 	c #424652",
"cO 	c #081C2D",
"dO 	c #061F30",
"eO 	c #052438",
"fO 	c #042438",
"gO 	c #04263A",
"hO 	c #03253B",
"iO 	c #283A49",
"jO 	c #4F5760",
"kO 	c #4E535B",
"lO 	c #646060",
"mO 	c #AAA39D",
"nO 	c #A0968F",
"oO 	c #CAC2BA",
"pO 	c #B7B3AE",
"qO 	c #122F41",
"rO 	c #012B3F",
"sO 	c #012B3E",
"tO 	c #072E41",
"uO 	c #022D44",
"vO 	c #15344A",
"wO 	c #013147",
"xO 	c #013045",
"yO 	c #012D43",
"zO 	c #1C3749",
"AO 	c #324857",
"BO 	c #465561",
"CO 	c #2E4050",
"DO 	c #4A545D",
"EO 	c #344452",
"FO 	c #51565C",
"GO 	c #68686A",
"HO 	c #746E6B",
"IO 	c #B8A593",
"JO 	c #A79486",
"KO 	c #9F9083",
"LO 	c #928377",
"MO 	c #9A8D84",
"NO 	c #3B4853",
"OO 	c #354350",
"PO 	c #243C4F",
"QO 	c #324453",
"RO 	c #314352",
"SO 	c #4B5059",
"TO 	c #515458",
"UO 	c #4C5158",
"VO 	c #183145",
"WO 	c #193244",
"XO 	c #02293F",
"YO 	c #113146",
"ZO 	c #052A40",
"`O 	c #2A3848",
" P 	c #5F5C60",
".P 	c #03273E",
"+P 	c #01243B",
"@P 	c #353E48",
"#P 	c #353C44",
"$P 	c #4A3A3B",
"%P 	c #373D45",
"&P 	c #3E3A3F",
"*P 	c #2F3640",
"=P 	c #111218",
"-P 	c #615E5D",
";P 	c #C7C0BB",
">P 	c #BBB5B1",
",P 	c #BAB4B1",
"'P 	c #B1ABA8",
")P 	c #B2ABA9",
"!P 	c #B4ADA9",
"~P 	c #D2CEC9",
"{P 	c #C6C0BD",
"]P 	c #9F9895",
"^P 	c #8F8A88",
"/P 	c #55565E",
"(P 	c #001A38",
"_P 	c #011634",
":P 	c #0B1C2E",
"<P 	c #081C2C",
"[P 	c #061E2F",
"}P 	c #062133",
"|P 	c #062234",
"1P 	c #042337",
"2P 	c #042538",
"3P 	c #042639",
"4P 	c #022639",
"5P 	c #48525D",
"6P 	c #4E5660",
"7P 	c #33373E",
"8P 	c #3C3C3E",
"9P 	c #877F7B",
"0P 	c #BAB0A9",
"aP 	c #C5BCB5",
"bP 	c #D1CCC4",
"cP 	c #63676B",
"dP 	c #02293E",
"eP 	c #012A3E",
"fP 	c #00283C",
"gP 	c #012B40",
"hP 	c #022D42",
"iP 	c #203849",
"jP 	c #0B3042",
"kP 	c #022C41",
"lP 	c #27465B",
"mP 	c #052D43",
"nP 	c #1C364A",
"oP 	c #143146",
"pP 	c #3F505D",
"qP 	c #1E3645",
"rP 	c #53595F",
"sP 	c #4A535A",
"tP 	c #797471",
"uP 	c #8D857F",
"vP 	c #6D6D6F",
"wP 	c #625A59",
"xP 	c #53413D",
"yP 	c #A5978E",
"zP 	c #6B6B6D",
"AP 	c #1A3246",
"BP 	c #052B42",
"CP 	c #173045",
"DP 	c #1C3346",
"EP 	c #364250",
"FP 	c #042A40",
"GP 	c #54555A",
"HP 	c #35414E",
"IP 	c #0C2B41",
"JP 	c #03283F",
"KP 	c #01273B",
"LP 	c #01273D",
"MP 	c #03273C",
"NP 	c #02273A",
"OP 	c #03263D",
"PP 	c #02263E",
"QP 	c #223447",
"RP 	c #3C444D",
"SP 	c #363F48",
"TP 	c #353B45",
"UP 	c #38414B",
"VP 	c #272C35",
"WP 	c #101016",
"XP 	c #585455",
"YP 	c #9E9997",
"ZP 	c #C0BAB4",
"`P 	c #C2BBB7",
" Q 	c #C1BBB8",
".Q 	c #C2BCB7",
"+Q 	c #A59F9D",
"@Q 	c #A5A19F",
"#Q 	c #C9C5C2",
"$Q 	c #CBC5C2",
"%Q 	c #A8A29F",
"&Q 	c #67656A",
"*Q 	c #011533",
"=Q 	c #061D2E",
"-Q 	c #061E30",
";Q 	c #052032",
">Q 	c #052538",
",Q 	c #042437",
"'Q 	c #3F4953",
")Q 	c #3A3E46",
"!Q 	c #2A2A2F",
"~Q 	c #817873",
"{Q 	c #C4BCB4",
"]Q 	c #CEC7BE",
"^Q 	c #103348",
"/Q 	c #0A2B3F",
"(Q 	c #01283D",
"_Q 	c #022A3E",
":Q 	c #01293D",
"<Q 	c #092C40",
"[Q 	c #012A40",
"}Q 	c #0D3145",
"|Q 	c #0D2E43",
"1Q 	c #133247",
"2Q 	c #032C42",
"3Q 	c #1B3545",
"4Q 	c #34444F",
"5Q 	c #3B4852",
"6Q 	c #555A5F",
"7Q 	c #1C3649",
"8Q 	c #5A5657",
"9Q 	c #483735",
"0Q 	c #7B6C65",
"aQ 	c #7E7979",
"bQ 	c #233748",
"cQ 	c #122E44",
"dQ 	c #334354",
"eQ 	c #143248",
"fQ 	c #2F3D4C",
"gQ 	c #676061",
"hQ 	c #8C756D",
"iQ 	c #A28B7F",
"jQ 	c #A29791",
"kQ 	c #4F535B",
"lQ 	c #142D41",
"mQ 	c #01253A",
"nQ 	c #02263B",
"oQ 	c #03263A",
"pQ 	c #02253E",
"qQ 	c #02253D",
"rQ 	c #3A4553",
"sQ 	c #38414D",
"tQ 	c #313842",
"uQ 	c #313741",
"vQ 	c #20252D",
"wQ 	c #242B35",
"xQ 	c #181C23",
"yQ 	c #191A1D",
"zQ 	c #B5AFAA",
"AQ 	c #CEC8C1",
"BQ 	c #A9A5A2",
"CQ 	c #5C5959",
"DQ 	c #A9A4A2",
"EQ 	c #AEA8A5",
"FQ 	c #A49F9D",
"GQ 	c #212B41",
"HQ 	c #011835",
"IQ 	c #091A2C",
"JQ 	c #071C2D",
"KQ 	c #061C2D",
"LQ 	c #071D2F",
"MQ 	c #061F32",
"NQ 	c #052133",
"OQ 	c #062337",
"PQ 	c #032437",
"QQ 	c #032336",
"RQ 	c #09293C",
"SQ 	c #022338",
"TQ 	c #2C3A47",
"UQ 	c #33373D",
"VQ 	c #654134",
"WQ 	c #675E5A",
"XQ 	c #928D88",
"YQ 	c #53575E",
"ZQ 	c #04283E",
"`Q 	c #02283D",
" R 	c #01273C",
".R 	c #243E4F",
"+R 	c #03283D",
"@R 	c #02273C",
"#R 	c #032A40",
"$R 	c #022A41",
"%R 	c #032C40",
"&R 	c #2C3E4D",
"*R 	c #032C41",
"=R 	c #042D42",
"-R 	c #1A3446",
";R 	c #183344",
">R 	c #223847",
",R 	c #1D3546",
"'R 	c #3E4A53",
")R 	c #223646",
"!R 	c #0F3247",
"~R 	c #474C54",
"{R 	c #3D3738",
"]R 	c #4A3C39",
"^R 	c #5D5F64",
"/R 	c #032940",
"(R 	c #102D43",
"_R 	c #223749",
":R 	c #5E595C",
"<R 	c #625553",
"[R 	c #6F5D5A",
"}R 	c #9A7366",
"|R 	c #A69E98",
"1R 	c #3E4652",
"2R 	c #02253B",
"3R 	c #04243B",
"4R 	c #0C2B43",
"5R 	c #02243C",
"6R 	c #343F4D",
"7R 	c #373F48",
"8R 	c #39444F",
"9R 	c #1F232A",
"0R 	c #171B21",
"aR 	c #181B21",
"bR 	c #13151B",
"cR 	c #111318",
"dR 	c #121419",
"eR 	c #121319",
"fR 	c #302E2F",
"gR 	c #706D6B",
"hR 	c #62605F",
"iR 	c #333234",
"jR 	c #4D4B4C",
"kR 	c #454750",
"lR 	c #021632",
"mR 	c #0F1F3A",
"nR 	c #091B2D",
"oR 	c #061B2C",
"pR 	c #071D30",
"qR 	c #071E32",
"rR 	c #061F33",
"sR 	c #052237",
"tR 	c #032338",
"uR 	c #343F4A",
"vR 	c #292B33",
"wR 	c #2F3036",
"xR 	c #7C7670",
"yR 	c #706967",
"zR 	c #4A4F57",
"AR 	c #0A2D42",
"BR 	c #03293E",
"CR 	c #04293E",
"DR 	c #04283D",
"ER 	c #132D41",
"FR 	c #1E3447",
"GR 	c #0A3145",
"HR 	c #082C3F",
"IR 	c #052A3E",
"JR 	c #082B3E",
"KR 	c #313F4C",
"LR 	c #092C3F",
"MR 	c #10344A",
"NR 	c #03293F",
"OR 	c #3E4752",
"PR 	c #0B3046",
"QR 	c #103349",
"RR 	c #0A2940",
"SR 	c #5C5B61",
"TR 	c #605859",
"UR 	c #5D5151",
"VR 	c #464142",
"WR 	c #524D4D",
"XR 	c #7B6E69",
"YR 	c #928A86",
"ZR 	c #696A6E",
"`R 	c #0B293D",
" S 	c #01233B",
".S 	c #02243A",
"+S 	c #042439",
"@S 	c #08263D",
"#S 	c #18334A",
"$S 	c #02233C",
"%S 	c #03233C",
"&S 	c #404751",
"*S 	c #12141A",
"=S 	c #13151A",
"-S 	c #363638",
";S 	c #3D3D40",
">S 	c #1D1E22",
",S 	c #212022",
"'S 	c #524D4C",
")S 	c #4A4B50",
"!S 	c #293143",
"~S 	c #001733",
"{S 	c #021631",
"]S 	c #0E1F38",
"^S 	c #071B2D",
"/S 	c #051B2C",
"(S 	c #061C2E",
"_S 	c #081E32",
":S 	c #062237",
"<S 	c #032236",
"[S 	c #38414C",
"}S 	c #032339",
"|S 	c #303A47",
"1S 	c #3B424B",
"2S 	c #2E3540",
"3S 	c #4B4C53",
"4S 	c #253645",
"5S 	c #03263C",
"6S 	c #03273D",
"7S 	c #323E4B",
"8S 	c #1B3043",
"9S 	c #02273D",
"0S 	c #092A41",
"aS 	c #1C3B52",
"bS 	c #052A41",
"cS 	c #1A3143",
"dS 	c #102E40",
"eS 	c #153142",
"fS 	c #0D3347",
"gS 	c #02293D",
"hS 	c #082D40",
"iS 	c #01293E",
"jS 	c #042A41",
"kS 	c #32414F",
"lS 	c #142F44",
"mS 	c #172E43",
"nS 	c #515259",
"oS 	c #544D51",
"pS 	c #534443",
"qS 	c #4B3F3F",
"rS 	c #4C4848",
"sS 	c #726864",
"tS 	c #938B84",
"uS 	c #69686C",
"vS 	c #04263E",
"wS 	c #06253D",
"xS 	c #0F2B44",
"yS 	c #40444D",
"zS 	c #13141A",
"AS 	c #14151A",
"BS 	c #343336",
"CS 	c #2F2E2E",
"DS 	c #595755",
"ES 	c #5E5D62",
"FS 	c #172741",
"GS 	c #001735",
"HS 	c #011833",
"IS 	c #021731",
"JS 	c #0F1F38",
"KS 	c #08192B",
"LS 	c #071A2D",
"MS 	c #081B2E",
"NS 	c #081B2F",
"OS 	c #213143",
"PS 	c #15273A",
"QS 	c #071D32",
"RS 	c #051D32",
"SS 	c #051E32",
"TS 	c #062135",
"US 	c #042035",
"VS 	c #112C3F",
"WS 	c #082639",
"XS 	c #032235",
"YS 	c #032439",
"ZS 	c #04233C",
"`S 	c #002639",
" T 	c #01253B",
".T 	c #02253A",
"+T 	c #012639",
"@T 	c #0E2F42",
"#T 	c #283747",
"$T 	c #0B2A3F",
"%T 	c #213445",
"&T 	c #1A3043",
"*T 	c #04273D",
"=T 	c #03253E",
"-T 	c #04263F",
";T 	c #474D58",
">T 	c #434044",
",T 	c #3E3B3E",
"'T 	c #3B3538",
")T 	c #423F42",
"!T 	c #9D958E",
"~T 	c #494C53",
"{T 	c #03243D",
"]T 	c #03243C",
"^T 	c #05253B",
"/T 	c #06253B",
"(T 	c #05233B",
"_T 	c #04223C",
":T 	c #05243D",
"<T 	c #2D3746",
"[T 	c #333941",
"}T 	c #373A40",
"|T 	c #35373C",
"1T 	c #484746",
"2T 	c #605F60",
"3T 	c #484B53",
"4T 	c #011834",
"5T 	c #011935",
"6T 	c #001737",
"7T 	c #001833",
"8T 	c #011734",
"9T 	c #011531",
"0T 	c #031732",
"aT 	c #091B2F",
"bT 	c #061A2E",
"cT 	c #0B1F33",
"dT 	c #071C31",
"eT 	c #061C31",
"fT 	c #041C30",
"gT 	c #072236",
"hT 	c #062136",
"iT 	c #052136",
"jT 	c #072337",
"kT 	c #1B2F45",
"lT 	c #32475D",
"mT 	c #05243A",
"nT 	c #2A3946",
"oT 	c #113144",
"pT 	c #07293D",
"qT 	c #273747",
"rT 	c #39424D",
"sT 	c #263647",
"tT 	c #223445",
"uT 	c #676B6E",
"vT 	c #05293F",
"wT 	c #152E42",
"xT 	c #03283E",
"yT 	c #142E41",
"zT 	c #05273E",
"AT 	c #484E58",
"BT 	c #3E3C41",
"CT 	c #3A393E",
"DT 	c #353438",
"ET 	c #363339",
"FT 	c #7F7975",
"GT 	c #756F6D",
"HT 	c #03233A",
"IT 	c #05233C",
"JT 	c #04233B",
"KT 	c #353F4F",
"LT 	c #6F6C6F",
"MT 	c #6A696D",
"NT 	c #1F2E42",
"OT 	c #04223B",
"PT 	c #05223A",
"QT 	c #052139",
"RT 	c #042038",
"ST 	c #031F37",
"TT 	c #313B49",
"UT 	c #383A3F",
"VT 	c #17191E",
"WT 	c #1C2027",
"XT 	c #14161B",
"YT 	c #16171D",
"ZT 	c #17181E",
"`T 	c #181A21",
" U 	c #252527",
".U 	c #525155",
"+U 	c #242D40",
"@U 	c #011A36",
"#U 	c #001834",
"$U 	c #001633",
"%U 	c #001531",
"&U 	c #041833",
"*U 	c #081A2E",
"=U 	c #091C30",
"-U 	c #051B30",
";U 	c #041C31",
">U 	c #052035",
",U 	c #072237",
"'U 	c #0A2439",
")U 	c #1A3348",
"!U 	c #06243A",
"~U 	c #0C3048",
"{U 	c #0D3149",
"]U 	c #04253B",
"^U 	c #0D2C3F",
"/U 	c #303D4A",
"(U 	c #585A60",
"_U 	c #6F6A6B",
":U 	c #BDB6B1",
"<U 	c #76777A",
"[U 	c #293746",
"}U 	c #4F5255",
"|U 	c #233647",
"1U 	c #04273E",
"2U 	c #06283D",
"3U 	c #05273D",
"4U 	c #06293F",
"5U 	c #05263D",
"6U 	c #133248",
"7U 	c #05253C",
"8U 	c #37404E",
"9U 	c #41454D",
"0U 	c #44454A",
"aU 	c #253343",
"bU 	c #042338",
"cU 	c #072339",
"dU 	c #2B3746",
"eU 	c #55575A",
"fU 	c #888380",
"gU 	c #9D9692",
"hU 	c #A29B98",
"iU 	c #989393",
"jU 	c #1A2A3E",
"kU 	c #06223A",
"lU 	c #041F37",
"mU 	c #021D36",
"nU 	c #2B3547",
"oU 	c #3A3E47",
"pU 	c #16191F",
"qU 	c #1A1B1E",
"rU 	c #424140",
"sU 	c #4C4C50",
"tU 	c #333946",
"uU 	c #2B303C",
"vU 	c #1A2130",
"wU 	c #383C45",
"xU 	c #3F434D",
"yU 	c #001734",
"zU 	c #001632",
"AU 	c #081A2D",
"BU 	c #051A2F",
"CU 	c #061B30",
"DU 	c #051D31",
"EU 	c #041D31",
"FU 	c #062034",
"GU 	c #062035",
"HU 	c #042136",
"IU 	c #022335",
"JU 	c #0A2F45",
"KU 	c #3E7086",
"LU 	c #3C7087",
"MU 	c #0D3048",
"NU 	c #07283C",
"OU 	c #11293D",
"PU 	c #3B454F",
"QU 	c #484951",
"RU 	c #3B3C44",
"SU 	c #6D6663",
"TU 	c #9D938D",
"UU 	c #BBB3AC",
"VU 	c #D1CAC3",
"WU 	c #CBC3BD",
"XU 	c #646569",
"YU 	c #0A2D43",
"ZU 	c #2C3C4E",
"`U 	c #4D535D",
" V 	c #182F42",
".V 	c #08293E",
"+V 	c #07273B",
"@V 	c #06273D",
"#V 	c #08293F",
"$V 	c #06273E",
"%V 	c #06263C",
"&V 	c #07273C",
"*V 	c #06263B",
"=V 	c #08283E",
"-V 	c #07263B",
";V 	c #182A3C",
">V 	c #4A4C52",
",V 	c #706D6D",
"'V 	c #958E8A",
")V 	c #B3ADA7",
"!V 	c #7E7A7B",
"~V 	c #08243A",
"{V 	c #052038",
"]V 	c #051F38",
"^V 	c #041E37",
"/V 	c #021D35",
"(V 	c #031D36",
"_V 	c #021C35",
":V 	c #2E3643",
"<V 	c #363B43",
"[V 	c #2C2E31",
"}V 	c #2B2B2D",
"|V 	c #444649",
"1V 	c #444852",
"2V 	c #021D3B",
"3V 	c #001A35",
"4V 	c #001934",
"5V 	c #021733",
"6V 	c #011633",
"7V 	c #021835",
"8V 	c #021734",
"9V 	c #001532",
"0V 	c #072036",
"aV 	c #041F34",
"bV 	c #032238",
"cV 	c #092C45",
"dV 	c #3A6B85",
"eV 	c #386C85",
"fV 	c #0B2D45",
"gV 	c #333F4B",
"hV 	c #4E4C50",
"iV 	c #43383C",
"jV 	c #2F3239",
"kV 	c #292B32",
"lV 	c #6B6461",
"mV 	c #988E88",
"nV 	c #C5BCB7",
"oV 	c #BCB3AD",
"pV 	c #66666A",
"qV 	c #182C40",
"rV 	c #04263C",
"sV 	c #3A4856",
"tV 	c #454B53",
"uV 	c #5D6167",
"vV 	c #06273A",
"wV 	c #07273D",
"xV 	c #06263D",
"yV 	c #182D42",
"zV 	c #07263C",
"AV 	c #404955",
"BV 	c #434B56",
"CV 	c #3E444D",
"DV 	c #343840",
"EV 	c #2D3035",
"FV 	c #8E8885",
"GV 	c #A29A95",
"HV 	c #89817C",
"IV 	c #8E8987",
"JV 	c #53565C",
"KV 	c #323A48",
"LV 	c #051D37",
"MV 	c #051E38",
"NV 	c #17253B",
"OV 	c #343B49",
"PV 	c #343B4A",
"QV 	c #16263D",
"RV 	c #011C3A",
"SV 	c #041733",
"TV 	c #061935",
"UV 	c #011532",
"VV 	c #011632",
"WV 	c #07192C",
"XV 	c #091A2E",
"YV 	c #071A2E",
"ZV 	c #051C31",
"`V 	c #061D32",
" W 	c #061F34",
".W 	c #062036",
"+W 	c #122B40",
"@W 	c #052137",
"#W 	c #082338",
"$W 	c #3E434B",
"%W 	c #6D6D70",
"&W 	c #0C2C44",
"*W 	c #10283B",
"=W 	c #3D363A",
"-W 	c #2F2D31",
";W 	c #22242C",
">W 	c #262830",
",W 	c #464343",
"'W 	c #89827E",
")W 	c #D7D1CC",
"!W 	c #C8C1B9",
"~W 	c #B2A8A0",
"{W 	c #06273C",
"]W 	c #2A3746",
"^W 	c #243545",
"/W 	c #05263C",
"(W 	c #686665",
"_W 	c #686A6E",
":W 	c #0A2840",
"<W 	c #17334A",
"[W 	c #06273F",
"}W 	c #0B2840",
"|W 	c #1E3750",
"1W 	c #0F2C47",
"2W 	c #06243D",
"3W 	c #09253B",
"4W 	c #09243A",
"5W 	c #09233A",
"6W 	c #072439",
"7W 	c #0A273C",
"8W 	c #09263E",
"9W 	c #062239",
"0W 	c #08223A",
"aW 	c #2E3A4C",
"bW 	c #424A56",
"cW 	c #49474A",
"dW 	c #544E4D",
"eW 	c #757173",
"fW 	c #051D35",
"gW 	c #061D36",
"hW 	c #1C293C",
"iW 	c #202A3B",
"jW 	c #3A414E",
"kW 	c #061C36",
"lW 	c #051B35",
"mW 	c #031934",
"nW 	c #041A35",
"oW 	c #021B36",
"pW 	c #011934",
"qW 	c #011933",
"rW 	c #001933",
"sW 	c #001832",
"tW 	c #081A37",
"uW 	c #253650",
"vW 	c #011431",
"wW 	c #021533",
"xW 	c #021532",
"yW 	c #08192D",
"zW 	c #071B2F",
"AW 	c #062137",
"BW 	c #062138",
"CW 	c #535458",
"DW 	c #092539",
"EW 	c #24262E",
"FW 	c #4A4545",
"GW 	c #433F3D",
"HW 	c #C6BDB8",
"IW 	c #CCC5BF",
"JW 	c #C4BCB5",
"KW 	c #9D948E",
"LW 	c #D3CCC5",
"MW 	c #9C9896",
"NW 	c #303B48",
"OW 	c #2F3A48",
"PW 	c #3A3F45",
"QW 	c #1D2E40",
"RW 	c #07253A",
"SW 	c #08243C",
"TW 	c #07263D",
"UW 	c #08253C",
"VW 	c #09253C",
"WW 	c #3A4454",
"XW 	c #696A71",
"YW 	c #767375",
"ZW 	c #10263B",
"`W 	c #0A223A",
" X 	c #0A2339",
".X 	c #092439",
"+X 	c #07243A",
"@X 	c #072238",
"#X 	c #092339",
"$X 	c #2F3A4B",
"%X 	c #414955",
"&X 	c #272D36",
"*X 	c #48515E",
"=X 	c #373D46",
"-X 	c #3D3E43",
";X 	c #827C7A",
">X 	c #898281",
",X 	c #98928E",
"'X 	c #69676A",
")X 	c #636267",
"!X 	c #071D35",
"~X 	c #162439",
"{X 	c #051C34",
"]X 	c #061B36",
"^X 	c #3A4049",
"/X 	c #2B3242",
"(X 	c #031935",
"_X 	c #031A35",
":X 	c #021A34",
"<X 	c #001731",
"[X 	c #011832",
"}X 	c #031633",
"|X 	c #031634",
"1X 	c #021432",
"2X 	c #011432",
"3X 	c #07182C",
"4X 	c #051E31",
"5X 	c #052033",
"6X 	c #052034",
"7X 	c #072138",
"8X 	c #0C243D",
"9X 	c #193048",
"0X 	c #072338",
"aX 	c #062238",
"bX 	c #153246",
"cX 	c #052338",
"dX 	c #495159",
"eX 	c #36262A",
"fX 	c #262126",
"gX 	c #202027",
"hX 	c #24242A",
"iX 	c #494647",
"jX 	c #6B6563",
"kX 	c #928884",
"lX 	c #BBB4AF",
"mX 	c #BAB1AA",
"nX 	c #D8D0C9",
"oX 	c #E2DBD4",
"pX 	c #7C7C7D",
"qX 	c #0F283C",
"rX 	c #1C2F40",
"sX 	c #062439",
"tX 	c #1D2F43",
"uX 	c #11263B",
"vX 	c #0A253B",
"wX 	c #1D2F42",
"xX 	c #0F293F",
"yX 	c #3B4655",
"zX 	c #474D59",
"AX 	c #3E4046",
"BX 	c #96918D",
"CX 	c #8A8582",
"DX 	c #0B2239",
"EX 	c #0C2238",
"FX 	c #0A223B",
"GX 	c #08213A",
"HX 	c #09223B",
"IX 	c #4B5360",
"JX 	c #3A434E",
"KX 	c #27292F",
"LX 	c #4D4A4A",
"MX 	c #837B79",
"NX 	c #958F8D",
"OX 	c #8C8786",
"PX 	c #353A48",
"QX 	c #081E36",
"RX 	c #061C34",
"SX 	c #061C35",
"TX 	c #061B34",
"UX 	c #071C35",
"VX 	c #222C3E",
"WX 	c #051A34",
"XX 	c #051934",
"YX 	c #0B1F39",
"ZX 	c #041934",
"`X 	c #021833",
" Y 	c #011732",
".Y 	c #021832",
"+Y 	c #031933",
"@Y 	c #021834",
"#Y 	c #001431",
"$Y 	c #031533",
"%Y 	c #07192D",
"&Y 	c #071B30",
"*Y 	c #061E32",
"=Y 	c #041F31",
"-Y 	c #052036",
";Y 	c #072137",
">Y 	c #343D48",
",Y 	c #292D35",
"'Y 	c #2A272C",
")Y 	c #6A3425",
"!Y 	c #3C2826",
"~Y 	c #383637",
"{Y 	c #6E6665",
"]Y 	c #7B7370",
"^Y 	c #7A736F",
"/Y 	c #C6BDB6",
"(Y 	c #C4BAB2",
"_Y 	c #D9D1CA",
":Y 	c #C4C0BB",
"<Y 	c #09243B",
"[Y 	c #0C243C",
"}Y 	c #0B233B",
"|Y 	c #09233B",
"1Y 	c #07243C",
"2Y 	c #4F5765",
"3Y 	c #444B56",
"4Y 	c #32343B",
"5Y 	c #6D6968",
"6Y 	c #0D223A",
"7Y 	c #0D2237",
"8Y 	c #102439",
"9Y 	c #0D233A",
"0Y 	c #0D2239",
"aY 	c #0B223A",
"bY 	c #0B243E",
"cY 	c #4C5361",
"dY 	c #444E5B",
"eY 	c #22252C",
"fY 	c #1E2128",
"gY 	c #494546",
"hY 	c #837C79",
"iY 	c #958E89",
"jY 	c #4A4A52",
"kY 	c #091D36",
"lY 	c #071B34",
"mY 	c #081D35",
"nY 	c #081C35",
"oY 	c #061A33",
"pY 	c #051A33",
"qY 	c #061A34",
"rY 	c #061A35",
"sY 	c #031833",
"tY 	c #011631",
"uY 	c #001432",
"vY 	c #051E33",
"wY 	c #13293E",
"xY 	c #061F37",
"yY 	c #061E36",
"zY 	c #082137",
"AY 	c #051F36",
"BY 	c #40464E",
"CY 	c #333137",
"DY 	c #522F27",
"EY 	c #9A563A",
"FY 	c #585252",
"GY 	c #7E7571",
"HY 	c #958D88",
"IY 	c #79706C",
"JY 	c #B3A8A0",
"KY 	c #C6BEB5",
"LY 	c #C6BDB4",
"MY 	c #AFABA8",
"NY 	c #0A243B",
"OY 	c #0A233A",
"PY 	c #0F263E",
"QY 	c #0A233B",
"RY 	c #0A243A",
"SY 	c #5C6571",
"TY 	c #34343A",
"UY 	c #6F6C69",
"VY 	c #89817E",
"WY 	c #868280",
"XY 	c #0E2236",
"YY 	c #0B2237",
"ZY 	c #0A2239",
"`Y 	c #0C2339",
" Z 	c #424C5B",
".Z 	c #4A5461",
"+Z 	c #615C5A",
"@Z 	c #918A85",
"#Z 	c #86807F",
"$Z 	c #0A1D36",
"%Z 	c #051A32",
"&Z 	c #041931",
"*Z 	c #041932",
"=Z 	c #041A32",
"-Z 	c #021633",
";Z 	c #071937",
">Z 	c #011331",
",Z 	c #001331",
"'Z 	c #06182C",
")Z 	c #06192E",
"!Z 	c #061A2F",
"~Z 	c #061C32",
"{Z 	c #061D34",
"]Z 	c #051D34",
"^Z 	c #12263D",
"/Z 	c #0F2136",
"(Z 	c #061E35",
"_Z 	c #061F35",
":Z 	c #082037",
"<Z 	c #0F273E",
"[Z 	c #082239",
"}Z 	c #072239",
"|Z 	c #414751",
"1Z 	c #464148",
"2Z 	c #84432A",
"3Z 	c #5F3328",
"4Z 	c #4A2D2A",
"5Z 	c #746E6D",
"6Z 	c #696362",
"7Z 	c #9F9691",
"8Z 	c #A89D96",
"9Z 	c #CEC5BE",
"0Z 	c #D3CBC4",
"aZ 	c #C6BDB5",
"bZ 	c #B7AFA8",
"cZ 	c #616266",
"dZ 	c #09243D",
"eZ 	c #07253D",
"fZ 	c #3E6070",
"gZ 	c #0D263D",
"hZ 	c #122940",
"iZ 	c #2B3647",
"jZ 	c #353C49",
"kZ 	c #373E4B",
"lZ 	c #0D2439",
"mZ 	c #515864",
"nZ 	c #3C424D",
"oZ 	c #25272D",
"pZ 	c #393639",
"qZ 	c #7A7573",
"rZ 	c #9F9993",
"sZ 	c #0D2238",
"tZ 	c #0A243C",
"uZ 	c #465A70",
"vZ 	c #122841",
"wZ 	c #0C233E",
"xZ 	c #253348",
"yZ 	c #3E434E",
"zZ 	c #23252D",
"AZ 	c #2F2F33",
"BZ 	c #9A928E",
"CZ 	c #0B1D36",
"DZ 	c #0A1C35",
"EZ 	c #192A42",
"FZ 	c #091C34",
"GZ 	c #091B34",
"HZ 	c #081A33",
"IZ 	c #061A32",
"JZ 	c #031831",
"KZ 	c #071A34",
"LZ 	c #061934",
"MZ 	c #041732",
"NZ 	c #041731",
"OZ 	c #031630",
"PZ 	c #031731",
"QZ 	c #071B37",
"RZ 	c #031632",
"SZ 	c #081B37",
"TZ 	c #021531",
"UZ 	c #001330",
"VZ 	c #001430",
"WZ 	c #011430",
"XZ 	c #021430",
"YZ 	c #09182D",
"ZZ 	c #08192F",
"`Z 	c #081A30",
" ` 	c #071A2F",
".` 	c #081D34",
"+` 	c #0B1F35",
"@` 	c #0F2237",
"#` 	c #072034",
"$` 	c #071F36",
"%` 	c #082039",
"&` 	c #193047",
"*` 	c #062037",
"=` 	c #323C4A",
"-` 	c #343D47",
";` 	c #353D47",
">` 	c #464149",
",` 	c #453434",
"'` 	c #27262C",
")` 	c #242429",
"!` 	c #2F2E31",
"~` 	c #817B79",
"{` 	c #716B69",
"]` 	c #6E6663",
"^` 	c #958E88",
"/` 	c #D5CDC7",
"(` 	c #CCC3BC",
"_` 	c #C2BAB3",
":` 	c #0E2540",
"<` 	c #092340",
"[` 	c #234A5E",
"}` 	c #0B233C",
"|` 	c #2B374B",
"1` 	c #0F253C",
"2` 	c #0F253A",
"3` 	c #0F2439",
"4` 	c #4B4F57",
"5` 	c #2C313B",
"6` 	c #25262B",
"7` 	c #3E3433",
"8` 	c #979087",
"9` 	c #4F5158",
"0` 	c #10243A",
"a` 	c #0F233B",
"b` 	c #11253C",
"c` 	c #0E233A",
"d` 	c #0E223A",
"e` 	c #0E233B",
"f` 	c #2D3544",
"g` 	c #414247",
"h` 	c #3C3E43",
"i` 	c #52535B",
"j` 	c #0C1E36",
"k` 	c #333947",
"l` 	c #41464F",
"m` 	c #807F7C",
"n` 	c #5B5B61",
"o` 	c #132037",
"p` 	c #0C1C35",
"q` 	c #0A1A33",
"r` 	c #091932",
"s` 	c #081933",
"t` 	c #091A34",
"u` 	c #0C1C38",
"v` 	c #061733",
"w` 	c #061732",
"x` 	c #051630",
"y` 	c #04162E",
"z` 	c #031730",
"A` 	c #011530",
"B` 	c #01152F",
"C` 	c #00142F",
"D` 	c #00142E",
"E` 	c #01142D",
"F` 	c #02142E",
"G` 	c #081E35",
"H` 	c #071E33",
"I` 	c #061E33",
"J` 	c #071F37",
"K` 	c #122B41",
"L` 	c #343E4C",
"M` 	c #303944",
"N` 	c #262A33",
"O` 	c #2B2C31",
"P` 	c #3B3A3D",
"Q` 	c #343335",
"R` 	c #323032",
"S` 	c #67605F",
"T` 	c #78716D",
"U` 	c #BBB1AA",
"V` 	c #6E6661",
"W` 	c #B1A7A1",
"X` 	c #A39D98",
"Y` 	c #0B243A",
"Z` 	c #112840",
"`` 	c #122944",
"  .	c #172D46",
". .	c #11283F",
"+ .	c #10263E",
"@ .	c #182D45",
"# .	c #0F2338",
"$ .	c #102438",
"% .	c #283342",
"& .	c #40444F",
"* .	c #2B2D33",
"= .	c #565352",
"- .	c #6B6A6B",
"; .	c #18283A",
"> .	c #122338",
", .	c #122439",
"' .	c #102237",
") .	c #10233A",
"! .	c #102239",
"~ .	c #19263C",
"{ .	c #333A47",
"] .	c #343843",
"^ .	c #3D424D",
"/ .	c #172338",
"( .	c #112036",
"_ .	c #0E1E34",
": .	c #0F1E35",
"< .	c #3A3F4B",
"[ .	c #3C4049",
"} .	c #827E7A",
"| .	c #7B7571",
"1 .	c #A7A19E",
"2 .	c #726F71",
"3 .	c #1F273B",
"4 .	c #0F1E37",
"5 .	c #0C1C34",
"6 .	c #081831",
"7 .	c #132139",
"8 .	c #061730",
"9 .	c #081934",
"0 .	c #071832",
"a .	c #061731",
"b .	c #051730",
"c .	c #041730",
"d .	c #031631",
"e .	c #021530",
"f .	c #02152E",
"g .	c #03162F",
"h .	c #08172C",
"i .	c #081B30",
"j .	c #071C32",
"k .	c #091E36",
"l .	c #081E33",
"m .	c #071F34",
"n .	c #072037",
"o .	c #092139",
"p .	c #38414E",
"q .	c #3B4854",
"r .	c #3A424E",
"s .	c #262B36",
"t .	c #333237",
"u .	c #665F5E",
"v .	c #5C5555",
"w .	c #333034",
"x .	c #222124",
"y .	c #746C69",
"z .	c #ACA39F",
"A .	c #BEB7B2",
"B .	c #9F9590",
"C .	c #9E958F",
"D .	c #D2CBC5",
"E .	c #BDB3AC",
"F .	c #616062",
"G .	c #112B41",
"H .	c #0F253E",
"I .	c #112942",
"J .	c #11273E",
"K .	c #13273F",
"L .	c #122539",
"M .	c #14263A",
"N .	c #142539",
"O .	c #132438",
"P .	c #132437",
"Q .	c #122235",
"R .	c #132336",
"S .	c #112134",
"T .	c #112237",
"U .	c #17263B",
"V .	c #101F35",
"W .	c #121F35",
"X .	c #112035",
"Y .	c #0F2034",
"Z .	c #102034",
"` .	c #343942",
" ..	c #86817E",
"...	c #635F5E",
"+..	c #B6B2AD",
"@..	c #D4CDC8",
"#..	c #B0ABA7",
"$..	c #616064",
"%..	c #0A1932",
"&..	c #091A33",
"*..	c #071831",
"=..	c #071731",
"-..	c #05172F",
";..	c #051631",
">..	c #051632",
",..	c #031430",
"'..	c #02132F",
")..	c #0D1D39",
"!..	c #03132D",
"~..	c #03142D",
"{..	c #04152F",
"]..	c #03132F",
"^..	c #142340",
"/..	c #021232",
"(..	c #01142E",
"_..	c #03142E",
":..	c #07162B",
"<..	c #07172C",
"[..	c #07192F",
"}..	c #081B31",
"|..	c #081D32",
"1..	c #081C34",
"2..	c #091E33",
"3..	c #091F33",
"4..	c #082135",
"5..	c #092138",
"6..	c #36404E",
"7..	c #404B56",
"8..	c #47525F",
"9..	c #2F353F",
"0..	c #282B33",
"a..	c #6A6463",
"b..	c #837A77",
"c..	c #928984",
"d..	c #201F22",
"e..	c #211F20",
"f..	c #4E4747",
"g..	c #5F5755",
"h..	c #978E8A",
"i..	c #1E2D3E",
"j..	c #12253B",
"k..	c #14273F",
"l..	c #132841",
"m..	c #132940",
"n..	c #12263E",
"o..	c #12273C",
"p..	c #18273A",
"q..	c #18293C",
"r..	c #132237",
"s..	c #142336",
"t..	c #252F3E",
"u..	c #2D3642",
"v..	c #142436",
"w..	c #142435",
"x..	c #152434",
"y..	c #142333",
"z..	c #142235",
"A..	c #142134",
"B..	c #132032",
"C..	c #152134",
"D..	c #162034",
"E..	c #122033",
"F..	c #111F32",
"G..	c #182436",
"H..	c #353D46",
"I..	c #3B4148",
"J..	c #4B494A",
"K..	c #A09B96",
"L..	c #958F8C",
"M..	c #B2ABA5",
"N..	c #DAD4CF",
"O..	c #D5CFCA",
"P..	c #292F3F",
"Q..	c #0B1B33",
"R..	c #0A1A32",
"S..	c #232B3C",
"T..	c #091931",
"U..	c #071730",
"V..	c #061830",
"W..	c #051530",
"X..	c #041531",
"Y..	c #03142F",
"Z..	c #051531",
"`..	c #051633",
" +.	c #041532",
".+.	c #00132E",
"++.	c #01142F",
"@+.	c #00142D",
"#+.	c #00132C",
"$+.	c #02132D",
"%+.	c #08182E",
"&+.	c #061B33",
"*+.	c #091D34",
"=+.	c #081F31",
"-+.	c #092034",
";+.	c #0B2339",
">+.	c #10253A",
",+.	c #515B66",
"'+.	c #414A55",
")+.	c #252A32",
"!+.	c #585353",
"~+.	c #887F7B",
"{+.	c #B2ACA6",
"]+.	c #151517",
"^+.	c #252323",
"/+.	c #484141",
"(+.	c #463F40",
"_+.	c #514A49",
":+.	c #5F5655",
"<+.	c #746A67",
"[+.	c #928B86",
"}+.	c #112438",
"|+.	c #13293C",
"1+.	c #12263B",
"2+.	c #14293F",
"3+.	c #152940",
"4+.	c #13283E",
"5+.	c #13273A",
"6+.	c #2F3642",
"7+.	c #152437",
"8+.	c #172538",
"9+.	c #172436",
"0+.	c #162435",
"a+.	c #172535",
"b+.	c #182536",
"c+.	c #192535",
"d+.	c #172333",
"e+.	c #182434",
"f+.	c #182435",
"g+.	c #182334",
"h+.	c #172334",
"i+.	c #152132",
"j+.	c #162133",
"k+.	c #172033",
"l+.	c #182033",
"m+.	c #162033",
"n+.	c #152032",
"o+.	c #141F32",
"p+.	c #3C424C",
"q+.	c #414954",
"r+.	c #404954",
"s+.	c #37393E",
"t+.	c #414044",
"u+.	c #303135",
"v+.	c #777271",
"w+.	c #918B86",
"x+.	c #D4CEC7",
"y+.	c #636264",
"z+.	c #0C1B32",
"A+.	c #0B1A31",
"B+.	c #0A1930",
"C+.	c #08182F",
"D+.	c #07172F",
"E+.	c #06172F",
"F+.	c #06162F",
"G+.	c #0A1A34",
"H+.	c #04132F",
"I+.	c #041430",
"J+.	c #081834",
"K+.	c #051431",
"L+.	c #03122E",
"M+.	c #0A192E",
"N+.	c #09192E",
"O+.	c #08192E",
"P+.	c #0B1D33",
"Q+.	c #091B31",
"R+.	c #0A1B30",
"S+.	c #405067",
"T+.	c #425269",
"U+.	c #0B1E33",
"V+.	c #082035",
"W+.	c #082034",
"X+.	c #092236",
"Y+.	c #4C5763",
"Z+.	c #212123",
"`+.	c #595555",
" @.	c #A39C97",
".@.	c #8B8583",
"+@.	c #383333",
"@@.	c #524A49",
"#@.	c #4B4443",
"$@.	c #4D4645",
"%@.	c #4F4847",
"&@.	c #504A47",
"*@.	c #99918C",
"=@.	c #15273B",
"-@.	c #15293D",
";@.	c #152A3E",
">@.	c #162A40",
",@.	c #172940",
"'@.	c #16283C",
")@.	c #152838",
"!@.	c #162638",
"~@.	c #182637",
"{@.	c #343C46",
"]@.	c #56575A",
"^@.	c #162636",
"/@.	c #192636",
"(@.	c #192635",
"_@.	c #182534",
":@.	c #192434",
"<@.	c #1A2534",
"[@.	c #1B2435",
"}@.	c #1B2032",
"|@.	c #192438",
"1@.	c #192437",
"2@.	c #182335",
"3@.	c #182133",
"4@.	c #171F32",
"5@.	c #4A5560",
"6@.	c #3E4853",
"7@.	c #22262D",
"8@.	c #2E2E31",
"9@.	c #4B494B",
"0@.	c #ACA7A3",
"a@.	c #A49D9A",
"b@.	c #DAD4D0",
"c@.	c #D6CFC9",
"d@.	c #8F8B89",
"e@.	c #0E1C2F",
"f@.	c #0E1C30",
"g@.	c #0D1B31",
"h@.	c #0C1A30",
"i@.	c #0B1930",
"j@.	c #091930",
"k@.	c #09182F",
"l@.	c #061630",
"m@.	c #1D273E",
"n@.	c #5C667A",
"o@.	c #04152E",
"p@.	c #0E1E38",
"q@.	c #04142E",
"r@.	c #01122C",
"s@.	c #03152F",
"t@.	c #08182C",
"u@.	c #0A1B32",
"v@.	c #081C2F",
"w@.	c #081E34",
"x@.	c #0B1D32",
"y@.	c #081D31",
"z@.	c #091E32",
"A@.	c #0B2033",
"B@.	c #0C2136",
"C@.	c #0B2035",
"D@.	c #0B2135",
"E@.	c #444C55",
"F@.	c #1C2026",
"G@.	c #17181B",
"H@.	c #66605D",
"I@.	c #69615D",
"J@.	c #544D4C",
"K@.	c #524C4A",
"L@.	c #312F31",
"M@.	c #3A3C3F",
"N@.	c #4A4C53",
"O@.	c #142538",
"P@.	c #152639",
"Q@.	c #17283B",
"R@.	c #17293B",
"S@.	c #152A3B",
"T@.	c #172A3C",
"U@.	c #18293B",
"V@.	c #182838",
"W@.	c #182736",
"X@.	c #182636",
"Y@.	c #3B424D",
"Z@.	c #3A414C",
"`@.	c #838180",
" #.	c #1B2638",
".#.	c #1D2738",
"+#.	c #1C2636",
"@#.	c #1C2534",
"##.	c #1E2534",
"$#.	c #1D2434",
"%#.	c #1D2233",
"&#.	c #1A2336",
"*#.	c #1B2436",
"=#.	c #1A2435",
"-#.	c #192334",
";#.	c #1A2234",
">#.	c #1A2134",
",#.	c #192033",
"'#.	c #434A53",
")#.	c #4B5763",
"!#.	c #857E7C",
"~#.	c #B9B4AF",
"{#.	c #D5CEC9",
"]#.	c #D6CFCB",
"^#.	c #B3ADA9",
"/#.	c #162032",
"(#.	c #0F1C2F",
"_#.	c #0F1B31",
":#.	c #0E1A30",
"<#.	c #0D1930",
"[#.	c #252D3D",
"}#.	c #42464E",
"|#.	c #6E6A6A",
"1#.	c #3E4048",
"2#.	c #091831",
"3#.	c #162137",
"4#.	c #05152E",
"5#.	c #02122C",
"6#.	c #00112B",
"7#.	c #091A2F",
"8#.	c #091C33",
"9#.	c #0A1C33",
"0#.	c #091C2F",
"a#.	c #0C2037",
"b#.	c #0D1D35",
"c#.	c #0B1D2F",
"d#.	c #0C1E30",
"e#.	c #0B1D31",
"f#.	c #0C1E32",
"g#.	c #0D1F34",
"h#.	c #0F2236",
"i#.	c #242F3D",
"j#.	c #282B30",
"k#.	c #14151B",
"l#.	c #373535",
"m#.	c #746B68",
"n#.	c #756B66",
"o#.	c #5D5755",
"p#.	c #746D69",
"q#.	c #595657",
"r#.	c #43484E",
"s#.	c #152636",
"t#.	c #162536",
"u#.	c #162537",
"v#.	c #172537",
"w#.	c #182638",
"x#.	c #19293A",
"y#.	c #162938",
"z#.	c #182A3A",
"A#.	c #192939",
"B#.	c #1B2739",
"C#.	c #1E283A",
"D#.	c #1F2537",
"E#.	c #3A3F49",
"F#.	c #2B2B30",
"G#.	c #AAA6A1",
"H#.	c #41454E",
"I#.	c #1E2635",
"J#.	c #1F2735",
"K#.	c #1E2535",
"L#.	c #202334",
"M#.	c #202535",
"N#.	c #1F2636",
"O#.	c #1E2434",
"P#.	c #1C2333",
"Q#.	c #1D2433",
"R#.	c #1C2332",
"S#.	c #1C2233",
"T#.	c #1B2233",
"U#.	c #1A2132",
"V#.	c #373E49",
"W#.	c #424E59",
"X#.	c #1C1F26",
"Y#.	c #171920",
"Z#.	c #171A20",
"`#.	c #282729",
" $.	c #4E4B4C",
".$.	c #6E6969",
"+$.	c #D1CAC5",
"@$.	c #C1BBB7",
"#$.	c #BCB6B1",
"$$.	c #101B2E",
"%$.	c #101B2F",
"&$.	c #0E192F",
"*$.	c #0D192F",
"=$.	c #40454E",
"-$.	c #353840",
";$.	c #4E4B4E",
">$.	c #928C88",
",$.	c #09172E",
"'$.	c #091730",
")$.	c #08162F",
"!$.	c #08152F",
"~$.	c #07152F",
"{$.	c #081630",
"]$.	c #06142D",
"^$.	c #05132D",
"/$.	c #04142D",
"($.	c #01112B",
"_$.	c #01122B",
":$.	c #081B33",
"<$.	c #0A1C36",
"[$.	c #0B1C34",
"}$.	c #0C1E34",
"|$.	c #0F1F37",
"1$.	c #0B1E30",
"2$.	c #0C1F31",
"3$.	c #0D1F33",
"4$.	c #0E2037",
"5$.	c #0D2034",
"6$.	c #122336",
"7$.	c #27292C",
"8$.	c #16161C",
"9$.	c #161618",
"0$.	c #6A635F",
"a$.	c #8B8481",
"b$.	c #616061",
"c$.	c #202B3A",
"d$.	c #172536",
"e$.	c #182535",
"f$.	c #1A2737",
"g$.	c #1A2637",
"h$.	c #1B2838",
"i$.	c #283646",
"j$.	c #1C2939",
"k$.	c #1C2839",
"l$.	c #1D273A",
"m$.	c #212A3E",
"n$.	c #393C46",
"o$.	c #585657",
"p$.	c #2A2F3D",
"q$.	c #212735",
"r$.	c #202634",
"s$.	c #212734",
"t$.	c #1F2734",
"u$.	c #1E2634",
"v$.	c #222535",
"w$.	c #212434",
"x$.	c #232937",
"y$.	c #222A37",
"z$.	c #202532",
"A$.	c #212632",
"B$.	c #1F2430",
"C$.	c #202432",
"D$.	c #1F2332",
"E$.	c #1D2130",
"F$.	c #323A43",
"G$.	c #17181D",
"H$.	c #434143",
"I$.	c #464445",
"J$.	c #CFC8C3",
"K$.	c #D1CCC8",
"L$.	c #3E3F47",
"M$.	c #111A2D",
"N$.	c #0F182D",
"O$.	c #10192E",
"P$.	c #0F192F",
"Q$.	c #0D182E",
"R$.	c #272D3C",
"S$.	c #41454C",
"T$.	c #2E3139",
"U$.	c #97908D",
"V$.	c #0B172D",
"W$.	c #0A162D",
"X$.	c #0A162F",
"Y$.	c #09152E",
"Z$.	c #08152D",
"`$.	c #07152D",
" %.	c #091630",
".%.	c #06132D",
"+%.	c #06142C",
"@%.	c #05142C",
"#%.	c #03132C",
"$%.	c #02122B",
"%%.	c #01112A",
"&%.	c #081C32",
"*%.	c #0A1C34",
"=%.	c #0D1D32",
"-%.	c #0C1D30",
";%.	c #0B1F32",
">%.	c #0C1F34",
",%.	c #0C1F36",
"'%.	c #10223B",
")%.	c #1D2C41",
"!%.	c #112133",
"~%.	c #0F2032",
"{%.	c #202A39",
"]%.	c #353A45",
"^%.	c #232B37",
"/%.	c #353A40",
"(%.	c #30343A",
"_%.	c #33373A",
":%.	c #3A3D43",
"<%.	c #40444B",
"[%.	c #172435",
"}%.	c #192637",
"|%.	c #1B2737",
"1%.	c #1C2738",
"2%.	c #1D2838",
"3%.	c #1D2839",
"4%.	c #1C2737",
"5%.	c #1D2737",
"6%.	c #1E2736",
"7%.	c #232E3B",
"8%.	c #1D2939",
"9%.	c #313B4B",
"0%.	c #242D3B",
"a%.	c #212835",
"b%.	c #3B3F45",
"c%.	c #3B3E46",
"d%.	c #2F3641",
"e%.	c #242836",
"f%.	c #242734",
"g%.	c #252834",
"h%.	c #232935",
"i%.	c #2B3440",
"j%.	c #252635",
"k%.	c #252434",
"l%.	c #242534",
"m%.	c #242735",
"n%.	c #232631",
"o%.	c #232530",
"p%.	c #222431",
"q%.	c #232532",
"r%.	c #212433",
"s%.	c #2F3240",
"t%.	c #202332",
"u%.	c #232634",
"v%.	c #44474E",
"w%.	c #1B1D24",
"x%.	c #1A1D24",
"y%.	c #242529",
"z%.	c #3E3C3D",
"A%.	c #564F4F",
"B%.	c #413E3F",
"C%.	c #5E5450",
"D%.	c #B2A9A3",
"E%.	c #95908D",
"F%.	c #2C2F3A",
"G%.	c #12192C",
"H%.	c #141B2E",
"I%.	c #13192F",
"J%.	c #11182D",
"K%.	c #111C30",
"L%.	c #0F1A2E",
"M%.	c #222837",
"N%.	c #43454A",
"O%.	c #3F4044",
"P%.	c #0D182C",
"Q%.	c #0C172D",
"R%.	c #0B152E",
"S%.	c #09172D",
"T%.	c #06152D",
"U%.	c #06142E",
"V%.	c #06142B",
"W%.	c #04122C",
"X%.	c #07162C",
"Y%.	c #09182E",
"Z%.	c #0A192F",
"`%.	c #0A1A30",
" &.	c #0B1B30",
".&.	c #0C1D32",
"+&.	c #0B1C30",
"@&.	c #0D1E30",
"#&.	c #0B1D30",
"$&.	c #0C1F32",
"%&.	c #0D1E33",
"&&.	c #0E1F34",
"*&.	c #0F2035",
"=&.	c #112235",
"-&.	c #122234",
";&.	c #132334",
">&.	c #112132",
",&.	c #132132",
"'&.	c #162433",
")&.	c #162432",
"!&.	c #172533",
"~&.	c #162633",
"{&.	c #1B2635",
"]&.	c #1B2634",
"^&.	c #1C2634",
"/&.	c #1D2636",
"(&.	c #1F2839",
"_&.	c #1D2637",
":&.	c #1E2636",
"<&.	c #1F2736",
"[&.	c #202733",
"}&.	c #222A36",
"|&.	c #1F2834",
"1&.	c #222934",
"2&.	c #222835",
"3&.	c #252632",
"4&.	c #282834",
"5&.	c #272833",
"6&.	c #292934",
"7&.	c #2B2D38",
"8&.	c #252732",
"9&.	c #272934",
"0&.	c #282934",
"a&.	c #292A35",
"b&.	c #292834",
"c&.	c #2B2B37",
"d&.	c #292734",
"e&.	c #292735",
"f&.	c #282735",
"g&.	c #272832",
"h&.	c #262730",
"i&.	c #252631",
"j&.	c #242530",
"k&.	c #242430",
"l&.	c #272835",
"m&.	c #232431",
"n&.	c #212330",
"o&.	c #2D2F38",
"p&.	c #3F4248",
"q&.	c #323235",
"r&.	c #59514F",
"s&.	c #3C3433",
"t&.	c #938984",
"u&.	c #595658",
"v&.	c #151A2D",
"w&.	c #13192C",
"x&.	c #151C2F",
"y&.	c #13192D",
"z&.	c #121C2F",
"A&.	c #12172A",
"B&.	c #14192C",
"C&.	c #0F182E",
"D&.	c #1C2746",
"E&.	c #0C182F",
"F&.	c #0A172D",
"G&.	c #0A182D",
"H&.	c #0A152B",
"I&.	c #09162C",
"J&.	c #08152C",
"K&.	c #06152B",
"L&.	c #05132B",
"M&.	c #02112A",
"N&.	c #07162D",
"O&.	c #08172E",
"P&.	c #0B1A2F",
"Q&.	c #0B1A30",
"R&.	c #0A1B2E",
"S&.	c #0C1C32",
"T&.	c #0E1E33",
"U&.	c #0D1E32",
"V&.	c #0E1F33",
"W&.	c #0E1E32",
"X&.	c #0F1E31",
"Y&.	c #101F32",
"Z&.	c #102133",
"`&.	c #122134",
" *.	c #1A2938",
".*.	c #3A4753",
"+*.	c #172534",
"@*.	c #182333",
"#*.	c #192432",
"$*.	c #182433",
"%*.	c #1A2634",
"&*.	c #1F2634",
"**.	c #252D3E",
"=*.	c #202734",
"-*.	c #202834",
";*.	c #232737",
">*.	c #252835",
",*.	c #262C3A",
"'*.	c #28323F",
")*.	c #262935",
"!*.	c #292935",
"~*.	c #292933",
"{*.	c #2A2934",
"]*.	c #2B2A34",
"^*.	c #292833",
"/*.	c #2A2A34",
"(*.	c #2B2933",
"_*.	c #2B2932",
":*.	c #2C2A32",
"<*.	c #3C3A40",
"[*.	c #626164",
"}*.	c #393840",
"|*.	c #292733",
"1*.	c #2A2833",
"2*.	c #292732",
"3*.	c #282631",
"4*.	c #282632",
"5*.	c #282532",
"6*.	c #262531",
"7*.	c #272732",
"8*.	c #43474F",
"9*.	c #1E2026",
"0*.	c #1A1C23",
"a*.	c #857E7B",
"b*.	c #918580",
"c*.	c #6F645F",
"d*.	c #999490",
"e*.	c #181C2D",
"f*.	c #191C2D",
"g*.	c #171B2E",
"h*.	c #12192D",
"i*.	c #131A29",
"j*.	c #0F1927",
"k*.	c #13172C",
"l*.	c #142649",
"m*.	c #0F162C",
"n*.	c #11162A",
"o*.	c #0E172A",
"p*.	c #0A182B",
"q*.	c #09162B",
"r*.	c #0F1A30",
"s*.	c #08152A",
"t*.	c #06152C",
"u*.	c #05142B",
"v*.	c #03112B",
"w*.	c #03122C",
"x*.	c #010E28",
"y*.	c #02102A",
"z*.	c #0B1C31",
"A*.	c #0B1C2F",
"B*.	c #344053",
"C*.	c #0F1E33",
"D*.	c #0D1E31",
"E*.	c #0F1F34",
"F*.	c #0E1D31",
"G*.	c #101E31",
"H*.	c #121F31",
"I*.	c #112033",
"J*.	c #132031",
"K*.	c #132232",
"L*.	c #172433",
"M*.	c #192533",
"N*.	c #182431",
"O*.	c #1A2431",
"P*.	c #1B2433",
"Q*.	c #1A2535",
"R*.	c #25303F",
"S*.	c #1D2732",
"T*.	c #1E2733",
"U*.	c #202637",
"V*.	c #202736",
"W*.	c #232834",
"X*.	c #242934",
"Y*.	c #252936",
"Z*.	c #282734",
"`*.	c #232835",
" =.	c #262F3D",
".=.	c #2B2B36",
"+=.	c #2B2935",
"@=.	c #2D2A34",
"#=.	c #2E2B35",
"$=.	c #2F2C35",
"%=.	c #2E2B34",
"&=.	c #2E2C35",
"*=.	c #2F2C34",
"==.	c #2E2C33",
"-=.	c #2E2A32",
";=.	c #2F2B32",
">=.	c #302B33",
",=.	c #312B33",
"'=.	c #2F2B31",
")=.	c #322E35",
"!=.	c #515053",
"~=.	c #3F3B40",
"{=.	c #2D2931",
"]=.	c #2D2A33",
"^=.	c #2C2933",
"/=.	c #2B2832",
"(=.	c #2A2731",
"_=.	c #2B2732",
":=.	c #2A2732",
"<=.	c #292631",
"[=.	c #27242F",
"}=.	c #262530",
"|=.	c #272530",
"1=.	c #414149",
"2=.	c #363941",
"3=.	c #1C1D24",
"4=.	c #706A67",
"5=.	c #7B7775",
"6=.	c #191B2B",
"7=.	c #34353E",
"8=.	c #4D4C52",
"9=.	c #181C2E",
"0=.	c #1A2238",
"a=.	c #131A2F",
"b=.	c #101E35",
"c=.	c #152645",
"d=.	c #5E8FB5",
"e=.	c #1A3455",
"f=.	c #0C1D3B",
"g=.	c #0C172F",
"h=.	c #0B182A",
"i=.	c #0A182A",
"j=.	c #0B172C",
"k=.	c #111C31",
"l=.	c #09152B",
"m=.	c #0A162C",
"n=.	c #08152B",
"o=.	c #07142B",
"p=.	c #07142C",
"q=.	c #06132C",
"r=.	c #06122C",
"s=.	c #112136",
"t=.	c #0C1D2F",
"u=.	c #111E30",
"v=.	c #142132",
"w=.	c #152233",
"x=.	c #162232",
"y=.	c #1A2432",
"z=.	c #1A252F",
"A=.	c #1C2531",
"B=.	c #1D2535",
"C=.	c #1E2632",
"D=.	c #1F2732",
"E=.	c #222836",
"F=.	c #292C3C",
"G=.	c #232734",
"H=.	c #262936",
"I=.	c #282A35",
"J=.	c #292B34",
"K=.	c #282B36",
"L=.	c #2C2C33",
"M=.	c #2A2C3A",
"N=.	c #2D3547",
"O=.	c #302D35",
"P=.	c #2D2D32",
"Q=.	c #312C33",
"R=.	c #322D34",
"S=.	c #322C33",
"T=.	c #322C34",
"U=.	c #332C34",
"V=.	c #342C34",
"W=.	c #342B33",
"X=.	c #352B33",
"Y=.	c #332B32",
"Z=.	c #332B33",
"`=.	c #322B31",
" -.	c #312A30",
".-.	c #312B32",
"+-.	c #302A31",
"@-.	c #2F2931",
"#-.	c #2F2930",
"$-.	c #2F2730",
"%-.	c #2D2630",
"&-.	c #2C252F",
"*-.	c #2C262F",
"=-.	c #2A262F",
"--.	c #2A252E",
";-.	c #2B242F",
">-.	c #3D3B43",
",-.	c #1F2027",
"'-.	c #1E1F25",
")-.	c #4C4948",
"!-.	c #74716E",
"~-.	c #1D1E2B",
"{-.	c #1E1D2C",
"]-.	c #313139",
"^-.	c #36363E",
"/-.	c #1A1B2C",
"(-.	c #181B2C",
"_-.	c #171C2B",
":-.	c #15192A",
"<-.	c #12172C",
"[-.	c #141631",
"}-.	c #183758",
"|-.	c #091830",
"1-.	c #10172B",
"2-.	c #0F1629",
"3-.	c #0C162C",
"4-.	c #0D152C",
"5-.	c #0B152A",
"6-.	c #0A1529",
"7-.	c #091629",
"8-.	c #08142A",
"9-.	c #071329",
"0-.	c #07132B",
"a-.	c #051129",
"b-.	c #05132A",
"c-.	c #041229",
"d-.	c #031129",
"e-.	c #010F27",
"f-.	c #08172D",
"g-.	c #0C1B30",
"h-.	c #142438",
"i-.	c #101F31",
"j-.	c #121F30",
"k-.	c #131F2F",
"l-.	c #162132",
"m-.	c #172231",
"n-.	c #1B2333",
"o-.	c #1B2431",
"p-.	c #1D2331",
"q-.	c #1D2633",
"r-.	c #222734",
"s-.	c #232735",
"t-.	c #272936",
"u-.	c #272A35",
"v-.	c #282935",
"w-.	c #2B2C37",
"x-.	c #2B2B33",
"y-.	c #2D2C34",
"z-.	c #2D2D36",
"A-.	c #2F2D33",
"B-.	c #292F41",
"C-.	c #374560",
"D-.	c #2E2C37",
"E-.	c #322D32",
"F-.	c #332C33",
"G-.	c #342D34",
"H-.	c #342D35",
"I-.	c #372E35",
"J-.	c #382E36",
"K-.	c #382C34",
"L-.	c #392D36",
"M-.	c #382D36",
"N-.	c #382C35",
"O-.	c #362B33",
"P-.	c #362C31",
"Q-.	c #352B31",
"R-.	c #352C34",
"S-.	c #332A32",
"T-.	c #322831",
"U-.	c #302730",
"V-.	c #2F262F",
"W-.	c #2E272F",
"X-.	c #2D262E",
"Y-.	c #2C252D",
"Z-.	c #2C232D",
"`-.	c #2A222D",
" ;.	c #3C3840",
".;.	c #3B3A40",
"+;.	c #3E3C42",
"@;.	c #434247",
"#;.	c #211F2C",
"$;.	c #23232F",
"%;.	c #201F2C",
"&;.	c #1F1E2C",
"*;.	c #1D1C2A",
"=;.	c #1B1C2A",
"-;.	c #181A2A",
";;.	c #171928",
">;.	c #16192C",
",;.	c #171C2F",
"';.	c #131B2E",
");.	c #17182B",
"!;.	c #131E38",
"~;.	c #0F172D",
"{;.	c #11162B",
"];.	c #0E152A",
"^;.	c #0E162B",
"/;.	c #0D152A",
"(;.	c #091528",
"_;.	c #081428",
":;.	c #081329",
"<;.	c #09142C",
"[;.	c #08132C",
"};.	c #06122A",
"|;.	c #041028",
"1;.	c #030F27",
"2;.	c #08172B",
"3;.	c #0B1A2E",
"4;.	c #0B192E",
"5;.	c #0D1C30",
"6;.	c #0D1C2E",
"7;.	c #0F1E32",
"8;.	c #142334",
"9;.	c #102030",
"0;.	c #121F32",
"a;.	c #121F33",
"b;.	c #17273A",
"c;.	c #192232",
"d;.	c #1A2233",
"e;.	c #1A2331",
"f;.	c #1D2432",
"g;.	c #1E2331",
"h;.	c #1F2531",
"i;.	c #202632",
"j;.	c #212733",
"k;.	c #292D3A",
"l;.	c #262835",
"m;.	c #292A34",
"n;.	c #2A2B35",
"o;.	c #2C2D36",
"p;.	c #303037",
"q;.	c #2D2D34",
"r;.	c #2E313B",
"s;.	c #313546",
"t;.	c #2E5169",
"u;.	c #5691AD",
"v;.	c #314156",
"w;.	c #373240",
"x;.	c #382F37",
"y;.	c #382F36",
"z;.	c #393037",
"A;.	c #3A3037",
"B;.	c #3C3238",
"C;.	c #3B3035",
"D;.	c #3A2E33",
"E;.	c #3C2E34",
"F;.	c #3B2D33",
"G;.	c #3C2D33",
"H;.	c #3A2D34",
"I;.	c #665E64",
"J;.	c #463D44",
"K;.	c #3A2E35",
"L;.	c #392C32",
"M;.	c #382D33",
"N;.	c #392E35",
"O;.	c #392F36",
"P;.	c #382E35",
"Q;.	c #362C34",
"R;.	c #342932",
"S;.	c #342831",
"T;.	c #332830",
"U;.	c #342A32",
"V;.	c #2F262E",
"W;.	c #30262E",
"X;.	c #2F242E",
"Y;.	c #2C242E",
"Z;.	c #2B222E",
"`;.	c #2A232E",
" >.	c #29222C",
".>.	c #27212C",
"+>.	c #25202C",
"@>.	c #24212D",
"#>.	c #221F2C",
"$>.	c #221F2D",
"%>.	c #201E2B",
"&>.	c #1F1E2B",
"*>.	c #1D1D2A",
"=>.	c #1C1D2B",
"->.	c #1B1D2A",
";>.	c #161A28",
">>.	c #1E2134",
",>.	c #171A2E",
"'>.	c #171A2C",
")>.	c #141930",
"!>.	c #12162C",
"~>.	c #11172C",
"{>.	c #10182C",
"]>.	c #10172A",
"^>.	c #0E162A",
"/>.	c #0D162A",
"(>.	c #0B1529",
"_>.	c #0A1528",
":>.	c #091428",
"<>.	c #0A152A",
"[>.	c #09142A",
"}>.	c #08132B",
"|>.	c #07132A",
"1>.	c #05112A",
"2>.	c #051128",
"3>.	c #09182B",
"4>.	c #09192B",
"5>.	c #0A192C",
"6>.	c #0B1A2D",
"7>.	c #0D1A2D",
"8>.	c #0F1A2C",
"9>.	c #111C2E",
"0>.	c #121D2F",
"a>.	c #141D30",
"b>.	c #132035",
"c>.	c #223649",
"d>.	c #4C6978",
"e>.	c #172336",
"f>.	c #192131",
"g>.	c #1A2230",
"h>.	c #1E2432",
"i>.	c #202531",
"j>.	c #212531",
"k>.	c #222631",
"l>.	c #242632",
"m>.	c #252734",
"n>.	c #272733",
"o>.	c #292932",
"p>.	c #2B2A32",
"q>.	c #2C2B33",
"r>.	c #2E2C34",
"s>.	c #2E2E35",
"t>.	c #2C2D34",
"u>.	c #2E2D35",
"v>.	c #303038",
"w>.	c #333640",
"x>.	c #394052",
"y>.	c #355C76",
"z>.	c #5AA0B2",
"A>.	c #394A61",
"B>.	c #3D3645",
"C>.	c #3D343B",
"D>.	c #3A2F35",
"E>.	c #3D3135",
"F>.	c #3C3034",
"G>.	c #3D2E31",
"H>.	c #3F3031",
"I>.	c #403233",
"J>.	c #403132",
"K>.	c #3F3234",
"L>.	c #403134",
"M>.	c #422F32",
"N>.	c #412E31",
"O>.	c #3D2F33",
"P>.	c #3E3034",
"Q>.	c #3D3035",
"R>.	c #3B2F35",
"S>.	c #392D34",
"T>.	c #382B31",
"U>.	c #392930",
"V>.	c #38292E",
"W>.	c #372D36",
"X>.	c #36282E",
"Y>.	c #332832",
"Z>.	c #332730",
"`>.	c #31252E",
" ,.	c #31252F",
".,.	c #30242F",
"+,.	c #2E242F",
"@,.	c #2E222C",
"#,.	c #2C212C",
"$,.	c #29202D",
"%,.	c #28212F",
"&,.	c #26202F",
"*,.	c #23212F",
"=,.	c #21202D",
"-,.	c #201F2D",
";,.	c #20202D",
">,.	c #1C1D2A",
",,.	c #1D1D2C",
"',.	c #1D1C2D",
"),.	c #19192D",
"!,.	c #18182A",
"~,.	c #18182B",
"{,.	c #1C1E32",
"],.	c #14172B",
"^,.	c #12162A",
"/,.	c #10152A",
"(,.	c #0F152B",
"_,.	c #0E1528",
":,.	c #0D1528",
"<,.	c #0C1528",
"[,.	c #0A1527",
"},.	c #081429",
"|,.	c #071228",
"1,.	c #061329",
"2,.	c #041128",
"3,.	c #07132C",
"4,.	c #061229",
"5,.	c #051127",
"6,.	c #041026",
"7,.	c #08162E",
"8,.	c #09172C",
"9,.	c #152335",
"0,.	c #0C192C",
"a,.	c #0E1B2E",
"b,.	c #121B2E",
"c,.	c #101A2C",
"d,.	c #111B2E",
"e,.	c #121C2E",
"f,.	c #131E30",
"g,.	c #141F30",
"h,.	c #171E32",
"i,.	c #17293A",
"j,.	c #192132",
"k,.	c #18212F",
"l,.	c #1B2330",
"m,.	c #1C2431",
"n,.	c #1E2431",
"o,.	c #212430",
"p,.	c #22262F",
"q,.	c #242730",
"r,.	c #262732",
"s,.	c #2F2B33",
"t,.	c #302C33",
"u,.	c #342C33",
"v,.	c #33323A",
"w,.	c #3B3740",
"x,.	c #353036",
"y,.	c #373036",
"z,.	c #383038",
"A,.	c #342F40",
"B,.	c #454B5E",
"C,.	c #402F37",
"D,.	c #3F3231",
"E,.	c #403135",
"F,.	c #45353A",
"G,.	c #413034",
"H,.	c #423134",
"I,.	c #443234",
"J,.	c #453234",
"K,.	c #453233",
"L,.	c #463334",
"M,.	c #463234",
"N,.	c #463232",
"O,.	c #453031",
"P,.	c #452F30",
"Q,.	c #423133",
"R,.	c #413135",
"S,.	c #3F2F34",
"T,.	c #402C2E",
"U,.	c #3F2C2E",
"V,.	c #3E2B2E",
"W,.	c #3A2B31",
"X,.	c #36282F",
"Y,.	c #342E3C",
"Z,.	c #37272E",
"`,.	c #36262F",
" '.	c #34262F",
".'.	c #332630",
"+'.	c #32252F",
"@'.	c #2F242C",
"#'.	c #2E232C",
"$'.	c #2D232E",
"%'.	c #292331",
"&'.	c #2D2937",
"*'.	c #282533",
"='.	c #22202E",
"-'.	c #1F1D2B",
";'.	c #1F1B2B",
">'.	c #1E1B2C",
",'.	c #1C1A2A",
"''.	c #1B1929",
")'.	c #1A1A2C",
"!'.	c #16192B",
"~'.	c #16182B",
"{'.	c #14182B",
"]'.	c #13172B",
"^'.	c #101529",
"/'.	c #0D1427",
"('.	c #0D1629",
"_'.	c #0B1429",
":'.	c #091328",
"<'.	c #091327",
"['.	c #071226",
"}'.	c #061227",
"|'.	c #0A162E",
"1'.	c #0B162D",
"2'.	c #0B192C",
"3'.	c #0C1A2D",
"4'.	c #101A2E",
"5'.	c #121A2D",
"6'.	c #131C2F",
"7'.	c #122030",
"8'.	c #15202F",
"9'.	c #181F30",
"0'.	c #171F31",
"a'.	c #1A2332",
"b'.	c #1C2231",
"c'.	c #1C2331",
"d'.	c #1E2430",
"e'.	c #2D303B",
"f'.	c #262731",
"g'.	c #262630",
"h'.	c #32303C",
"i'.	c #2D2832",
"j'.	c #312A32",
"k'.	c #362C33",
"l'.	c #38313A",
"m'.	c #393741",
"n'.	c #342E38",
"o'.	c #3A2F36",
"p'.	c #3E3035",
"q'.	c #3C3234",
"r'.	c #4E484D",
"s'.	c #413035",
"t'.	c #443337",
"u'.	c #4D393C",
"v'.	c #473335",
"w'.	c #473234",
"x'.	c #483334",
"y'.	c #493333",
"z'.	c #4A3233",
"A'.	c #4B3133",
"B'.	c #4B3233",
"C'.	c #4C3234",
"D'.	c #4B3234",
"E'.	c #4C3334",
"F'.	c #4A3333",
"G'.	c #4A3232",
"H'.	c #493231",
"I'.	c #493132",
"J'.	c #483132",
"K'.	c #483133",
"L'.	c #453032",
"M'.	c #453033",
"N'.	c #452C2E",
"O'.	c #422D2F",
"P'.	c #422D30",
"Q'.	c #3F2C31",
"R'.	c #3F333B",
"S'.	c #6B6877",
"T'.	c #3E2A2F",
"U'.	c #3B282F",
"V'.	c #39272E",
"W'.	c #37262F",
"X'.	c #33262E",
"Y'.	c #33262F",
"Z'.	c #2F242D",
"`'.	c #2E252F",
" ).	c #2D2531",
".).	c #2B2433",
"+).	c #2A2333",
"@).	c #272131",
"#).	c #272231",
"$).	c #252230",
"%).	c #201D2A",
"&).	c #1C1A28",
"*).	c #1D1B29",
"=).	c #191929",
"-).	c #171829",
";).	c #16172A",
">).	c #15172A",
",).	c #121629",
"').	c #101528",
")).	c #0F1427",
"!).	c #0F1528",
"~).	c #0B1328",
"{).	c #0A1226",
"]).	c #0A1227",
"^).	c #091126",
"/).	c #061226",
"().	c #071227",
"_).	c #061127",
":).	c #061228",
"<).	c #061129",
"[).	c #0D1831",
"}).	c #0B162F",
"|).	c #0D192D",
"1).	c #101A2D",
"2).	c #141C2F",
"3).	c #161E31",
"4).	c #171E2F",
"5).	c #1A1E2D",
"6).	c #1A1F2E",
"7).	c #192030",
"8).	c #1C2230",
"9).	c #1F2330",
"0).	c #242531",
"a).	c #262733",
"b).	c #282731",
"c).	c #2D2B35",
"d).	c #2E2B36",
"e).	c #372D34",
"f).	c #393035",
"g).	c #392F35",
"h).	c #40373E",
"i).	c #383137",
"j).	c #3D3138",
"k).	c #45363A",
"l).	c #3F2F33",
"m).	c #413334",
"n).	c #433336",
"o).	c #483A43",
"p).	c #473439",
"q).	c #4C3A42",
"r).	c #4B3335",
"s).	c #4B3433",
"t).	c #4D3433",
"u).	c #4E3432",
"v).	c #4F3432",
"w).	c #513433",
"x).	c #523433",
"y).	c #513332",
"z).	c #513432",
"A).	c #503332",
"B).	c #4F3232",
"C).	c #4F3132",
"D).	c #503232",
"E).	c #4E3230",
"F).	c #4D3030",
"G).	c #4C3132",
"H).	c #4B3031",
"I).	c #4A2F30",
"J).	c #472E31",
"K).	c #442C2F",
"L).	c #493539",
"M).	c #412D32",
"N).	c #3E303B",
"O).	c #412A2D",
"P).	c #3F292E",
"Q).	c #3C272C",
"R).	c #3C272D",
"S).	c #3A272D",
"T).	c #37262C",
"U).	c #36262D",
"V).	c #32242D",
"W).	c #312530",
"X).	c #2F2432",
"Y).	c #2C2332",
"Z).	c #2B2231",
"`).	c #29212F",
" !.	c #261F2D",
".!.	c #292330",
"+!.	c #221D2A",
"@!.	c #1F1C2A",
"#!.	c #1E1B29",
"$!.	c #191828",
"%!.	c #181828",
"&!.	c #161728",
"*!.	c #151628",
"=!.	c #141629",
"-!.	c #131629",
";!.	c #121528",
">!.	c #111528",
",!.	c #0E1427",
"'!.	c #0B1326",
")!.	c #0A1225",
"!!.	c #091124",
"~!.	c #061126",
"{!.	c #061027",
"]!.	c #051027",
"^!.	c #0A142D",
"/!.	c #0E1830",
"(!.	c #0C172B",
"_!.	c #11192D",
":!.	c #131A2D",
"<!.	c #161D30",
"[!.	c #151D2F",
"}!.	c #171F2E",
"|!.	c #1A1F2C",
"1!.	c #1B202F",
"2!.	c #1C2133",
"3!.	c #1E2133",
"4!.	c #1E2130",
"5!.	c #212331",
"6!.	c #242532",
"7!.	c #272632",
"8!.	c #282732",
"9!.	c #2A2831",
"0!.	c #312D37",
"a!.	c #322D38",
"b!.	c #352C33",
"c!.	c #382E34",
"d!.	c #42373C",
"e!.	c #41353A",
"f!.	c #403234",
"g!.	c #443132",
"h!.	c #453232",
"i!.	c #453334",
"j!.	c #493434",
"k!.	c #4D3334",
"l!.	c #4D3B3E",
"m!.	c #4C3331",
"n!.	c #4F3436",
"o!.	c #523535",
"p!.	c #523534",
"q!.	c #543635",
"r!.	c #553634",
"s!.	c #563633",
"t!.	c #573634",
"u!.	c #583735",
"v!.	c #583734",
"w!.	c #583731",
"x!.	c #583732",
"y!.	c #573632",
"z!.	c #573433",
"A!.	c #573332",
"B!.	c #553432",
"C!.	c #533331",
"D!.	c #523331",
"E!.	c #523434",
"F!.	c #4D3232",
"G!.	c #513635",
"H!.	c #4C3130",
"I!.	c #462F32",
"J!.	c #492E2C",
"K!.	c #452D2F",
"L!.	c #452C2F",
"M!.	c #4A3236",
"N!.	c #412A2E",
"O!.	c #3F282E",
"P!.	c #3D272C",
"Q!.	c #3B262C",
"R!.	c #39262C",
"S!.	c #39262F",
"T!.	c #362630",
"U!.	c #33242F",
"V!.	c #342733",
"W!.	c #2F2330",
"X!.	c #2E2330",
"Y!.	c #2B222F",
"Z!.	c #271E2B",
"`!.	c #251D2A",
" ~.	c #241E2D",
".~.	c #251E2D",
"+~.	c #211A29",
"@~.	c #1E1A2A",
"#~.	c #1B1927",
"$~.	c #1A1928",
"%~.	c #181827",
"&~.	c #161727",
"*~.	c #151629",
"=~.	c #141529",
"-~.	c #131428",
";~.	c #111427",
">~.	c #0D1326",
",~.	c #0C1326",
"'~.	c #0B1225",
")~.	c #071225",
"!~.	c #061125",
"~~.	c #0C182E",
"{~.	c #0C182D",
"]~.	c #0E192B",
"^~.	c #10192B",
"/~.	c #111A2B",
"(~.	c #131B2D",
"_~.	c #1F2638",
":~.	c #161D2F",
"<~.	c #171E30",
"[~.	c #1D2333",
"}~.	c #1B1F2E",
"|~.	c #1A1E2C",
"1~.	c #1E212E",
"2~.	c #1D202F",
"3~.	c #1E2333",
"4~.	c #1F2431",
"5~.	c #222530",
"6~.	c #292730",
"7~.	c #2C282F",
"8~.	c #2F2A31",
"9~.	c #312A31",
"0~.	c #312830",
"a~.	c #372C2F",
"b~.	c #392D30",
"c~.	c #3C2F31",
"d~.	c #3E3031",
"e~.	c #403032",
"f~.	c #45363B",
"g~.	c #433337",
"h~.	c #463435",
"i~.	c #473332",
"j~.	c #493435",
"k~.	c #4B3436",
"l~.	c #4E3434",
"m~.	c #503331",
"n~.	c #543734",
"o~.	c #553633",
"p~.	c #563735",
"q~.	c #563936",
"r~.	c #583A36",
"s~.	c #593A35",
"t~.	c #5A3834",
"u~.	c #5B3832",
"v~.	c #5D3834",
"w~.	c #5F3834",
"x~.	c #5F3933",
"y~.	c #603A34",
"z~.	c #5E3834",
"A~.	c #5E3835",
"B~.	c #5D3733",
"C~.	c #5E3734",
"D~.	c #5B3632",
"E~.	c #5A3631",
"F~.	c #593531",
"G~.	c #573432",
"H~.	c #543330",
"I~.	c #51312E",
"J~.	c #4F312E",
"K~.	c #4C302D",
"L~.	c #4B302D",
"M~.	c #4B2F2E",
"N~.	c #492D30",
"O~.	c #482C2F",
"P~.	c #442A2E",
"Q~.	c #41292D",
"R~.	c #40292D",
"S~.	c #40282C",
"T~.	c #3D272B",
"U~.	c #38272F",
"V~.	c #382B33",
"W~.	c #2E222B",
"X~.	c #2C1F2A",
"Y~.	c #291E27",
"Z~.	c #281E27",
"`~.	c #281F29",
" {.	c #241C28",
".{.	c #231B28",
"+{.	c #1F1A27",
"@{.	c #1D1927",
"#{.	c #1B1926",
"${.	c #191826",
"%{.	c #181725",
"&{.	c #171726",
"*{.	c #161627",
"={.	c #141527",
"-{.	c #101427",
";{.	c #0C1224",
">{.	c #0C1325",
",{.	c #0C1327",
"'{.	c #0B1327",
"){.	c #081023",
"!{.	c #081024",
"~{.	c #071125",
"{{.	c #051024",
"]{.	c #0B182D",
"^{.	c #142033",
"/{.	c #0E192D",
"({.	c #0F1A2D",
"_{.	c #0F192B",
":{.	c #11192C",
"<{.	c #131C2D",
"[{.	c #181E2F",
"}{.	c #181F2E",
"|{.	c #3A4353",
"1{.	c #383F4F",
"2{.	c #1C2030",
"3{.	c #1F212F",
"4{.	c #222330",
"5{.	c #222430",
"6{.	c #252731",
"7{.	c #252530",
"8{.	c #292731",
"9{.	c #2B2831",
"0{.	c #2D2830",
"a{.	c #2E282F",
"b{.	c #342A31",
"c{.	c #362B32",
"d{.	c #382C31",
"e{.	c #3C2F30",
"f{.	c #403031",
"g{.	c #423131",
"h{.	c #473334",
"i{.	c #493534",
"j{.	c #4B3434",
"k{.	c #4F3738",
"l{.	c #593E40",
"m{.	c #523635",
"n{.	c #573836",
"o{.	c #5D3B39",
"p{.	c #5C3B39",
"q{.	c #5E3C3A",
"r{.	c #613C39",
"s{.	c #623C39",
"t{.	c #633C37",
"u{.	c #643B37",
"v{.	c #653A35",
"w{.	c #663A34",
"x{.	c #663A33",
"y{.	c #673B35",
"z{.	c #683C37",
"A{.	c #653B35",
"B{.	c #633934",
"C{.	c #643934",
"D{.	c #673D37",
"E{.	c #623731",
"F{.	c #613731",
"G{.	c #603630",
"H{.	c #5E3531",
"I{.	c #5D3431",
"J{.	c #5B3530",
"K{.	c #59332F",
"L{.	c #57322E",
"M{.	c #5D3B38",
"N{.	c #52312E",
"O{.	c #51302E",
"P{.	c #502E2E",
"Q{.	c #4C2C2D",
"R{.	c #4A2B2C",
"S{.	c #482B2D",
"T{.	c #462A2D",
"U{.	c #442A2D",
"V{.	c #41282B",
"W{.	c #3E262B",
"X{.	c #3B262B",
"Y{.	c #3A262D",
"Z{.	c #33242C",
"`{.	c #32242B",
" ].	c #31222C",
".].	c #30212B",
"+].	c #2D2029",
"@].	c #2B2028",
"#].	c #291F28",
"$].	c #261C27",
"%].	c #241B27",
"&].	c #211A27",
"*].	c #181727",
"=].	c #151626",
"-].	c #131527",
";].	c #121527",
">].	c #0C1225",
",].	c #0A1124",
"'].	c #091023",
")].	c #061024",
"!].	c #041023",
"~].	c #030F22",
"{].	c #0D192E",
"]].	c #0D1A2C",
"^].	c #0E1A2D",
"/].	c #0F192C",
"(].	c #131B2C",
"_].	c #141B2C",
":].	c #151B2E",
"<].	c #161B2E",
"[].	c #191F2F",
"}].	c #181E2D",
"|].	c #343C4D",
"1].	c #333A4A",
"2].	c #1E2231",
"3].	c #21222F",
"4].	c #272631",
"5].	c #282730",
"6].	c #2C2830",
"7].	c #2E2830",
"8].	c #2F2830",
"9].	c #322930",
"0].	c #342A2F",
"a].	c #372B30",
"b].	c #3A2D31",
"c].	c #3D2E32",
"d].	c #3E2F31",
"e].	c #413031",
"f].	c #473131",
"g].	c #4C3432",
"h].	c #4D3432",
"i].	c #4F3433",
"j].	c #523634",
"k].	c #563838",
"l].	c #563737",
"m].	c #5D3E3C",
"n].	c #5B3835",
"o].	c #603A36",
"p].	c #633C39",
"q].	c #633D3A",
"r].	c #643C39",
"s].	c #673D39",
"t].	c #693E3A",
"u].	c #6C3F3A",
"v].	c #6D3E39",
"w].	c #6D3D37",
"x].	c #6E3D34",
"y].	c #6E3D33",
"z].	c #6D3D33",
"A].	c #6D3C34",
"B].	c #75443E",
"C].	c #6E3C34",
"D].	c #6F3D35",
"E].	c #6D3B32",
"F].	c #6D3B33",
"G].	c #6C3B33",
"H].	c #6B3A33",
"I].	c #693933",
"J].	c #683933",
"K].	c #663832",
"L].	c #633630",
"M].	c #623630",
"N].	c #60352F",
"O].	c #5D332D",
"P].	c #5A332D",
"Q].	c #59332D",
"R].	c #57312E",
"S].	c #55302F",
"T].	c #522F2E",
"U].	c #4F2D2C",
"V].	c #4D2C2B",
"W].	c #4A2C2B",
"X].	c #482A2C",
"Y].	c #45292A",
"Z].	c #42282B",
"`].	c #432C2F",
" ^.	c #3F282D",
".^.	c #3A262B",
"+^.	c #39262B",
"@^.	c #36242A",
"#^.	c #332229",
"$^.	c #322128",
"%^.	c #302127",
"&^.	c #2D2127",
"*^.	c #2B1F27",
"=^.	c #281D26",
"-^.	c #271C27",
";^.	c #251B27",
">^.	c #231A27",
",^.	c #211926",
"'^.	c #1F1927",
")^.	c #1D1926",
"!^.	c #1B1826",
"~^.	c #181726",
"{^.	c #171625",
"]^.	c #131526",
"^^.	c #121426",
"/^.	c #111526",
"(^.	c #0F1326",
"_^.	c #0D1225",
":^.	c #0B1124",
"<^.	c #061124",
"[^.	c #041124",
"}^.	c #031023",
"|^.	c #0E1A2F",
"1^.	c #0B182B",
"2^.	c #1A1E2E",
"3^.	c #1D202E",
"4^.	c #1C202E",
"5^.	c #1F202E",
"6^.	c #22212D",
"7^.	c #24232E",
"8^.	c #252531",
"9^.	c #27262F",
"0^.	c #29262E",
"a^.	c #2B272E",
"b^.	c #2F282F",
"c^.	c #332930",
"d^.	c #362B30",
"e^.	c #3C2E31",
"f^.	c #3E2E32",
"g^.	c #412F33",
"h^.	c #433134",
"i^.	c #473435",
"j^.	c #483232",
"k^.	c #4C3230",
"l^.	c #523531",
"m^.	c #553733",
"n^.	c #5A3837",
"o^.	c #5D3937",
"p^.	c #5D3935",
"q^.	c #6A4540",
"r^.	c #633A35",
"s^.	c #673C35",
"t^.	c #693D37",
"u^.	c #6B3F39",
"v^.	c #6E413A",
"w^.	c #6F413A",
"x^.	c #71413A",
"y^.	c #73423A",
"z^.	c #74413A",
"A^.	c #753F36",
"B^.	c #763F33",
"C^.	c #774033",
"D^.	c #764033",
"E^.	c #763F34",
"F^.	c #773E32",
"G^.	c #763D31",
"H^.	c #753C31",
"I^.	c #764137",
"J^.	c #703C33",
"K^.	c #6E3A32",
"L^.	c #6C3A32",
"M^.	c #6B3932",
"N^.	c #6A3931",
"O^.	c #683830",
"P^.	c #64362E",
"Q^.	c #63362F",
"R^.	c #5F342E",
"S^.	c #5D332E",
"T^.	c #5A3230",
"U^.	c #57302E",
"V^.	c #552F2E",
"W^.	c #522E2D",
"X^.	c #4A2B2A",
"Y^.	c #47292B",
"Z^.	c #45292B",
"`^.	c #43282C",
" /.	c #40272B",
"./.	c #3D252A",
"+/.	c #3A2428",
"@/.	c #382329",
"#/.	c #362227",
"$/.	c #332226",
"%/.	c #302227",
"&/.	c #2D2027",
"*/.	c #291D26",
"=/.	c #271B26",
"-/.	c #261B27",
";/.	c #251A27",
">/.	c #221A27",
",/.	c #1C1826",
"'/.	c #1A1826",
")/.	c #191725",
"!/.	c #161524",
"~/.	c #171626",
"{/.	c #151525",
"]/.	c #131426",
"^/.	c #111325",
"//.	c #101326",
"(/.	c #071124",
"_/.	c #051125",
":/.	c #041024",
"</.	c #0F192D",
"[/.	c #10182D",
"}/.	c #141B2D",
"|/.	c #161C2C",
"1/.	c #171D2D",
"2/.	c #1B1E2D",
"3/.	c #1C202C",
"4/.	c #21212E",
"5/.	c #24222C",
"6/.	c #26242E",
"7/.	c #282630",
"8/.	c #2C272E",
"9/.	c #2E272E",
"0/.	c #322830",
"a/.	c #342931",
"b/.	c #352A2F",
"c/.	c #382B30",
"d/.	c #3B2C30",
"e/.	c #3F2E32",
"f/.	c #443133",
"g/.	c #473436",
"h/.	c #503C3D",
"i/.	c #4D3333",
"j/.	c #553532",
"k/.	c #5B3935",
"l/.	c #5C3836",
"m/.	c #613A37",
"n/.	c #633B34",
"o/.	c #643C34",
"p/.	c #683C35",
"q/.	c #6B3C33",
"r/.	c #704036",
"s/.	c #724038",
"t/.	c #754239",
"u/.	c #764239",
"v/.	c #784339",
"w/.	c #7B4339",
"x/.	c #7C4238",
"y/.	c #7E4136",
"z/.	c #804135",
"A/.	c #814234",
"B/.	c #804234",
"C/.	c #804235",
"D/.	c #7F4132",
"E/.	c #7D4031",
"F/.	c #7C3F30",
"G/.	c #7A3F31",
"H/.	c #793F32",
"I/.	c #773D30",
"J/.	c #743B2F",
"K/.	c #723A2F",
"L/.	c #713A2F",
"M/.	c #723B32",
"N/.	c #6F3A31",
"O/.	c #6B372F",
"P/.	c #68362F",
"Q/.	c #64352E",
"R/.	c #60342E",
"S/.	c #5E322D",
"T/.	c #5B322D",
"U/.	c #59312C",
"V/.	c #56302C",
"W/.	c #522E2C",
"X/.	c #4F2D2B",
"Y/.	c #4B2B2A",
"Z/.	c #48292A",
"`/.	c #46282A",
" (.	c #44272B",
".(.	c #41272A",
"+(.	c #3E2529",
"@(.	c #3C2528",
"#(.	c #392427",
"$(.	c #352326",
"%(.	c #322226",
"&(.	c #302126",
"*(.	c #2E2027",
"=(.	c #2C1F28",
"-(.	c #2A1D26",
";(.	c #271B27",
">(.	c #261A26",
",(.	c #231927",
"'(.	c #201926",
")(.	c #1C1927",
"!(.	c #181624",
"~(.	c #161525",
"{(.	c #151526",
"](.	c #121326",
"^(.	c #0D1226",
"/(.	c #0C1125",
"((.	c #0B1024",
"_(.	c #0A0F23",
":(.	c #090E22",
"<(.	c #080F23",
"[(.	c #070E24",
"}(.	c #060E23",
"|(.	c #0C172E",
"1(.	c #0D182D",
"2(.	c #10172D",
"3(.	c #12182E",
"4(.	c #12182C",
"5(.	c #141A2D",
"6(.	c #161B2C",
"7(.	c #181B2B",
"8(.	c #1A1C2B",
"9(.	c #1C1D2C",
"0(.	c #20212D",
"a(.	c #1F1F2B",
"b(.	c #23222F",
"c(.	c #26232D",
"d(.	c #29242D",
"e(.	c #2B252D",
"f(.	c #2D262F",
"g(.	c #30272F",
"h(.	c #31282F",
"i(.	c #342B32",
"j(.	c #372A2F",
"k(.	c #392B2F",
"l(.	c #3D2E30",
"m(.	c #3F2E2F",
"n(.	c #422F30",
"o(.	c #493131",
"p(.	c #503433",
"q(.	c #573532",
"r(.	c #5E3932",
"s(.	c #623B34",
"t(.	c #653D34",
"u(.	c #693D32",
"v(.	c #6E3E33",
"w(.	c #703E33",
"x(.	c #744134",
"y(.	c #774134",
"z(.	c #7A4235",
"A(.	c #7D4337",
"B(.	c #7F4439",
"C(.	c #81463B",
"D(.	c #83473A",
"E(.	c #85463A",
"F(.	c #874537",
"G(.	c #884437",
"H(.	c #884335",
"I(.	c #8E4638",
"J(.	c #8C4435",
"K(.	c #8B4435",
"L(.	c #8A4434",
"M(.	c #894333",
"N(.	c #884334",
"O(.	c #864231",
"P(.	c #844032",
"Q(.	c #813F31",
"R(.	c #7F3F31",
"S(.	c #7C3E31",
"T(.	c #793C2F",
"U(.	c #773B2E",
"V(.	c #763B2E",
"W(.	c #71392E",
"X(.	c #6E3A30",
"Y(.	c #6A382E",
"Z(.	c #69372F",
"`(.	c #66352E",
" _.	c #62332D",
"._.	c #5F312C",
"+_.	c #5B302B",
"@_.	c #562E2C",
"#_.	c #542D2C",
"$_.	c #512D2C",
"%_.	c #4D2B2C",
"&_.	c #4A2A2C",
"*_.	c #47282B",
"=_.	c #45272A",
"-_.	c #42272A",
";_.	c #3E2629",
">_.	c #3A2527",
",_.	c #382427",
"'_.	c #352226",
")_.	c #322025",
"!_.	c #302027",
"~_.	c #2E1F27",
"{_.	c #2C1D27",
"]_.	c #291D27",
"^_.	c #281B26",
"/_.	c #251A26",
"(_.	c #231925",
"__.	c #201924",
":_.	c #1E1825",
"<_.	c #1D1825",
"[_.	c #1A1724",
"}_.	c #191724",
"|_.	c #141324",
"1_.	c #121224",
"2_.	c #101224",
"3_.	c #0F1123",
"4_.	c #0D1224",
"5_.	c #0C1124",
"6_.	c #0B1023",
"7_.	c #0A0F22",
"8_.	c #090F22",
"9_.	c #080F22",
"0_.	c #070E21",
"a_.	c #0B162C",
"b_.	c #101B31",
"c_.	c #13182C",
"d_.	c #151A2E",
"e_.	c #14192D",
"f_.	c #1B1D2C",
"g_.	c #20202C",
"h_.	c #21202C",
"i_.	c #22222E",
"j_.	c #25232F",
"k_.	c #28242F",
"l_.	c #2B242E",
"m_.	c #2D252D",
"n_.	c #30262F",
"o_.	c #372D32",
"p_.	c #3A2B2F",
"q_.	c #3E2D31",
"r_.	c #412F30",
"s_.	c #442F30",
"t_.	c #493230",
"u_.	c #513331",
"v_.	c #543532",
"w_.	c #583632",
"x_.	c #5C3732",
"y_.	c #5F3732",
"z_.	c #633B33",
"A_.	c #673C34",
"B_.	c #6A3D34",
"C_.	c #6F4135",
"D_.	c #723E33",
"E_.	c #784035",
"F_.	c #794133",
"G_.	c #7D4234",
"H_.	c #844335",
"I_.	c #874536",
"J_.	c #8A4639",
"K_.	c #8C4839",
"L_.	c #8D4A39",
"M_.	c #904837",
"N_.	c #934736",
"O_.	c #954A37",
"P_.	c #974938",
"Q_.	c #974736",
"R_.	c #984735",
"S_.	c #974735",
"T_.	c #964734",
"U_.	c #954732",
"V_.	c #954733",
"W_.	c #944533",
"X_.	c #914432",
"Y_.	c #8F4334",
"Z_.	c #8D4334",
"`_.	c #8A4232",
" :.	c #874033",
".:.	c #834030",
"+:.	c #813E2F",
"@:.	c #7F3D2F",
"#:.	c #7B3C31",
"$:.	c #733A2F",
"%:.	c #6D382D",
"&:.	c #6D392E",
"*:.	c #68362D",
"=:.	c #64342C",
"-:.	c #61322C",
";:.	c #5C302C",
">:.	c #592F2D",
",:.	c #562E2D",
"':.	c #4E2B2C",
"):.	c #4B2A2A",
"!:.	c #472829",
"~:.	c #452829",
"{:.	c #412728",
"]:.	c #3E2628",
"^:.	c #3B2527",
"/:.	c #392426",
"(:.	c #362226",
"_:.	c #352127",
"::.	c #322027",
"<:.	c #2F1F27",
"[:.	c #2C1D26",
"}:.	c #291B25",
"|:.	c #261A24",
"1:.	c #251A24",
"2:.	c #221924",
"3:.	c #201824",
"4:.	c #1F1824",
"5:.	c #1C1723",
"6:.	c #191523",
"7:.	c #171522",
"8:.	c #161522",
"9:.	c #151424",
"0:.	c #131223",
"a:.	c #111224",
"b:.	c #101123",
"c:.	c #0E1323",
"d:.	c #091022",
"e:.	c #080F21",
"f:.	c #111B32",
"g:.	c #141A2F",
"h:.	c #161C2D",
"i:.	c #181D2D",
"j:.	c #23222E",
"k:.	c #25242F",
"l:.	c #29252F",
"m:.	c #2C252E",
"n:.	c #2F252D",
"o:.	c #31262F",
"p:.	c #392E39",
"q:.	c #372B34",
"r:.	c #3A2C30",
"s:.	c #3D2B30",
"t:.	c #412D31",
"u:.	c #432E30",
"v:.	c #462E30",
"w:.	c #4A3030",
"x:.	c #4D3231",
"y:.	c #553531",
"z:.	c #613932",
"A:.	c #643932",
"B:.	c #6B3E35",
"C:.	c #6E3E35",
"D:.	c #703E34",
"E:.	c #733E32",
"F:.	c #783E33",
"G:.	c #7E3F34",
"H:.	c #804133",
"I:.	c #844434",
"J:.	c #894536",
"K:.	c #8C4637",
"L:.	c #8F4738",
"M:.	c #924736",
"N:.	c #954937",
"O:.	c #974A37",
"P:.	c #9A4A35",
"Q:.	c #9E4935",
"R:.	c #9E4A35",
"S:.	c #9F4936",
"T:.	c #A04835",
"U:.	c #A24935",
"V:.	c #A14A35",
"W:.	c #A14A34",
"X:.	c #A04A32",
"Y:.	c #A14A33",
"Z:.	c #A04934",
"`:.	c #9D4733",
" <.	c #9A4631",
".<.	c #974632",
"+<.	c #954532",
"@<.	c #924430",
"#<.	c #8F4232",
"$<.	c #8C4231",
"%<.	c #8A4030",
"&<.	c #853E2E",
"*<.	c #823E30",
"=<.	c #7B3C2F",
"-<.	c #7C4134",
";<.	c #733B2E",
"><.	c #70392D",
",<.	c #6C372C",
"'<.	c #6A362D",
")<.	c #66352D",
"!<.	c #5D312C",
"~<.	c #592F2B",
"{<.	c #552D2B",
"]<.	c #522C2B",
"^<.	c #4F2C2A",
"/<.	c #4B2A29",
"(<.	c #472827",
"_<.	c #452828",
":<.	c #412727",
"<<.	c #3E2626",
"[<.	c #3C2426",
"}<.	c #392225",
"|<.	c #362125",
"1<.	c #332025",
"2<.	c #301E25",
"3<.	c #2D1D27",
"4<.	c #2A1C25",
"5<.	c #271B24",
"6<.	c #251B24",
"7<.	c #241A24",
"8<.	c #221A26",
"9<.	c #1F1825",
"0<.	c #1B1725",
"a<.	c #181623",
"b<.	c #171523",
"c<.	c #121423",
"d<.	c #111223",
"e<.	c #0F1424",
"f<.	c #0D1325",
"   .  +  @  #  $  %  &  *  =  -  ;  >  ,  '  )  !  ~  {  ]  ^  /  (  _  :  <  [  }  |  1  2  3  4  5  6  7  8  9  0  a  b  c  d  e  f  g  h  i  j  k  l  m  n  o  p  q  r  s  t  u  v  w  x  y  z  A  B  z  C  D  E  F  G  H  I  J  K  L  M  N  O  P  Q  R  S  T  U  V  W  X  Y  Z  `   . .. +. @. #. $. %. &. *. =. -. ;. >. ,. '. ). !. ~. {. ]. ^. /. (. _. :. <. [. ",
"}. |. 1. 2. 3. $  4. 5. 6. 7. 8. 9. 0. a. b. c. d. e. f. g. h. i. j. (  k. l. m. n. o. p. q. r. s. t. u. v. w. x. y. z. A. B. B. C. D. E. F. F. G. H. z  I. J. K. L. M. N. O. P. Q. R. S. T. U. V. W. X. Y. Z. `.  + .+ ++ @+ #+ $+ %+ &+ *+ =+ -+ ;+ >+ ,+ '+ )+ !+ ~+ {+ ]+ ^+ /+ (+ _+ :+ <+ [+ }+ |+ 1+ 2+ 3+ 4+ 5+ 6+ 7+ 8+ 9+ 0+ a+ b+ c+ d+ e+ f+ g+ h+ i+ j+ k+ ",
"l+ |. m+ n+ 3. o+ p+ q+ r+ s+ t+ u+ v+ w+ x+ y+ z+ A+ B+ C+ D+ E+ F+ G+ H+ I+ :  J+ K+ L+ M+ N+ q. O+ P+ Q+ R+ 5  S+ T+ U+ V+ W+ X+ A. Y+ Z+ `+ D. a   @  @ .@ +@ @@ #@ $@ %@ +@ &@ E. *@ G  =@ -@ ;@ ;@ >@ ,@ '@ )@ !@ ~@ {@ ]@ ^@ /@ (@ _@ :@ <@ [@ }@ |@ 1@ 2@ 3@ 4@ 5@ 6@ 7@ 8@ 9@ 0@ a@ b@ c@ d@ e@ f@ g@ h@ 5+ i@ j@ k@ l@ m@ n@ o@ p@ q@ r@ s@ t@ u@ v@ w@ x@ y@ ",
"z@ A@ B@ n+ C@ D@ E@ F@ G@ H@ I@ J@ K@ L@ M@ N@ O@ P@ Q@ R@ S@ T@ U@ V@ W@ X@ Y@ Z@ `@  # .# +# M+ @# ## $# %# &# *# =# -# ;# ># ,# '# )# !# ~# {# ]# ^# 0  /# (# _# :# <# [# }# |# 1# 2# 3# 4# 5# ,@ 6# 7# 8# 9# 0# a# b# c# d# e# f# g# h# i# j# k# l# m# n# o# p# q# r# s# t# u# v# w# x# y# z# A# B# C# D# E# i@ F# G# H# I# J# K# L# M# N# O# P# Q# R# S# T# U# V# ",
"W# X# Y# Z# `#  $ .$ +$ &  @$ #$ $$ %$ &$ *$ =$ -$ ;$ >$ ,$ '$ )$ !$ ~$ {$ ]$ ^$ /$ ($ _$ :$ <$ [$ }$ |$ 1$ 2$ 3$ 4$ 5$ 6$ 7$ 8$ 9$ 0$ a$ w. 3# 2# b$ '# c$ d$ e$ f$ g$ ,@ h$ i$ j$ k$ l$ m$ m$ n$ M  o$ p$ q$ r$ s$ t$ u$ v$ w$ x$ y$ z$ U  A$ B$ C$ D$ E$ F$ G$ H$ I$ J$ K$ L$ M$ N$ O$ P$ Q$ R$ S$ C# T$ U$ V$ W$ X$ Y$ Z$ `$  % .% +% @% #% $% t@ %% &% *% =% -% ;% ",
">% ,% Y# '% `# )% !% ~% {% ]% ^% 8. /% (% _% :% <% [% }% |% 1% 2% 3% 4% 5% 6% 7% 8% 9% 0% a% b% c% d% e% f% g% h% i% j% 3$ k% %# l% m% Q+ u. 9$ n% o% p% q% r% s% t% u% v% w% x% y% z% A% B% C% D% E% F% t$ G% H% _@ I% J% K% L% M% N% O% P% Q% R% S% T% U% V% W% X% Y% Z% `%  & .& +& @& #& $& %& && *& =& -& ;& >& ,& '& )& !& ~& {& ]& ^& /& (& _& :& <& [& U# }& |& ",
"1& 2& 3& 4& 5& 6& 7& 8& 9& 0& a& b& c& d& e& f& g& h& i& j& k& l& m& n& o& p& q& r& s& t& u& v& w& x& y& z& A& B& C& D& E& F& G& H& I& J& O+ K& L& M& N& O& P& Q& R& S& T& U& V& W& X& Y& Y& Z& `&  * .* +* @* #* $* %* &* U  ** =* -* ;* D$ >* ,* '* )* !* ~* {* ]* ^* /* (* _* :* <* [* }* |* 1* 2* 3* 4* 5* 6* 7* 8* 9* 0* a* b* c* @% O# $% d* e* f* g* h* i* j* k* ",
"1& 2& l* m* n* o* p* q* r* s* t* u* v* w* x* y* z* A* B* C* D* E* F* G* H* I* J* K* L* M* N* O* P* Q* R* S* T* U* V* W* X* Y* Z* `*  = .= += @= #= $= %= &= *= == == -= ;= >= ,= '= )= != ~= {= +* ]= ^= /= (= _= := <= [= [= }= |= 1= 2= 3= 4= 5= 6= 7= 8= 9= 0= a= b= c= d= e= f= g= h= i= j= k= l= 4* m= n= o= p= q= r= s= t= u= v= w= x= y= z= A= B= C= D= E= F= G= ",
"H= I= J= K= L= M= N= O= P= Q= R= S= T= U= V= W= X= Y= Z= `=  - .- +- @- #- $- %- &- *- =- -- ;- >- ,- '- )- !- ~- {- ]- ^- /- (- _- :- <- [- }- |- 1- 2- 3- 4- 5- 6- 7- 8- 9- 0- a- b- c- d- e- f- g- h- i- j- k- l- m- n- o- p- q- r- s- t- u- v- w- x- y- z- A- B- C- D- E- F- G- H- I- J- K- L- M- m= N- O- P- Q- R- S- T- U- V- W- X- Y- Z- `-  ; .; +; @; #; $; %; ",
"&; I= *; =; -; ;; >; ,; '; ); !; ~; {; ]; ^; /; (; _; :; <; [; }; |; 1; 2; 3; 4; 5; 6; 7; 8; 9; 0; a; b; c; d; e; f; g; h; i; j; k; l; m; n; :$ o; p; q; r; s; t; u; v; w; x; y; z; A; B; C; D; E; F; G; H; I; J; K; L; M; N; O; P; Q; R; S; T; U; V; W; X; Y; Z; `;  > .> +> @> #> $> %> &> *> => -> ;> >> ,> '> )> !> ~> {> ]> ^> /> (> _> :> <> [> }> |> 1> 2> 3> 4> ",
"5> 6> 7> 8> 9> 0> a> b> c> d> e> f> g> h> i> d& j> k> l> m> n> o> p> q> r> s> t> u> v> w> x> y> z> A> B> C> D> E> F> G> H> I> J> K> L> M> N> O> P> Q> R> S> T> U> V> W> X> Y> Z> `>  , ., +, @, #, $, %, &, *, =, -, ;, >, ,, ', ), !, ~, {, ], ^, /, (, _, :, <, [, }, |, 1, 2, 3, 4, 5, 6, 7, 8, 9, 0, a, b, c, d, ~> e, ]> f, g, h, i, j, k, l, m, n, o, p, q, r, s, ",
"t, u, v, w, x, y, z, A, B, C, D, E, F, G, H, I, /; J, K, L, M, N, O, P, Q, R, S, T, U, V, W, X, Y, Z, `,  ' .' +' @' #' $' %' &' *' =' -' ;' >' ,' u& '' )' !' ~' {' ]' ^' /' (' _' :' <' [' }' |' 1' 2' 3' 4' 5' 6' 7' 8' 9' 0' a' b' c' d' e' f' g' h' i' j' k' l' m' n' o' p' q' r' s' t' 8, u' v' w' x' y' z' A' e, ]> B' C' D' E' F' G' H' I' J' K' L' M' N' O' P' ",
"Q' R' S' T' U' 0> V' W' X' Y' Z' `'  ) .) +) @) #) $) %) &) *) =) -) ;) >) ,) ') )) !) ~) {) ]) ^) /) () _) :) <) [) }) |) 1) 2) 3) 4) 5) ;- 6) 7) 8) 9) 0) a) b) c) d) e) f) g) h) i) j) k) l) m) n) o) p) q) r) s) t) u) u) v) w) x) y) z) A) B) C) D) E) F) G) H) I) J) K) L) M) N) O) P) Q) R) S) T) U) V) W) e, X) B' Y) Z) `)  ! .! +! @! #! $! %! &! *! =! -! ;! ",
"Q' R' >! ,! '! )! !! ~! X' Y' {! ]! ^! /! (! _! :! <! [! }! |! 1! 2! 3! 4! 5! 6! 7! 8! 9! 0! a! b! c! d! e! f! g! h! i! j! k! l! m! n! o! p! q! r! s! t! u! v! w! x! y! z! A! B! C! D! E! F! G! H! I! J! K! L! M! N! O! P! Q! R! S! T! U! V! W! X! Y! Z! `!  ~ .~ +~ @~ #~ $~ %~ &~ *~ =~ -~ ;~ >~ ,~ '~ )~ !~ ~~ {~ ]~ ^~ /~ (~ _~ :~ <> <~ [~ }~ |~ 1~ 2~ 3~ 4~ 5~ 6~ ",
"Q' 7~ 8~ 9~ 0~ a~ b~ c~ d~ e~ f~ g~ h~  ) i~ j~ k~ l~ m~ n~ o~ p~ q~ r~ s~ t~ u~ v~ w~ x~ y~ z~ A~ B~ C~ D~ E~ F~ G~ H~ I~ J~ f! K~ L~ M~ N~ O~ P~ Q~ R~ S~ T~ U~ V~ W~ X~ Y~ Z~ `~  { .{ +{ @{ #{ ${ %{ &{ *{ ={ -{ ;{ >{ ,{ '{ ){ !{ ~{ {{ ]{ ^{ /{ ({ _{ :{ <{ [{ }{ |{ 1{ 2{ 3{ 4{ 5{ 6{ 7{ 8{ 9{ 0{ a{ b{ c{ d{ e{ f{ g{ h{ i{ j{ k{ l{ m{ n{ o{ p{ q{ r{ s{ t{ u{ ",
"v{ w{ x{ y{ z{ A{ B{ C{ D{ E{ F{ G{ H{ I{ J{ K{ L{ M{ N{ O{ P{ Q{ R{ S{ T{ U{ V{ W{ X{ Y{ Z{ `{  ] .] +] @] #] $] B~ %] &] *] =] -] ;] >] ,] '] )] !] ~] {] ]] ^] ^] /] (] _] :] <] [] }] |] 1] 2] 3] 4] 5] 6] 7] 8] 9] 0] a] b] c] d] e] f] g] h] i] j] k] l] m] n] o] p] q] r] s] t] u] v] w] x] y] z] A] B] C] D] E] F] G] i{ H] I] J] K] L] M] N] O] P] Q] R] S] T] ",
"U] V] W] X] Y] Z] `]  ^ .^ +^ @^ #^ $^ %^ &^ *^ =^ -^ ;^ >^ ,^ '^ )^ !^ ~^ {^ ]^ ^^ /^ (^ _^ :^ <^ [^ Y{ }^ |^ 1^ 2^ 3^ 4^ 5^ 6^ %] 7^ 8^ 9^ 9^ 0^ a^ b^ c^ d^ e^ f^ g^ h^ i^ j^ k^ l^ m^ n^ o^ p^ q^ r^ s^ t^ u^ v^ w^ x^ y^ z^ A^ B^ C^ D^ E^ F^ G^ H^ I^ J^ K^ L^ M^ N^ O^ P^ Q^ R^ S^ T^ U^ V^ W^ X^ Y^ Z^ `^  / ./ +/ @/ #/ $/ %/ &/ J' */ =/ -/ q{ ;/ >/ ,/ '/ )/ ",
"!/ ~/ {/ ]/ ^/ // (/ _/ :/ </ [/ }/ |/ 1/ 2/ 3/ 4/ 5/ 6/ 7/ 8/ 9/ 0/ a/ b/ c/ d/ e/ f/ g/ h/ i/ j/ k/ l/ m/ n/ o/ p/ q/ r/ s/ t/ u/ v/ v/ 8! w/ x/ y/ z/ A/ B/ C/ D/ E/ F/ G/ H/ I/ J/ K/ L/ M/ N/ O/ P/ Q/ R/ S/ T/ U/ V/ W/ X/ Y/ Z/ `/  ( .( +( @( #( $( %( &( *( =( -( ;( >( ,( '( )( !( ~( {( ]( ^( /( (( _( :( <( [( }( |( 1( &/ 2( 3( 4( 1~ p{ q{ 5( 6( 7( 8( 9( ",
"0( a( b( c( d( e( f( g( h( i( j( k( l( m( n( o( p( q( r( s( t( u( 7/ v( w( x( y( z( A( B( C( D( E( F( G( H( I( J( K( L( M( N( O( P( [^ Z{ Z{ `{ Q( R( S( T( U( V( W( X( Y( Z( `(  _ ._ +_ @_ #_ $_ %_ &_ *_ =_ -_ ;_ >_ ,_ '_ )_ !_ ~_ {_ ]_ ^_ /_ (_ __ :_ <_ [_ }_ |_ 1_ 2_ 3_ 4_ 5_ 6_ 7_ 8_ 9_ 0_ ^( a_ b_ c_ d_ e_ f_ g_ h_ i_ j_ k_ l_ m_ n_ o_ p_ s{ q_ r_ s_ t_ ",
"0( u_ b( v_ d( w_ x_ y_ z_ A_ B_ C_ D_ E_ F_ G_ H_ I_ J_ K_ L_ M_ N_ O_ P_ Q_ R_ S_ T_ U_ V_ W_ X_ Y_ Z_ Z_ `_  : .: +: @: #: $: %: &: *: =: -: ;: >: ,: ': ): !: ~: {: ]: ^: /: (: _: :: <: [: }: |: 1: 2: 3: 4: 5: 6: 7: 8: 9: 0: a: b: c: d: e: f: g: h: i: j: k: l: m: n: o: p: q: q: r: s: t: u: v: w: x: y: z: A: B: C: D: E: L] F: G: p, p{ H: I: J: K: L: M: N: ",
"O: P: Q: R: S: T: U: V: W: X: ,; Y: Z: `:  < .< +< @< #< $< %< &< &< *< =< -< ;< >< ,< '< )< !< ~< {< {< ]< ^< /< (< _< :< << [< }< |< 1< 2< 3< 4< 5< 5< 6< 7< 8< 9< 0< a< b< c< d< e< f< g< h< i< j< k< l< m< n< o< p< q< r< s< t< u< v< w< x< y< z< A< B< C< D< E< F< G< H< I< J< K< L< M< N< O< P< Q< R< S< T< U< V< W< X< Y< Z< `< %!  [ .[ +[ @[ I: #[ $[ %[ &[ *[ ",
"=[ -[ ;[ >[ ,[ '[ // f( )[ ![ ~[ {[ ][ ^[ /[ ([ _[ :[ <[ [[ }[ |[ 1[ 1[ 2[ 3[ 4[ 5[ 6[ 7[ 8[ 9[ 0[ a[ b[ c[ d[ e[ f[ g[ h[ i[ j[ k[ l[ m[ n[ o[ p[ q[ r[ s[ t[ u[ v[ w[ x[ y[ z[ z[ A[ B[ C[ D[ E[ F[ G[ H[ I[ J[ K[ L[ M[ N[ O[ P[ Q[ R[ S[ T[ U[ V[ W[ X[ Y[ Z[ `[  } .} +} @} #} $} %} &} *} =} -} ;} >} ,} '} )} !} ~} {} ]} ^} /} (} _} :} p_ <} [} }} |} 1} 2} 3} ",
"=[ 4} 5} 6} 7} 8} e( 9} 0} a} N= b} c} d} e} f} g} h} i} j} k} l} m} n} o} p} q} r} s} t} u} v} w} x} y} z} A} B} C} D} E} F} G} H} I} J} K} L} M} N} O} P} Q} R} S} T} U} V} W} X} Y} Z} `}  | .| +| @| #| $| %| &| *| =| -| ;| >| ,| '| )| !| ~| {| ]| ^| /| (| _| :| <| [| }| %} || 1| 2| 3| 4| 5| 6| 7| 8| 9| 0| a| b| c| d| e| f| g| h| i| j| k| l| m| 8( n| o| p| ",
"=[ q| r| s| t| u| v| x_ 0> !! w| x| y| z| A| B| C| D| E| F| G| H| I| J| K| L| M| N| M| O| P| Q| R| S| T| U| V| W| X| Y| Z| `|  1 .1 +1 @1 #1 $1 %1 &1 *1 =1 -1 ;1 >1 ,1 '1 )1 !1 ~1 {1 ]1 ^1 /1 (1 _1 :1 <1 [1 }1 |1 11 21 31 41 51 61 71 81 91 01 01 a1 b1 c1 d1 e1 f1 g1 h1 i1 j1 k1 l1 m1 n1 o1 p1 q1 r1 s1 t1 u1 v1 w1 x1 y1 z1 A1 B1 i| C1 D1 E1 F1 G1 H1 I1 J1 K1 ",
"L1 q| M1 N1 O1 P1 Q1 R1 S1 o* T1 U1 V1 W1 X1 Y1 Z1 `1  2 .2 +2 @2 #2 $2 %2 &2 *2 =2 -2 ;2 >2 ,2 '2 )2 )2 !2 ~2 {2 ]2 ^2 /2 (2 _2 :2 <2 [2 }2 |2 12 v} 22 32 42 52 62 72 82 92 02 a2 b2 c2 d2 e2 f2 g2 h2 h2 i2 j2 k2 l2 m2 n2 o2 p2 q2 r2 s2 t2 u2 v2 w2 x2 y2 z2 A2 B2 C2 D2 E2 F2 G2 H2 I2 J2 K2 L2 M2 N2 O2 P2 Q2 R2 S2 T2 U2 V2 W2 X2 Y2 Z2 `2  3 .3 +3 @3 9( #3 $3 ",
"L1 q| %3 &3 *3 ,[ =3 -3 ;3 0> b~ >3 ,3 '3 )3 !3 ~3 {3 ]3 ^3 /3 (3 _3 :3 <3 [3 }3 |3 13 23 33 43 53 63 73 63 73 83 93 03 a3 b3 c3 d3 e3 f3 g3 g3 h3 i3 j3 k3 l3 m3 n3 o3 p3 q3 r3 s3 t3 u3 v3 w3 x3 y3 z3 A3 B3 C3 D3 E3 F3 G3 H3 I3 J3 K3 L3 M3 N3 O3 P3 Q3 R3 S3 T3 U3 V3 W3 X3 Y3 Z3 `3  4 .4 +4 @4 #4 $4 %4 &4 *4 =4 -4 ;4 >4 ,4 '4 )4 !4 ~4 {4 ]4 ^4 /4 9( (4 _4 :4 ",
"<4 [4 r| }4 |4 ,[ P1 14 // S1 24 34 44 54 64 74 84 94 04 a4 b4 c4 d4 e4 f4 g4 h4 i4 j4 k4 l4 m4 n4 n4 o4 p4 p4 q4 q4 r4 s4 t4 u4 v4 63 w4 w4 x4 y4 83 z4 A4 B4 C4 D4 E4 F4 G4 H4 I4 J4 K4 L4 M4 N4 O4 P4 Q4 R4 S4 T4 U4 V4 W4 W4 X4 Y4 Z4 `4  5 .5 +5 @5 #5 $5 %5 &5 *5 =5 -5 ;5 >5 ,5 '5 )5 !5 ~5 {5 ]5 ^5 /5 (5 _5 :5 <5 [5 }5 |5 15 25 35 45 55 ]4 65 /4 9( 75 85 95 ",
"05 a5 b5 c5 d5 e5 f5 g5 h5 9} i5 j5 k5 l5 m5 n5 o5 p5 q5 r5 s5 t5 u5 v5 w5 x5 y5 z5 A5 B5 C5 D5 E5 E5 E5 F5 G5 H5 H5 H5 I5 I5 J5 K5 L5 M5 N5 O5 O5 P5 Q5 R5 S5 T5 U5 V5 W5 X5 Y5 Z5 `5  6 .6 +6 @6 #6 $6 %6 &6 *6 =6 -6 ;6 >6 ,6 '6 )6 !6 ~6 ~6 {6 ]6 ^6 /6 (6 _6 :6 <6 [6 }6 |6 16 26 36 46 56 66 76 86 96 06 :5 a6 b6 c6 d6 e6 f6 g6 h6 i6 j6 k6 l6 m6 n6 o6 p6 $3 q6 ",
"r6 s6 t6 u6 v6 w6 x6 g5 y6 z6 A6 B6 j5 C6 D6 E6 F6 G6 H6 I6 J6 K6 L6 M6 N6 O6 P6 Q6 R6 S6 T6 U6 V6 V6 V6 V6 W6 X6 X6 X6 Y6 Y6 Z6 `6  7 .7 +7 +7 @7 @7 #7 $7 %7 &7 *7 =7 -7 ;7 >7 ,7 '7 )7 !7 ~7 {7 ]7 ^7 /7 (7 _7 :7 <7 [7 }7 |7 17 27 37 47 57 67 77 87 97 07 a7 b7 c7 d7 e7 f7 g7 h7 i7 j7 k7 l7 m7 n7 o7 p7 q7 r7 s7 t7 u7 v7 w7 x7 y7 z7 A7 B7 C7 D7 E7 F7 G7 H7 I7 ",
"05 J7 t6 K7 v6 L7 M7 N7 O7 P7 Q7 R7 S7 T7 U7 V7 W7 X7 Y7 Y7 Z7 `7  8 .8 +8 @8 #8 #8 $8 %8 &8 *8 =8 =8 -8 ;8 >8 ,8 '8 )8 )8 )8 !8 ~8 {8 ]8 ^8 /8 (8 _8 :8 <8 [8 }8 |8 18 28 38 48 58 68 78 88 98 08 a8 b8 c8 d8 e8 f8 g8 h8 i8 j8 k8 l8 m8 n8 o8 p8 z] u: q8 r8 s8 t8 u8 v8 w8 x8 y8 z8 A8 B8 C8 D8 E8 F8 G8 H8 I8 J8 K8 L8 M8 N8 O8 P8 Q8 R8 S8 T8 U8 o| V8 W8 X8 Y8 Z8 ",
"`8  9 .9 +9 v6 @9 #9 $9 ^/ %9 &9 *9 =9 -9 ;9 >9 ,9 '9 )9 !9 ~9 {9 ]9 ^9 /9 (9 _9 :9 <9 <9 [9 }9 |9 19 29 39 49 59 69 79 89 89 99 09 a9 b9 c9 d9 e9 f9 g9 h9 h9 i9 j9 k9 l9 l9 m9 n9 o9 p9 q9 r9 s9 t9 u9 u9 v9 w9 x9 y9 z9 A9 B9 C9 C9 C9 D9 E9 F9 G9 H9 I9 J9 K9 L9 M9 N9 O9 P9 Q9 R9 S9 T9 E8 U9 V9 V9 W9 X9 Y9 Z9 `9  0 .0 +0 @0 #0 $0 %0 &0 @3 *0 9( =0 -0 ;0 >0 ,0 ",
"'0 )0 !0 ~0 {0 ]0 ^0 /0 (0 _0 :0 <0 *9 [0 }0 |0 10 20 30 40 50 60 70 80 90 00 a0 b0 c0 d0 d0 e0 f0 g0 h0 i0 j0 k0 l0 m0 m0 m0 m0 n0 o0 p0 q0 r0 s0 t0 u0 v0 w0 x0 y0 z0 A0 A0 B0 C0 D0 E0 F0 G0 H0 I0 J0 K0 L0 M0 N0 O0 P0 Q0 Q0 R0 S0 T0 U0 V0 W0 X0 Y0 Z0 `0  a .a +a @a #a $a %a &a &a *a =a -a ;a >a ,a 'a )a !a ~a {a ]a ^a /a (a _a %0 +3 :a <a I1 [a }a |a 1a 2a ",
"a5 3a 4a 5a 6a 7a v_ X] 8a 9a 0a 0a aa ba ca da ea fa ga ha ia ja ka la ma na oa pa qa ra sa ta ua va wa xa ya za za Aa Aa Ba Ca Da Ea Fa Ga Ha Ia Ja Ka La Ma Na Oa Pa Pa Qa Ra Sa Ta Ua Va Wa Xa Ya Za `a `a  b .b +b @b #b $b %b &b *b =b -b ;b >b ,b 'b 82 )b !b ~b {b ]b ^b /b (b (b (b _b :b <b [b [b }b |b 1b 2b 3b 4b 5b 6b 7b 8b 9b 8b 0b ab bb cb db eb fb gb ",
"hb ib 4a jb kb lb mb nb ob pb qb rb sb tb ub vb wb xb yb zb Ab Bb Cb Db Eb Fb Gb Hb Ib Jb Kb Lb Mb Mb Nb Ob Pb Qb Qb Rb Sb Tb Ub Vb Wb Xb Yb Zb `b  c .c +c @c #c $c %c &c *c *c =c -c ;c >c ,c 'c )c !c ~c {c +b ]c ^c /c (c _c _c :c <c [c }c |c 1c w: 2c 3c 4c 5c 6c 7c 8c 9c 0c ac ac bc cc dc ec fc gc hc hc ]a ic jc {a kc lc mc 8b nc nc oc ab pc db qc rc sc 1a ",
"tc uc 4a jb 5a vc wc xc yc zc Ac Bc Cc Dc Ec Fc Gc Hc Ic Jc Kc Lc Mc Nc Oc Pc Qc Rc Sc Tc Uc Vc Vc Wc Xc Xc Yc Yc Zc `c  d .d +d @d #d $d %d Yb &d *d =d -d ;d >d ,d 'd )d !d ~d {d ]d ^d /d (d _d :d :d <d [d }d |d 1d 2d 3d 4d 5d 6d 7d 8d 9d 0d ad bd cd dd ed fd gd hd id jd kd ld md md nd od pd qd rd {a sd td ud vd wd E7 mc nc nc xd o| ab yd zd qc Ad Bd Cd Dd ",
"Ed Fd Gd Hd Hd Id Jd Kd Ld Md Nd Od Pd Qd Rd Sd Td Ud Vd Wd Xd Yd Zd `d  e .e +e @e #e $e %e &e *e =e -e -e ;e ;e >e >e ,e 'e )e !e ~e {e ]e ^e /e (e _e :e <e [e }e |e 1e 2e 3e 4e 5e 6e 7e 8e 9e 0e ae be ce de ee fe ge he ie je ke le me 9d ne oe ne pe qe re se te ue ve we xe ye ze Ae Be Ce De De Ee vd ud ud Fe Ge He Ie Je Ke Le Me Ne Oe pc zd W8 Ad 1a Dd Pe ",
"hb Qe Re Se Te Q: Ue Ve We Xe Ye Ze `e  f .f +f @f #f $f %f &f *f =f -f ;f >f ,f 'f )f !f ~f {f ]f ^f /f /f (f (f _f _f :f <f [f }f |f 1f 2f 3f 4f 4f 5f 6f 7f 8f 9f 0f af bf cf df ef ff gf hf if jf kf lf mf nf of pf qf rf sf tf uf vf wf xf yf zf Af Bf Cf Df Ef se Ff Gf Hf If Jf Kf Lf Mf Ee vd vd vd ud Nf Of Pf Qf Rf Sf Tf Uf V8 V8 Vf pc Wf Xf Ad Yf Zf ,0 Pe ",
"hb Qe ib `f t6  g .g +g @g #g $g %g &g *g =g -g ;g >g ,g 'g )g !g ~g {g ]g ^g /g (g _g :g <g [g }g |g 1g 2g 3g 4g 3g 5g 6g 7g 8g 9g 0g ag 3f bg cg dg eg fg gg hg ig jg kg lg mg ng og pg qg rg sg tg ug vg wg xg yg zg Ag Bg Cg Dg Eg Fg Gg Hg yf Ig Jg (( Kg Lg Mg Ng Og Pg Qg Rg Sg Tg Ug Vg Vg Wg Wg Pf Xg Yg Zg `g  h Je .h +h @h +h ab yd #h $h Xf Cd %h &h *h =h ",
"-h ;h Fd >h ,h 'h )h +g !h ~h {h ]h ^h /h (h _h :h <h [h }h |h 1h 2h 3h 4h 5h 6h 7h 8h 8h 9h 0h ah bh ch dh eh fh gh hh ih gh jh jh ah kh lh mh r3 nh oh ph ue qh rh sh th uh vh wh xh yh pg zh Ah Bh Ch Dh Eh Fh Gh Hh Ih Jh Kh Lh Mh Nh Oh Ph Qh z] 'b 4c Rh Sh Th Uh Vh Wh Xh Yh Zh `h  i .i +i @i #i $i %i &i *i `g =i -i ;i >i ,i Oe pc pc ;0 'i W8 Cd Ad &h )i =h ",
"-h !i Qe a5 ~i {i ]i ^i /i >! (i _i :i <i [i }i |i 1i 2i 3i 4i 5i 6i 7i 8i 9i 0i ai bi ci di ei fi gi hi ii ji ki li li mi ni oi pi qi ri si ti ui vi wi xi yi Ih zi Ai Bi Ci Di Ei Fi Gi Hi Ii Ji Ki Li Ch Mi Ni Oi Pi Qi Ri Si Ti Ui Vi Wi Xi Yi Zi `i  j .j +j @j #j $j %j &j *j =j -j ;j >j @i ,j %i 'j )j !j ~j {j ]j ^j /j (j _j _j :j <j [j Ad }j Cd Ad |j )i =h ",
"-h !i Fd a5 1j ,h 2j 3j 4j 5j 6j 7j 8j 9j 0j aj bj cj dj ej fj gj gj hj ij jj kj lj mj nj oj pj qj rj sj tj uj vj wj xj yj zj Aj Bj Cj Dj )1 Ej Fj Gj Hj Ij Jj Kj Lj Mj Nj Oj Pj Qj Rj Sj Tj Uj Vj Wj Xj Yj Zj `j  k .k +k @k #k $k %k &k *k =k -k ;k >k ,k 'k )k !k ~k {k ]k Rg ^k /k (k _k :k <k <k [k }k |k 1k 2k 3k 4k 5k 6k 7k [j 8k 9k ;0 ;0 Ad Cd Cd &h |j 0k =h ",
"ak -h Qe ib 1j bk {i ck 4j dk ek fk gk hk ik jk kk lk mk nk ok pk qk rk sk tk uk vk wk xk yk zk Ak Bk Ck Dk Ek Fk Gk Gk Hk Ik Jk Jk Kk Lk Mk 0< Nk Ok Pk Qk Rk Sk Tk Mj Uk Vk Wk Xk Yk Zk `k  l .l +l @l Xj #l $l %l &l *l =l -l ;l >l ,l 'l )l Hg cd !l ~l {l ]l ^l /l (l _l :l <l [l }l |l 1l 2l 3l 4l 5l 6l 7l 8l 9l 0l al bl [j 8k 9k 9k ;0 Ad ;0 Ad Cd Dd *h )i =h ",
"cl dl el Fd fl gl hl il jl kl ll ml nl ol pl ql rl sl tl ul nk vl wl pk xl yl zl Al Bl Cl Dl El Fl Gl Hl Il Il Jl Kl Ll Ml Nl Ol Pl Ql Rl Sl Tl Ul Sl Vl Wl Xl Yl Zl `l  m .m +m @m #m $m %m &m *m =m -m ;m >m ,m 'm )m !m ~m {m ]m ^m /m (m _m :m <m [m }m |m {l 1m 2m 3m 4m 5m 6m 7m 8m 8m |l 9m 0m am bm cm dm em fm gm hm im jm km lm lm mm nm om pm pm qm rm sm sm ",
"tm um vm uc wm xm ym zm Am Bm Cm Dm Em Fm Gm Hm Im Jm Km Lm Mm Nm Om Pm Qm Rm Sm Tm Um Vm Wm ]2 Xm Ym Zm `m `m  n .n +n 02 }m @n #n $n %n &n *n s3 =n -n ;n >n ,n 'n )n !n ~n {n ]n ^n /n (n _n :n <n [n }n |n 1n 2n 3n 4n 5n 6n 7n 8n 9n 0n an bn cn dn dn {l en fn gn hn in jn kn ln mn nn on pn qn rn sn tn un vn wn xn yn zn An lm Bn Bn Bn Cn Cn Cn Cn Dn En Fn En ",
"Gn Hn In tc 3a Jn Kn Ln Mn Bm Nn On Pn Qn Rn Sn Tn Tn Un Vn Wn Xn Yn Zn `n  o .o +o @o #o $o %o &o *o =o -o ;o >o ,o 'o )o !o q3 ~o {o ]o ^o /o (o _o :o <o [o }o |o 1o 2o 3o 4o 5o 6o 7o 8o 9o 0o ao bo co do eo fo go ho io jo ko lo mo no pe oo po qo ro so to uo vo wo xo yo zo Ao Ao Bo Co Do Eo Fo Go Ho Io Jo Ko J/ Lo Mo lm Bn Bn No No Cn Cn Cn Oo Dn Oo Fn En ",
"Po Hn Qo tc 3a Jn Kn ym Ro Am So To Uo Vo Wo Xo Yo Zo `o  p .p +p @p #p $p %p &p *p =p -p ;p >p ,p ,p 'p )p !p ~p {p ]p ^p /p Ok (p _p :p <p [p }p |p 1p 2p 3p 4p 5p 6p 7p 8p 9p 0p ap bp cp dp ep fp gp hp ip jp kp lp mp np op pp qp rp sp tp up vp wp xp yp zp Ap Bp Cp Dp Ep Fp Ao Ao Gp Hp Ip Jp Kp Lp Mp Np Op Pp re Qp Rp lm Bn Bn No No Cn Oo Cn En Oo En Sp Tp ",
"Up Vp Hn Ed uc Wp Xp Kn Ro Yp Zp `p  q .q +q @q #q $q {c %q &q *q =q -q ;q >q ,q 'q )q !q ~q {q ]q ^q /q (q _q :q <q [q }q |q 1q 2q 3q 4q 2q [p 5q 6q 7q 8q 9q 0q aq bq cq dq eq fq gq hq iq jq kq lq mq nq oq pq qq rq sq tq uq vq wq wq xq yq zq Aq Bq xp )1 Cq Cq Dq Eq Ph Fq Gq Hq Iq Iq Hp Jq Kq Kp ]2 Lq Mq Nq Oq Pq Qq Rp Bn No No No Rq Cn Oo Sq Tq Sq En En Uq ",
"Vq Po cl Ed tc Wq Xq Xp Yq Ro Zq `p  q `q  r .r +r @r #r $r %r &r *r =r -r ;r >r ,r 'r )r !r ~r {r ]r ^r /r w[ (r <m _r :r <r [r }r wf |r 1r 2r 3r 4r 5r 6r 7r 7r 8r 9r Mj 'n 0r ar br cr dr er fr gr hr ir jr kr lr mr nr or pr qr rr sr tr ur vr wr xr xp yr Dq zr Ar Br Cr Hq Hq Iq Hq Dr Hq Hp Er Fr Gr Lq Hr Ir Jr U9 Kr Lr Bn No No Rq Mr Cn Oo Nr Or Tp Pr Cn Qr ",
"Rr Sr Tr Ur Vr Wr Xr Yr Zr `r  s .s +s @s #s $s %s &s *s =s -s ;s >s ,s 's )s !s ~s {s ]s ^s /s (s _s :s <s [s Bq }s |s wf 1s 2s b7 3s 4s 5s 6s 7s 8s 9s 0s as bs 7r cs Zl ds es ~s fs gs hs is js ks ls xn 7c ms ns os ps x[ qs rs ss ts us us vs ws t8 xs ys zs As Bs Cs Ds Es Fs Gs Hs Is Js Ks Ls Ms Ns Os Ps Qs Rs Ss Ts Us Vs Cn Ws |a Vs Xs Ys Ys Ys Ys Zs Zs En ",
"`s Sr Vp Ed 05 Vr  t .t U] +t @t #t $t %t &t *t =t -t {: ~p ;t >t ,t 't )t !t Yl ~t {t D[ ]t ^t /t (t _t :t <t }m }s [t }t |t pe 1t 2t 3t 4t 5t 6t 7t 8t 9t 0t at bt ct dt et ft gt ht it jt kt lt mt nt *r ot pt qt rt st tt ut vt wt xt yt zt At Bt Ct Dt Et Ft Ft Gt Ht Ht It Iq Jt Kt Lt Mt Nt Nt Nt Ot Pt Qt Rt St Rt Rt Tt Vs Cn Ut Vt Nr Wt Ys Wt Ys Ys Zs Zs En ",
"`s `s Xt Yt Zt )0 `t O:  u +t .u #t +u @u #u $u %u Xi &u y[ *u =u -u ;u >u ,u 'u )u !u ~u {u ]u ^u /u (u _u :u <u wp [u }u |u 1u 2u 3u [p 4u 5u 6u 7u 8u 9u 0u 9u au bu cu du eu fu gu hu iu {s ju ku lu mu nu ou pu qu ru su tu uu vu xt wu xu yu zu Au Bu Cu Du Gt Ht Gt Eu Ht Fu Gu Hu Iu Ju Ku Rt Ot Ot Ot Rt Rt St St St Lu Mu Nu Vs Ou Pu Ys Ys Wt Qu Wt Zs Zs En ",
"`s `s Po In Ru 05 Su !/ Tu Uu Vu Wu Xu Yu Zu `u  v .v 92 }m +v @v #v $v %v &v *v =v -v ;v >v ,v 'v )v !v ~v {v ]v ^v /v (v [p _v :v zf Wi <v [v }v |v 1v 2v 3v 4v 5v Vk 6v 7v 8v 9v 0v av fu bv cv dv ev fv gv hv iv yq jv kv lv mv nv ov pv qv rv Au Au sv tv uv vv wv xv yv Cs zv Av Bv Cv Dv Ot Rt Rt Rt Rt Rt Ot Ev Fv Gv Hv Xs Iv Jv Xs Ys Wt Wt Wt Qu Kv Ys Zs En ",
"`s `s Tr hb r6 Lv Su Mv Nv Ov Pv Wu Qv Rv Sv Tv Uv Vv Wv Xv Yv Zv `v  w .w +w @w #w $w $w %w &w *w =w -w ;w Yi 4s zf >w xf 4t ,w Ph 'w <t <m )w !w ~w {w ]w ^w /w (w _w bu :w <w [w vt }w |w 1w 2w 3w 4w zi 5w 6w 7w 8w 9w 0w aw bw cw dw ew fw xu zu gw hw iw jw kw lw mw nw Gs ow pw qw rw sw Rt St St Rt Rt Rt Gv tw uw vw ww Xs Kv Kv Kv Wt Wt Wt Ys xw Nr Zs Zs En ",
"yw Rr zw cl Aw Bw Su Cw Nv Ov Dw Ew Fw Gw Hw Iw Jw Kw Lw Mw Lw Nw Ow #l Pw Qw Rw Sw Tw Uw Vw Ww Xw Yw Zw `w  x ad Gg .x +x @x #x {: $x W} %x &x <u *x =x -x ;x >x ,x 'x )x !x ~x {x ]x ^x /x (x _x :x <x [x }x |x 1x 2x 3x 4x 5x 6x 7x 8x 9x 0x ax bx cx dx dx ex fx gx hx ix jx jx kx lx lx mx sw nx St Rt Rt ox St px qx rx sx Kv Kv Kv Wt Wt tx ux En vx wx xx yx tx ",
"yw yw zx Tr hb Ax Su Bx Cx Dx Ex Fx Fw Gw Gw Gx Hx Ix Mw Wv }m Jx Kx Lx Mx Nx Ox Px Qx Rx Sx Tx Ux Vx Wx Xx Yx Zx `x  y .y +y @y Gg #y Jx }s $y %y &y *y =y -y ;y >y ,y 'y )y !y ~y {y ]y ^y /y (y _y :y <y [y }y |y 1y 2y 3y 4y 5y 6y 7y 8y 9y 0y ay by cy dy gx ix ey mx ey fy gy hy mx iy jy jy ky St St ly Rt St my rx rx Hv Kv Kv Wt Wt Wt Cn Dn ny Dn Fn Qu oy Dn ",
"yw yw py tm -h Ax Su Bx qy ry sy Fx Fw ty uy vy wy xy <m cn yy zy Ay By Cy Dy Ey Fy Gy Hy Iy Jy Ky Ly My Ny Oy Z^ Py Qy Ry Sy Ty Kk Uy Vy Wy Xy Yy Zy `y 8r  z .z +z @z #z $z %z &z *z =z -z ;z >z ,z 'z )z !z ~z {z ]z ^z /z (z _z _z 0x :z :z 9y <z [z cy }z gx ey ey |z 1z mx mx 2z iy jy ky ky 3z Gv Gv ox ox my rx rx rx Hv 4z 5z Wt Wt Wt 6z 7z 8z Oo En Qu Dn Oo ",
"9z `s 0z ak -h az bz cz dz ez fz gz hz iz jz kz lz mz nz W} Jk oo Ix oz pz qz rz sz tz uz vz wz xz yz zz Az Bz -k Cz Dz Ez Fz 'o Gz Ix Hz Wy Wy Xy Iz Wy Jz `y Kz Lz Mz Nz Oz Pz Qz Rz Sz Tz Uz Vz Wz Xz Yz Zz `z  A .A +A @A #A $A _z 0x cy %A &A *A =A -A ;A >A ,A 'A )A !A ~A jy ~A iy jy iy 3z 3z Gv St {A St Gv my ]A ]A ^A Kv Wt Wt Kv Ys Dn Dn Dn Dn Dn Dn /A ny ",
"(A yw 0z ak -h az bz cz _A :A <A [A }A |A 1A 2A 3A 4A 5A X} xp 6A 7A |m 8A 9A 0A aA bA cA dA eA fA gA hA iA &k jA kA lA @y Ty $y `y mA `y Yy nA nA Wy Yy Yy oA pA qA rA sA tA uA vA as wA Wz xA bs as 8r yA zA AA BA CA DA EA FA _z GA 0x }z HA IA JA KA LA MA 2k iy mx jy jy jy jy jy NA iy ~A 3z 3z Gv Gv ox Gv my ]A ]A ]A sx Kv Wt Wt Wt Qu Dn Dn Dn Dn Dn rm Pe Pe ",
"OA yw py tm PA QA RA SA TA UA VA [A WA XA YA ZA `A  B .B +B @B #B $B %B {l &B *B =B -B ;B >B ,B 'B )B !B ~B {B ]B ^B /B (B _B Wy Yy Wy mA Iz Wy Jz Jz nA Yy Wy :B <B [B }B |B 1B 2B wA oA `y 3B wA 7r 4B 5B 6B 7B 8B 9B 0B aB cy :z bB cB dB eB fB Z^ gB %z Df Ak hB iB jB ky nx jy kB NA 3z ky lB St ox mB nB oB oB pB ]A ]A sx oy Ys Wt oy Ys Qu Dn Dn Dn Dn rm Pe qB ",
"rB yw `s zw sB tB uB vB wB xB yB zB AB BB CB DB EB FB GB HB IB JB KB LB ,k MB Eh NB OB PB QB RB SB TB UB VB WB XB YB ZB 7A `y Yy Wy Wy `B `y `B  C Yy Xy Jz Wy Wy .C +C @C #C Kz pA $C Xy 3B %C &C *C =C D3 -C ;C >C ,C 'C )C !C ~C {C ]C Cs ^C <t /C Nl (C _C :C 7t <C [C }C |C 1C 2C 3C 4C 4C 5C 6C ww Tt 7C 8C 9C 9C 9C 9C 8C Wt Pu Pu oy oy 0C Zs Zs Dn aC sm bC cC ",
"dC (A Rr eC sB fC gC hC wB xB iC jC kC lC mC nC oC pC qC rC sC tC uC vC wC xC yC zC AC BC CC DC EC FC GC HC IC JC KC Lw LC MC Yy NC  C NC Yy Wy Wy Wy  C Wy $C OC PC QC RC 3B $C 3B SC TC UC VC WC XC YC ZC `C  D ^z .D ax +D @D #D $D Eu %D &D 2q *D {o =D -D ;D >D ,D 'D )D !D ~D 4v /l {D 4C ]D ^D /D (D my _D :D <D 9C 9C [D Wt Pu }D Qu oy Ys Zs Qu Dn Fn sm |D 1D ",
"rB (A 2D eC sB 3D gC hC wB xB yB iC 4D 5D 6D nC 7D 8D 9D 0D aD bD cD cD cD dD eD fD gD hD iD jD kD lD mD nD oD pD Jk )w ;z qD `B Wy rD sD nA Xy  C pA `y tD uD 1m vD bs $C wD 3B uD xD yD zD AD BD XC CD DD ED CA FD GD HD ID JD KD LD MD ND s3 OD PD QD RD SD TD UD VD WD XD YD ZD `D  E .E +E @E #E $E %E &E *E =E -E 9C 9C 8C Wt Kv Ys Ys Ys Ys Qu En Sp ;E >E ,E 'E ",
"rB (A Rr zw )E 3D !E hC ~E {E yB ]E iC zB zB ^E /E (E _E :E <E [E cD cD cD cD cD uC }E |E gD 1E sq 2E 3E 4E 5E /( %x +n po )w Uz SC `y Wy `B Wy `B `y tD 6E 7E 2B Kz Kz 8E ]v uD 9E 0E aE bE cE dE eE fE gE hE iE jE kE lE mE nE oE ow pE qE rE 6s sE tE uE vE wE xE yE zE AE BE CE DE EE FE GE HE IE Hv rx JE KE LE ME NE 9C pB Ys Wt Ys Ys Ys Tp Oo ;E OE ;E qm PE QE ",
"rB (A Rr zw )E RE SE TE UE VE WE yB yB 4D zB 4D XE YE ZE `E  F .F .F +F @F .F #F cD $F cD cD $F %F &F *F =F -F Ry ;F Jk :m >F ,F Lw <u 'F `y Iz Wy `y 7E )F !F ~F {F ]F 1m ^F /F (F _F :F <F [F }F |F 1F 2F 3F 4F 5F 6F 7F 8F 9F [z 0F aF bF cF dF eF fF gF hF iF jF (w kF lF mF .z .z nF oF pF qF rF sF pB tF uF vF wF 9C 9C 8C Wt Ys Ys Ys Ys xF yF ;E zF AF BF CF DF ",
"(A (A EF FF GF HF IF JF KF LF MF NF OF zB kC PF QF RF SF TF UF VF .F WF WF @F @F XF cD YF ZF `F  G .G xC +G @G #G $G %G &G *G =G -G ;G >G Xy wA 3B ,G 'G )G !G ~G 3B wA {G ]G ^G ]F /G (G _G :G <G [G }G |G 1G 2G 3G 4G 5G 6G 7G 8G 9G 0G aG rE bG cG dG Vv eG fG gG _w hG iG jG kG lG mG nG oG pG qG rG pB sG tG uG qx ]A ]A sx Wt Ys vG Cn wG xG yG zG Dn AG zF BG CG ",
"(A (A DG EG FG GG HF HG IG JG KG {E LG MG iC NG OG PG QG RG UF SG WF TG SG WF .F WF UG VG WG XG YG ZG `G  H .H +H @H #H Ol `B Wy Wy =G bs Wy $H Kz %H &H *H =H -H Kz ;H >H ,H 'H )H !H ~H {H ]H ^H /H (H _H :H <H [H }H |H 1H 2H 3H 4H 5H ]( dG Vv 6H 7H 8H 9H 0H aH iG bH cH mF dH eH fH gH hH iH jH .z kH lH mH ]A ]A ]A ]A sx Wt Ys vG Tp 6z nH oH zG xx pH qH rH sH ",
"(A (A DG tH uH GG HF JF vH wH xH yH WE WE zB zH AH PG BH CH DH EH FH GH HH WF IH JH WF KH LH MH NH OH PH +G QH -l RH SH TH Yy UH UH $C bs `y ;H VH WH XH YH -H ZH `H `H  I $C .I +I @I #I $I %I &I *I =I -I ;I >I ,I 'I )I 0F !I %A ~I pe {I 1r ]I fF Vv ^I /I (I _I :I [x <I [I lF }I |I ;x 1I 2I 3I 4I 5I lH mH ]A ]A ]A ]A pB Ys Ys Qu En Pr 6I BG En xx 7I 8I 9I sH ",
"(A (A DG 0I uH aI RE bI cI wH dI VE eI fI xH gI hI iI jI kI lI EH mI mI nI nI oI pI JH WF KH XF qI rI sI tI uI 9w vI #B sD $C Xy oA wA wI Sz xI yI zI AI BI CI DI EI FI GI  I $C  I HI II JI KI LI MI NI OI PI QI RI SI TI UI VI WI XI Af :m YI ZI `I  J .J +J @J #J $J tA %J &J *J <C 3v [w cm >y =J -J ;J >J ]A ]A ]A ]A ]A 0C Zs Zs Dn aC Dn ,J 'J )J !J ~J {J ]J ^J ",
"/J /J (J 0I uH _J :J <J cI wH [J wB }J eI |J 1J hI gI 2J jI jI GH nI nI GH 3J 4J oI pI JH 5J 6J qI 7J 8J 9J YB 0J aJ bJ cJ dJ eJ fJ  I FI gJ hJ iJ jJ kJ lJ mJ nJ oJ pJ qJ rJ sJ tJ uJ vJ wJ xJ yJ zJ AJ BJ CJ DJ EJ FJ GJ HJ IJ JJ KJ 1c LJ MJ rE `I 4c NJ OJ TD lG )D PJ QJ 1o %J RJ SJ 8l TJ UJ VJ WJ XJ YJ ZJ ]A ]A 0C 0C `J Zs Zs Dn aC Dn Qu Tp  K .K +K @K ]J ^J ",
"#K $K %K &K *K =K -K ;K >K ,K 'K 'K )K !K ~K {K ]K yB 4D ^K kC /K (K _K _K oI (K :K <K [K }K |K 1K 2K 3K 4K 5K 6K 7K 8K 9K 0K 3B  I aK bK cK dK eK fK gK hK iK jK kK lK mK nK oK pK qK rK sK tK uK ,l vK wK xK yK zK Eu AK BK CK DK EK FK GK HK uE IK JK KK LK MK NK OK PK >z 'k QK Kj RK SK TK UK VK 'D WK XK YK ZK ZK Ys Ys Ys Ys Dn Dn En ;E Fn Tp ;E OE OE {J `K  L ",
".L +L +L &K DG @L aI #L >K ,K $L %L &L *L =L -L ;L >L OG ,L 'L )L !L !L ~L mI oI {L B9 ]L @k ^L /L (L _L :L <L [L ns }L ,c |L 1L 2L 3L 4L 5L 6L Q@ 7L 8L 9L 0L aL bL cL dL eL fL gL hL iL jL kL lL mL nL oL pL qL rL Eu sL Q< tL uL vL p2 d< Gr wL xL yL zL AL BL CL DL EL %y FL GL HL IL JL KL LL #d ML NL OL PL QL Ys Ys Ys Ys Ys Dn Tp Tp RL ;E ;E OE OE OE zG SL TL ",
"UL +L VL &K DG WL XL YL <J cI ZL %L &L `L  M .M +M @M iC hI PF #M $M (K %M &M ~L *M =M -M ;M >M ,M 'M )M !M ~M OH {M OH ]M ^M /M (M _M :M <M [M }M |M 1M 2M 3M 4M 5M 6M 7M 8M 9M 0M aM bM cM dM eM fM gM hM iM jM kM lM mM nM `I oM a_ pM qM rM sM tM (x 'F uM vM wM xM yM zM 0u BE AM BM &J $j CM DM /w EM FM GM HM P8 Ys Ys Ys Ys Dn En 6z ;E IM ;E OE OE OE zF JM ^J ",
"UL %K %K KM &K WL _J YL LM MM 'K NM OM *L PM QM *L fI RM SM TM UM VM WM XM oI _K YM ZM `M m8  N .N +N wq @N #N $N %N &N *N =N -N  z ;N >N ,N 'N )N !N ~N {N ]N ^N /N (N _N :N <N [N }N |N 1N 2N 3N 4N 5N 6N 7N 8N 9N 0N aN bN cN 82 dN eN fN gN hN iN jN <u Gz kN 'y lN VK mN nN oN pN lF DM qN rN sN VJ cs 9u tN uN J8 Zs Zs Zs Zs Dn Dn vN ;E zG zG zG OE wN zF SL xN ",
"UL %K %K KM &K WL _J YL yN MM zN ZL %L `L PM QM AN BN mr CN DN EN FN GN HN !L !L YM IN JN ~L mI Bt KN LN MN NN ON PN 3K QN RN SN TN tz UN VN WN XN YN ZN `N  O .O +O @O #O $O %O &O *O yJ =O -O %D ;O >O ,O 'O )O !O ~O {O ]O 82 ^O /O (O _O :O <O dF [O as `y }O |O Oz 1O 2O 3O 4O 'y 5O 6O 5v zE 7O 8O KL 9O 0O aO bO Zs Zs Zs Zs Dn Dn Dn ;E zG zG zG OE wN zF SL xN ",
"UL %K cO %K (J dO _J YL yN MM eO ZL fO gO gO `L hO iO jO kO lO mO nO oO pO qO YM YM rO sO !L tO Cu uO vO wO xO yO zO AO BO CO DO EO FO GO HO IO JO KO LO MO WK NO OO PO QO RO SO TO UO VO WO XO YO ZO `O [f  P .P !O +P  x @P #P $P %P `x &P .y *P Vy =P `B Iz Iz zL zL -P #J *J ;P >P lF ,P 'P )P !P ~P {P ]P |v ^P /P (P (P (P (P Dn aC Dn zG zG zG zG OE OE zF _P ^J ",
":P KM cO <P DG [P XL }P |P <J 1P eO eO 2P 3P 2P 4P 5P 6P 7P 8P 9P 0P aP bP cP dP YM YM eP eP fP eP gP hP iP jP kP lP mP nP oP pP qP rP sP tP uP vP wP xP yP zP AP BP CP DP EP FP _v GP HP IP JP KP LP MP NP OP PP PP QP RP SP 4t TP UP tE RD VP Pl $y Iz Wy WP NC Yy Jz [O Wy XP YP ZP `P  Q .Q UK +Q @Q #Q $Q [x %Q &Q Dn Dn Dn aC aC aC aC aC OE OE OE OE OE .K *Q ^J ",
"UL cO cO cO &K =Q -Q ;Q |P yN eO 1P eO >Q [J ,Q PM 'Q )Q 6H yr !Q ~Q {Q ]Q 9x ^Q /Q (Q dP (Q _Q :Q <Q [Q kP !L }Q |Q 1Q CO 2Q wq 3Q 4Q 5Q yo 6Q 7Q 8Q 9Q 0Q aQ bQ cQ dQ eQ fQ gQ hQ iQ jQ kQ lQ mQ ~O nQ oQ OP pQ qQ rQ sQ :m tQ 7y uQ vQ wQ xQ `y Iz Iz `y Iz Wy Iz Wy Iz Iz nA yQ (C zQ AQ jn CM BQ it CQ DQ EQ FQ GQ Dn Dn Dn aC aC aC aC aC OE OE OE OE OE HQ *Q ^J ",
"IQ cO JQ %K KQ LQ -Q MQ NQ |P OQ eO eO PQ QQ RQ SQ TQ UQ V} Cq Y} VQ WQ XQ YQ ZQ `Q  R .R +R @R `Q #R $R wu %R %R &R *R =R -R %R ;R >R ,R 'R )R !R ~R {R ]R ^R /R VO (R _R :R <R [R }R |R Qi 1R mQ qQ 2R `L 3R 4R 5R 6R 7R *P 3q 8R 9R 0R aR bR Iz mA cR as dR as eR cR `B Wy Iz Wy `B fR gR [C hR iR jR %z *x kw kR aC aC aC aC aC aC aC aC aC OE OE OE OE wN HQ lR mR ",
"nR JQ JQ %K oR LQ pR qR rR YL sR 1P 1P PQ PQ 2P tR tR uR vR }p wR xR yR zR Fs AR `Q `Q BR CR CR DR .P ER FR _Q eP eP eP GR _Q YM HR IR JR KR LR MR NR fQ OR PR QR It RR SR TR UR VR WR XR YR ZR `R  S .S +S @S #S $S %S &S {v Bq OD xA mA `y mA `y $y *S *S bR =S as as mA wA Wy Iz `y -S ;S >S mA as ,S 'S )S !S aC aC aC aC aC aC aC aC aC aC OE OE OE OE wN ~S {S ]S ",
"UL oR ^S cO /S (S pR _S rR YL :S 1P <S QQ PQ 2P [S }S SQ |S 1S 2S 3S 4S 5S 6S 7S 8S 9S +R ZQ @R 5S 0S aS bS cS dS eS eP fS gS %R eP :Q YM hS iS jS kS Au lS /R mS It It nS oS pS qS rS sS tS uS Fs vS hO 'K wS %S %S %S xS yS Tz Gz bs mA =G TH xA as dR zS xA zS xA dR mA mA as =G AS BS 'F &x 7r CS DS ES FS Sp aC aC aC aC aC aC aC aC aC aC zG GS wN OE wN HS IS JS ",
"KS LS MS NS OS PS QS RS SS rR TS US :S VS WS XS YS ZS +S `S  T .T +T NP oQ @T #T 5S 5S Fs ZQ 6S 5S 5S hO 5S ER +R +R BR BR BR BR BR BR ZQ $T %T &T ZQ Fs Fs *T zs =T -T ;T >T ,T 'T )T Fy !T ~T {T ]T ^T /T (T _T :T Lr BK zn <T [T }T |T -z =S =S as dR as as as xA =S xA xA AS zS xA [O [O 'F 1T 2T 3T 4T Pe 5T 5T 5T 5T 5T GS 6T 6T 6T 6T OE 7T 7T 7T 7T 7T 8T 9T 0T ",
"KS LS aT bT cT dT eT fT SS rR gT hT iT jT eO eO kT lT mT AN gI PM PM oQ nT oT pT *T *T Fs qT rT sT Fs 2R !O 6S tT uT vT wT ZQ xT yT %T ZQ Fs Fs Fs Fs Fs Fs *T *T zT zT AT BT CT DT ET FT GT HT IT (T JT KT ln LT MT NT OT OT PT QT RT ST TT Oh UT VT WT XT Iz Iz =S YT ZT -G -G `T ,F MC Hz  U .U +U @U #U bC 5T #U #U #U #U $U OE OE OE OE OE ~S ~S ~S ~S ~S PE %U &U ",
"KS LS *U =U dT -U QS ;U SS rR TS >U ,U :S :S <S 'U )U !U ~U {U ]U PM oQ !K ^U .T 2R /U (U _U c2 :U <U DR 6S 6S [U }U Fs |U ZQ ZQ 1U OP ZQ 2U 2U Fs 3U 4U Fs Fs 5U 6U 7U 3R 8U 9U 0U e[ 1S aU bU cU dU eU fU hr gU hU iU jU QT kU RT RT lU ST mU nU oU Ol pU as jN qU oG rU sU Y^ tU uU vU wU xU 75 =h |D ~S 7T #U #U #U #U #U yU OE OE OE OE OE 4T ~S #U ~S ~S zU 9T &U ",
"KS AU *U bT BU CU eT DU EU SS FU GU hT :S :S HU IU ZL JU KU LU MU NU YS YS OU PU QU RU SU TU UU VU WU XU 5S *T 6S 2R YU 6S 6S *T ZU `U  V .V +V @V 7U #V $V $V %V &V &V *V %L =V zN -V zN zN zN ;V @a xf >V ,V 'V )V nu !V ~V {V ]V 87 ^V /V (V ^V _V :V <V [V %y }V |V 1V 2V 8C 2V Ys Dn =h bC =h 3V 4V #U #U #U #U #U #U #U #U yU yU yU yU yU 5V 6V 7V 8V 6V 9V 9T 0T ",
"KS AU *U bT BU CU eT DU EU SS GU 0V GU aV >U US bV YS cV dV eV fV %L +S gV hV iV jV kV lV mV D[ nV Zh oV pV qV rV *T *T *T *T sV tV PK uV &V vV fx wV xV yV xV zV -V -V -V -V zN zN ZL ZL $L $L AV BV CV DV EV FV GV HV IV JV lU ]V ^V ^V (V KV LV MV ,0 ,0 NV OV PV QV Kv Kv 2V RV Dn Dn bC bC =h 3V 4V #U #U #U ~S ~S #U #U #U ~S ~S ~S ~S ~S CF SV TV 6V 6V UV VV {S ",
"WV XV *U YV YV CU eT eT ZV `V  W .W +W @W #W :S $W %W :S &W bB mT *W 'w =W -W ;W #n >W ,W 'W )W dq !W ~W <w [S ^T {W ]W ^W /W (m |t (W _W %L *V :W <W [W }W |W 1W 2W 3W 4W 5W 6W 7W 8W 9W 0W aW X^ *k bW #r cW -y ^2 dW sn eW tU fW gW hW iW jW kW lW mW nW nW oW =h rm )i Qr =h bC |D pW qW qW rW rW sW HS pW PE PE $U $U 8T 7V 6V $U 6V 6V 6V *Q tW uW vW wW 6V UV xW ",
"yW yW XV *U *U zW CU dT eT QS  W TS ,U AW @W BW TP CW DW ZL eO bU 7y .y po ~l <m EW 5q FW GW HW IW JW KW LW MW NW +S *V *V *V OW PW G/ QW RW RW SW TW UW VW WW XW YW ZW `W  X 'U .X +X @X #X $X %X &X *X =X -X ;X >X ,X aO 'X )X !X !X !X ~X {X Y8 pc ]X ^X /X (X _X _X -0 mW _X :X :X qW sW sW qW sW <X [X :X PE 6V 6V 9V 6V 8V 6V 6V 6V 6V 6V }X |X 1X 2X wW *Q *Q wW ",
"yW 3X aT *U *U zW CU dT -U eT 4X 5X 6X 7X 8X 9X >U iT 0X aX bX cX dX Lk eX fX gX hX %C iX jX kX lX UU mX nX oX pX qX ZL rX zN sX tX uX 5W 5W 5W vX wX xX yX zX AX BX CX KV DX EX DX FX GX HX )j IX JX aF /C Jk KX LX MX NX OX PX QX QX !X !X RX SX TX UX VX SX WX XX XX YX ZX ZX mW mW `X  Y  Y  Y .Y .Y  Y +Y @Y 6V 6V 8V 8V 6V #Y UV 6V 6V 6V |X $Y |X wW 2X UV *Q wW ",
"XV XV yW %Y aT &Y dT dT eT eT *Y =Y 6X -Y ^V ]V ;Y >U hT AW aX cU >Y ~o ,Y 'Y )Y !Y ~Y {Y ]Y ^Y em $v /Y (Y _Y :Y zR ~V <Y 4W 5W [Y }Y `W }Y }Y |Y 1Y VW 2Y 3Y 4Y 5Y [C fg 6Y 7Y 8Y 9Y 0Y aY bY cY dY Ph eY oo fY fY gY hY iY jY kY kY kY lY mY nY nY nY oY pY qY rY XX qY XX WX ZX sY ZX ZX sY sY ZX mW tY tY 5V 8V 8V 6V 8V 8V 1X wW wW 2X 2X wW wW wW 2X 2X uY vW 1X ",
"yW 3X *U %Y %Y bT CU eT eT eT `V vY 0V wY xY yY ;Y zY ,U AY @W aX BY :p v: CY DY EY wP FY GY HY IY JY KY !s LY nX MY [s NY 5W OY `W `W PY `W }Y QY <Y RY SY *s TY UY VY WY Fr XY YY ZY `Y 9Y (j  Z .Z wp oo po ~l gn +Z @Z #Z $Z V8 V8 nY nY nY nY nY nY lY oY oY %Z &Z *Z =Z pY XX &U XX ZX sY sY {S tY {S {S 5V 8V 8V pH 8V -Z ;Z $Y >Z ,Z ,Z ,Z ,Z ,Z 2X 2X UV UV wW ",
"3X 3X XV %Y 'Z )Z !Z &Y CU eT ~Z {Z ]Z ^Z /Z (Z _Z :Z <Z [Z [Z }Z |Z /o 1Z 2Z 3Z 4Z *x 5Z 6Z 7Z 1p Fy 8Z 9Z 0Z aZ bZ cZ dZ eZ fZ 0W gZ hZ iZ }Y jZ kZ lZ mZ nZ oZ pZ qZ rZ CX sZ tZ uZ (j vZ wZ xZ yZ eY ro zZ #n xr AZ BZ PX CZ DZ DZ DZ EZ FZ DZ FZ FZ GZ HZ IZ oY &Z rd JZ KZ LZ LZ MZ NZ OZ PZ 0T 0T QZ RZ -Z 5V 5V 9T lR vW SZ TZ vW UZ vW vW vW vW vW vW VZ WZ XZ ",
"YZ yW XV yW 'Z ZZ `Z `Z  ` CU dT QS eT .` +` @` #` $` %` &` *` =` -` ;` >` ,` '` )` !` ~` {` ZC 8s ;n ]` ^` /` (` _` 2O :` <` [` al }Y }` |` 1` 2` 3` 3` 4` 5` zZ 6` 7` 8` 9` 0` a` 0Y b` c` d` e` f` @H ,o >W >W g` h` i` j` j` 3} k` l` 3{ m` n` o` p` q` r` s` t` s` q` t` t` u` v` w` x` y` z` z` XX TV |X 9T {S A` {S {S A` A` {S {S {S B` C` C` C` C` C` D` E` F` ",
"YZ yW yW yW 'Z ZZ `Z `Z  ` CU eT QS eT ~Z G` G` H` I` J` xY K` L` M` 1u wp N` O` P` Q` R` S` T` lu U` EN V` W` }y ^k X` Y` Z` ``   .. .+ .@ .0Y 3` # .$ .% .& .* .KX = .- .; .> ., ., .' .' .t_ ) .! .~ .{ .] .^ ./ .( ._ .: .< .[ .^X v: ;J } .| .1 .2 .3 .q` q` 4 .5 .6 .7 .8 .w` 9 .0 .a .b .c .c .d .RZ RZ RZ d .WZ e .e .KZ f .g .e .>Z ;Z C` C` C` C` C` D` E` F` ",
"h .3X 3X 3X %Y ZZ `Z `Z i .dT eT dT dT j .mY k .l .l .m .n .o .p .q .r .RD s .t .u .v .w .x .'S y .z .A .B .C .D .E .F .lZ G .H .I .J .J .K .0` L .L .M .N .O .uL CK b7 P .P .P .Q .R .R .Q .S .T .U .V .W .W .X .Y .Y .Z .{ .` .XI oM DV  ..+J ...+..@..#..$..%..r` 6 .r` r` r` &..*..*..0 .=..-..x` ;..>..,..>..,..'..;..)..!..~..{..]..^../..C` C` A` {S C` (..E` _..",
":..<..3X 3X %Y ZZ [..`Z }..dT dT dT |...` 1..1..2..l .3..4..5..6..7..8..9..0..a..b..c..d..3B e..f..g..h..2O se =j ~z i..j..k..l..`g m..Xg n..o..p..q..Q .r..u{ s..t..u..v..v..w..x..y..x..x..y..z..A..B..C..D..A..E..F..G..F/ H..]( I..SD J..K..L..M..N..O..DM P..Q..R..S..>O R..T..6 .U..=..=..V..V..a .{..W..u` X..,..X..'..Y..Y..Y..Z..`.. +.C` C` .+..+.++.@+.#+.$+.",
":..<..yW XV %Y %+.[..`Z }..dT dT &Y j .&+.lY 1..*+._S =+.-+.;+.>+.,+.'+.)+.>G !+.~+.{+.xD ]+.^+./+.(+._+.:+.<+.[+.qs }+.|+.1+.m..m..2+.3+.4+.5+.6+.v..7+.8+.8+.9+.0+.0+.a+.a+.b+.c+.d+.e+.f+.g+.h+.i+.j+.k+.l+.m+.n+.o+.p+.q+.r+.MJ s+.t+.u+.v+._I w+..Q N..x+.y+.z+.A+.z+.A+.B+.C+.D+.6 .r` r` E+.E+.F+.G+.x` H+.Z..I+.J+.K+.I+.Z..Z..J+.L+.{..C` C` C` .+..+.(..E` F` ",
"h .h .YZ M+.N+.O+.`Z [..`Z P+.Q+.R+.j .S+.T+.U+.H` m .V+.W+.V+.X+.Y+.rE *G ]v Z+.`+. @..@.+@.+@.@@.#@.$@.%@.&@.*@.Fo N .M .=@.-@.;@.>@.,@.'@.)@.!@.~@.{@.]@.^@./@./@./@./@./@.(@._@.:@.<@.[@.}@.I8 |@.1@.2@.d+.3@.l+.4@.a7 5@.6@.7@.}m 8@.9@._< 0@.a@.cu b@.c@.d@.e@.f@.g@.h@.i@.j@.A+.k@.k@.k@.F+.l@.l@.=..m@.n@.o@.y` o@.{..p@.q@.!.._..a .$+._.._..$+.$+.r@.$+.$+.s@.",
"h .h .h .h .t@.ZZ [..[..`Z Q+.u@.R+.v@.w@.$3 x@.y@.z@.A@.B@.C@.D@.E@.F@.Wy `y `y pA G@.H@.I@.J@.Ow g..K@.L@.M@.N@.O@.O@.P@.Q@.R@.S@.T@.U@.V@.W@.X@.Y@.Z@.qZ `@. #..#..#.+#.+#.+#.@#.##.$#.$#.%#.&#.&#.*#.=#.-#.;#.>#.,#.'#.)#./C Yv Xv ;z J..VY !#.~#.7v {#.]#.^#./#.(#._#.:#.<#.A+.B+.[#.}#.|#.1#.6 .6 .F+.2#.3#.F+.4#.4#.l@.W..x` q@.$+.q@.5#.$+._.._..$+.r@.6#.6#.$+.",
"h .h .:..h .YZ 7#.[..`Z `Z Q+.8#.9#.0#._S a#.b#.c#.d#.e#.f#.g#.h#.i#.j#.nA zS k#.[O jN l#.m#.n#.o#.p#.q#.r#.s#.t#.u#.v#.u#.w#.x#.y#.z#.A#.B#.C#.D#.E#.uQ F#.G#.H#.I#.I#.J#.I#.K#.K#.L#.M#.N#.K#.K#.O#.P#.Q#.R#.S#.T#.U#.V#.W#.X#.Y#.Z#.VT `#. $..$.gU +$.+$.@$.#$.$$.%$.%$.&$.:#.:#.*$.=$.-$.;$.>$.,$.'$.)$.!$.~$.{$.]$.^$.^$.^$.q@.~..!../$./$.$+.5#.5#.5#.($._$.r@.!..",
"h .h .h .h .YZ ZZ [..[..[..`Z :$.<$.[$.e#.}$.|$.1$.2$.3$.}$.4$.5$.6$.^X 7$.=P Gz 8$.8$.xA 9$.0$.a$.b$.c$.X@.d$.e$./@.f$.f$.g$.h$.i$.j$.k$.l$.m$.M#.n$.a_ yr o$.p$.q$.q$.r$.s$.t$.u$.v$.w$.x$.y$.z$.A$.B$.C$.D$.D$.D$.E$.xU F$.Xv %x *G -G G$.BS H$.I$.;x ;P J$.K$.L$.M$.N$.O$.P$.Q$.R$.S$.T$.+v U$.V$.W$.X$.Y$.Z$.`$. %..%.+%.@%.#%.#%.4#.4#.#%.#%.#%.$%.$%.#%.$%.%%.$%.",
":..:..M+.h .YZ ZZ [..[..`Z Q+.&%.*%.5 .=%.-%.=%.1$.;%.>%.,%.'%.)%.!%.~%.{%.]%.^%.@H /%.(%._%.:%.<%.[%.b+./@.}%.|%.1%.2%.3%.4%.5%.6%.6%.7%.8%.9%.0%.a%.b%.c%.d%.e%.f%.f%.f%.g%.h%.i%.j%.k%.l%.m%.n%.o%.p%.q%.p%.r%.s%.t%.u%.v%.cn w%.x%.w%.*G y%.z%.A%.B%.C%.D%.E%.F%.G%.H%.I%.J%.K%.L%.M%.N%.O%.)} P%.Q%.Q%.R%.S%.T%.U%.U%.T%.V%.W%.W%.W%.W%.W%.$%.$%.%%.$%.#%.$%.$%.#%.",
"X%.X%.Y%.Y%.Z%.N+.N+.N+.`%. &.R+..&.R+.=%.+&.@&.#&.$&.%&.&&.*&.=&.-&.~%.;&.>&.,&.y..'&.)&.!&.~&._@.(@.{&.]&.^&./&.(&._&.6%.:&.<&.[&.}&.|&.1&.2&.3&.4&.5&.6&.7&.8&.9&.0&.a&.b&.c&.0&.b&.d&.e&.f&.g&.h&.i&.i&.j&.k&.l&.m&.n&.o&.p&.~o [m Ol X#.Ix q&.KI r&.s&.t&.u&.v&.w&.x&.y&.G%.z&.A&.B&.C&.D&.i@.E&.F&.G&.Q%.H&.I&.J&.V%.K&.K&.@%.L&.]$.W%.W%.$%.$%.$%.$%.$%.#%.#%.M&.",
"N&.O&.O&.k@.B+.Y%.YZ M+.P&.P&.Q&. &.R&.S&.T&.@&.U&.V&.W&.X&.Y&.Z&.!%.`&. *..*.+*.'&.@*.#*.$*.!&.%*.^&.6%.:&.&*.u$.**.:&.=*.-*.;*.>*.,*.'*.)*.!*.~*.{*.{*.]*.^*./*.]*.]*.(*.(*._*.:*.<*.[*.}*.|*.1*.2*.2*.2*.3*.4*.5*.6*.6*.k&.7*.8*.%G 9*.~l 0*.SH a*.b*.c*.d*.e*.f*.g*.B&.w&.y&.h*.i*.j*.k*.l*.m*.n*.o*.p*.%+.q*.r*.q*.s*.:..:..t*.u*.@%.^$.W%.v*.v*.v*.w*.v*.x*.y*.y*.",
"N&.O&.O&.k@.B+.Y%.YZ M+.P&.P&.Z%.z*.A*.B*.C*.D*.Y .E*.F*.G*.H*.>&.I*.J*.K*.L*.M*.N*.O*.P*.Q*.R*.S*.T*.J#.N#.U*.&*.V*.M%.W*.X*.Y*.Z*.`*. =..=.+=.@=.#=.$=.%=.&=.*=.==.-=.;=.>=.,=.'=.)=.!=.~=.{=.]=.^=./=./=.(=._=.:=.<=.[=.}=.|=.1=.2=.xp X} 3=.Xv Ay 4=.'z 5=.6=.7=.8=.9=.v&.y&.0=.a=.b=.c=.d=.e=.f=.g=.h=.i=.j=.k=.l=.m=.q*.:..n=.o=.p=.q=.r=.W%.W%.W%.v*.W%.y*.v*.y*.",
"O&.k@.B+.O&.B+.Y%.M+.YZ P&.P&.Q&.z*.D*.S&.s=.t=.F*.X&.F..u=.v=.K*.w=.1%.x=.d+.y=.z=.A=.Q#.B=.5%.C=.D=.E=.M#.F=.G=.H=.>*.I=.J=.K=.L=.M=.N=.O=.P=.>=.Q=.R=.S=.Q=.T=.U=.V=.W=.X=.W=.Y=.Z=.Y=.`=. -..-.+-.@-.#-.#-.$-.%-.&-.*-.=-.--.;-.>-.] .,-.{l 3=.'-.)-.!-.~-.{-.]-.^-./-.(-._-.I#.:-.<-.[-.}-.|-.1-.A&.2-.3-.4-.5-.6-.7-.7-.7-.8-.9-.9-.0-.a-.V%.b-.b-.c-.d-.c-.d-.e-.",
"N&.O&.C+.N&.k@.f-.M+.P&.P&.P&.g-.h-.D*.s=.s=.-%.X&.i-.j-.J*.k-.w=.l-.-#.e+.m-.n-.o-.p-.p-.Q#.q-.r$.r-.s-.>*.t-.u-.v-.w-.x-.y-.z-.A-.B-.C-.D-.E-.F-.G-.G-.U=.H-.I-.J-.J-.K-.K-.L-.M-.N-.O-.P-.Q-.X=.W=.R-.W=.S-.T-.U-.V-.W-.X-.Y-.Z-.`-. ;..;.+;.+;.@;.`} #;.$;.%;.&;.*;.=;.-;.;;.>;.,;.';.);.!;.~;.{;.n*.2-.];.^;./;.5-.6-.7-.(;._;.8-.:;.<;.[;.0-.};.};.};.a-.|;.1;.1;.",
"O&.O&.O&.Y%.Z%.2;.t@.P&.P&.3;.4;.5;.6;.F*.7;.G*.8;.9;.0;.a;.b;.j+.c;.d;.y=.e;.##.f;.g;.h;.i;.j;.k;.f%.l;.0&.m;.n;.o;.o;.p;.q;.r;.s;.t;.u;.v;.w;.x;.y;.z;.A;.B;.C;.D;.E;.F;.G;.H;.I;.J;.K;.H;.L;.M;.N;.O;.P;.Q;.R;.S;.T;.$-.U;.V;.W;.X;.Y;.Z;.`;. >..>.+>.@>.#>.$>.%>.&>.*>.=>.->.;>.>>.,>.'>.)>.<-.!>.~>.{>.]>.1-.^>./>.(>._>.(;.:>.<>.[>.[>.}>.|>.};.a-.a-.1>.|;.2>.|;.",
"k@.k@.YZ YZ 3>.4>.4>.5>.6>.7>.7>.8>.8>.9>.9>.0>.a>.j-.b>.c>.d>.e>.f>.g>.f;.h>.h;.i>.j>.k>.l>.m>.n>.~*.o>.p>.q>.r>.s>.t>.u>.v>.w>.x>.y>.z>.A>.B>.C>.D>.C;.E>.F>.G>.H>.I>.J>.J>.K>.iV E>.L>.M>.N>.O>.P>.Q>.R>.S>.T>.U>.V>.W>.X>.Y>.Z>.`>. ,..,.+,.@,.#,.$,.%,.&,.*,.=,.-,.;,.>,.,,.',.),.!,.~,.{,.>;.],.^,./,.(,.1-._,.:,.<,.[,.:>.},.:;.[>.:;.|,.9-.1,.2,.};.3,.4,.5,.6,.",
"7,.7,.8,.G&.p*.3>.9,.3>.0,.a,.$$.b,.c,.d,.e,.0>.f,.g,.h,.D..i,.j,.k,.l,.m,.n,.A$.o,.p,.q,.r,.Z*.(*.(*.]=.s,.t,.u,.t,.v,.w,.x,.y,.z,.A,.B,.C,.D,.E,.F,.G,.H,.I,.J,.K,.K,.L,.L,.J,.M,.L,.N,.O,.P,.M>.Q,.H,.R,.S,.T,.U,.V,.W,.X,.Y,.Z,.`,. '..'.+'.@'.#'.$'.;-.%'.&'.*'.*,.='.-'.-'.;'.>'.,'.''.)'.!'.~'.{'.]'.^'.n*._,._,./'.:,.('._'.:'.:'.<'.['.}'.9-.2>.a-.};.2>.5,.6,.",
"|'.|'.1'.m=.0,.2'.2'.3'.7>.L%.4'.5'.5'.';.5'.6'.7'.8'.9'.0'.a'.b'.m,.c'.d'.B$.e'.l>.f'.g'.|*.h'.i'.-=.>=.j'..-.k'.l'.m'.n'.o'.p'.q'.r'.n1 s'.t'.u'.v'.w'.x'.y'.z'.A'.B'.C'.D'.A'.C'.E'.F'.G'.H'.I'.J'.K'.L'.M'.N'.O'.P'.Q'.R'.S'.T'.U'.V'.W'.W'.X'.Y'.Z'.`'. )..).+).@).#).$).#>.%).&).&).*).=).=).-).;).>).,).,).').)).!)._,._,.~).{).]).]).^)./).()._).:).<).2>.5,.5,.",
"[).}).V$.Q%.|).0,.0,.7>.L%.L%.1).5'.';.';.2).3).4).5).6).7).b'.8).p-.9).g%.0).a).7*.b).p>.c).d).,=.Z=.R-.e).f).g).h).i).j).k).l).m).n).o).p).q).r).s).t).u).v).w).x).x).y).y).y).z).z).A).B).C).D).E).F).G).H).I).J).K).L).M).N).O).P).Q).R).S).T).U).V).+'.W).X).Y).Z).`). !..!.+!.-'.@!.#!.,'.''.$!.%!.&!.*!.=!.-!.;!.>!.)).,!.:,.'!.'!.)!.!!.['.['.~!._).{!.]!.5,.5,.",
"^!./!.Q%.Q%.(!.0,.7>.a,.L%.L%._!.5'.:!.x&.<!.[!.}!.|!.1!.2!.3!.4!.5!.6!.k&.Z*.7!.8!.9!.]=.0!.a!.W=.b!.c!.C;.d!.e!.E>.f!.g!.h!.i!.j!.k!.l!.m!.n!.o!.p!.q!.r!.s!.t!.t!.t!.u!.u!.v!.w!.x!.y!.z!.A!.B!.C!.D!.y).E!.F!.G!.H!.I!.J!.K!.L!.M!.N!.O!.P!.Q!.R!.S!.T!.U!.V!.W!.X!.Y!.$,.Z!.`!. ~..~.+~.@~.&).#~.$~.%~.&~.*~.=~.-~.;!.;~.>~.,~.,~.'~.)!.!!.)~.['.!~.~!.|,._).5,.5,.",
"m=.~~.{~.0,.0,.7>.a,.8>.]~.^~./~.(~._~.:~.<~.[~.}~.|~.1~.2~.3~.4~.5~.3&.g'.3*.6~.7~.8~.9~.0~.O;.a~.b~.c~.d~.e~.f~.g~.h~.i~.j~.k~.l~.m~.n~.o~.p~.q~.r~.s~.t~.u~.v~.w~.x~.y~.z~.A~.z~.B~.C~.B~.B~.D~.E~.F~.G~.G~.H~.I~.J~.K~.L~.M~.N~.O~.P~.Q~.R~.S~.T~.Q!.S).U~.V~.`>.W~.@,.X~.Y~.Z~.`~. {..{.+~.+{.@{.#{.${.%{.&{.*{.={.={.;!.-{.;{.>{./'.,{.'{.'!.!!.){.){.!{.~{.!~.{{.",
"l=.V$.]{.0,.0,.^{./{.({._{.:{.<{.<{.x&.<~.[{.}{.|{.1{.2{.3{.4{.5{.6{.7{.8{.9{.0{.a{.9~.b{.c{.d{.b~.e{.f{.g{.g!.v'.h{.i{.j{.k{.l{.m{.n{.u!.o{.p{.q{.r{.s{.t{.u{.v{.w{.x{.x{.y{.z{.A{.A{.B{.C{.D{.E{.F{.G{.H{.I{.J{.K{.L{.M{.N{.O{.P{.Q{.R{.S{.T{.U{.V{.W{.X{.Y{.Z,.Z{.`{. ]..].+].@].#].$].%]..{.&].+{.@{.#{.${.*].*].=].={.-].;].)).>].>{.'!.)!.,].,].,].'].'].)].!].~].",
"m=.V$.{].]].0,.^].({./].:{.5'.(]._].:].<].[].}].|].1].2].3].k&.4].5].6~.6].7].8].9].0].a].b].c].d].e].g!.f].H'.g].h].i].j].k].l].m].n].o].p].q].r].s].t].u].v].w].x].y].z].A].B].C].D].E].F].G].H].I].J].K].L].M].N].O].P].Q].R].S].T].U].V].W].X].Y].Z].`]. ^..^.+^.@^.#^.$^.%^.&^.*^.=^.-^.;^.>^.,^.'^.)^.!^.${.~^.{^.=].]^.^^./^.(^._^.>].:^.,~.,].'].'].'].<^.[^.}^.",
"m=.m=.|^.1^.0,./{.N$._!.G%.:!._]._].<].,;.2^.3^.4^.5^.6^.7^.8^.9^.0^.a^.b^.0~.c^.d^.d{.e^.f^.g^.h^.i^.j^.k^.m~.l^.m^.t!.n^.o^.p^.q^.r^.s^.t^.u^.v^.w^.x^.y^.z^.A^.B^.C^.D^.E^.E^.F^.F^.F^.G^.H^.I^.J^.K^.L^.M^.N^.O^.P^.Q^.R^.S^.T^.U^.V^.W^.U].V].X^.Y^.Z^.`^. /../.+/.@/.#/.$/.%/.&/.*^.*/.=/.-/.;/.>/.'^.,/.'/.)/.!/.~/.{/.]/.^^.^/.//.(^._^.,~.'~.,].,].'].(/._/.:/.",
"V$.m=.|^.0,.7>.</.[/._!.G%.:!.}/.|/.1/.V# 2/.3/.1~.4/.5/.6/.7/.=-.8/.9/.0/.a/.b/.c/.d/.e/.M>.f/.g/.h/.i/.z).j/.x!.k/.l/.m/.n/.o/.p/.q/.r/.s/.y^.t/.u/.v/.w/.x/.y/.z/.A/.B/.z/.C/.B/.B/.D/.E/.F/.G/.H/.I/.J/.K/.L/.M/.N/.O/.P/.Q/.R/.S/.T/.U/.V/.W/.X/.Y/.Z/.`/. (..(.+(.@(.#(.$(.%(.&(.*(.=(.-(.;(.>(.,(.'(.'^.)(.'/.!(.~^.~/.~(.{(.]/.](.;~.//.^(./(.((._(.:(.<(.[(.}(.",
"|(.Q%.Q%.{].1(.2(.3(.4(.y&.5(.6(.7(.8(.9(.0(.a(.3{.b(.c(.d(.e(.f(.g(.h(.i(.j(.k(.l(.m(.n(.j!.o(.G).p(.x).q(.E~.u~.r(.s(.t(.u(.v(.w(.x(.y(.z(.A(.B(.C(.D(.E(.F(.G(.H(.I(.J(.K(.K(.L(.L(.M(.N(.N(.O(.P(.Q(.R(.S(.T(.U(.V(.W(.X(.Y(.Z(.`(. _.._.+_.@_.#_.$_.%_.&_.*_.=_.-_.;_.>_.,_.'_.)_.!_.~_.{_.]_.^_./_.(_.__.:_.<_.[_.}_.!(.!/.~(.|_.1_.2_.3_.4_.5_.6_.7_.:(.8_.9_.0_.",
"Q%.a_.Q%.b_.r*.2(.c_.d_.e_.v&.e*.f_.=>.&;.g_.h_.i_.j_.k_.l_.m_.n_.`>.0/.o_.p_.q_.r_.s_.f].t_.E).u_.v_.w_.x_.y_.z_.A_.B_.C_.D_.E_.F_.G_.C/.H_.I_.J_.K_.L_.M_.N_.O_.P_.Q_.R_.S_.T_.U_.U_.V_.W_.W_.X_.Y_.Z_.`_. :..:.+:.@:.#:.$:.L/.%:.&:.*:.=:.-:.;:.>:.,:.$_.':.):.!:.~:.{:.]:.^:./:.(:._:.::.<:.[:.}:.|:.1:.2:.3:.4:.5:.6:.7:.8:.!/.9:.0:.a:.b:.c:.;{.5_.6_._(.d:.d:.e:.",
"Q%.Q%./!.f:.r*.g:.n*.d_.v&.h:.i:.f_.=>.&;.g_.j:.$;.k:.l:.m:.n:.o:.p:.q:.r:.s:.t:.u:.v:.w:.x:.u_.y:.w_.x_.z:.A:.B:.C:.D:.E:.F:.G:.H:.I:.J:.K:.L:.M:.N:.O:.P:.Q:.R:.S:.T:.U:.V:.W:.X:.Y:.W:.Z:.`:. <..<.+<.@<.#<.$<.%<.&<.*<.=<.-<.;<.><.,<.'<.)<. _.!<.~<.{<.]<.^<./<.(<._<.:<.<<.[<.}<.|<.1<.2<.3<.4<.5<.6<.7<.8<.4:.9<.0<.}_.a<.b<.~(.9:.c<.d<.e<.f<.5_.5_.((.8_.d:.e:."};
